Huisouan/isaac-rl-lab/source/vqvae/data/back_001.csv
rootstate0,rootstate1,rootstate2,rootstate3,rootstate4,rootstate5,rootstate6,rootstate7,rootstate8,rootstate9,rootstate10,rootstate11,rootstate12,joint_pos_0,joint_pos_1,joint_pos_2,joint_pos_3,joint_pos_4,joint_pos_5,joint_pos_6,joint_pos_7,joint_pos_8,joint_pos_9,joint_pos_10,joint_pos_11,joint_vel_0,joint_vel_1,joint_vel_2,joint_vel_3,joint_vel_4,joint_vel_5,joint_vel_6,joint_vel_7,joint_vel_8,joint_vel_9,joint_vel_10,joint_vel_11,foot_pos_0_x,foot_pos_0_y,foot_pos_0_z,foot_pos_1_x,foot_pos_1_y,foot_pos_1_z,foot_pos_2_x,foot_pos_2_y,foot_pos_2_z,foot_pos_3_x,foot_pos_3_y,foot_pos_3_z,foot_vel_0_x,foot_vel_0_y,foot_vel_0_z,foot_vel_0_rx,foot_vel_0_ry,foot_vel_0_rz,foot_vel_1_x,foot_vel_1_y,foot_vel_1_z,foot_vel_1_rx,foot_vel_1_ry,foot_vel_1_rz,foot_vel_2_x,foot_vel_2_y,foot_vel_2_z,foot_vel_2_rx,foot_vel_2_ry,foot_vel_2_rz,foot_vel_3_x,foot_vel_3_y,foot_vel_3_z,foot_vel_3_rx,foot_vel_3_ry,foot_vel_3_rz
0.0,0.0,0.3513999879360199,0.0587480254471302,0.0227110106498003,0.04127901792526245,0.9971604347229004,0.0,0.0,0.0,0.0,0.0,0.0,-0.07488100230693817,0.18984100222587585,-0.016255000606179237,0.24027399718761444,0.6561809778213501,0.8462679982185364,0.8640829920768738,0.7529879808425903,-1.594383955001831,-1.6051290035247803,-1.4310829639434814,-1.54379403591156,-0.0027169999666512012,-0.001883000019006431,0.0018100000452250242,0.0002610000083222985,-0.0008750000270083547,-0.006666000001132488,-0.003464000066742301,-0.008403999730944633,9.999999974752427e-07,0.008182999677956104,0.004982000216841698,0.010057000443339348,-0.262259304523468,-0.11442765593528748,0.07140398025512695,-0.18476206064224243,0.08052195608615875,0.04445011913776398,0.20727762579917908,-0.18954309821128845,0.03521273285150528,0.1778162121772766,0.018180307000875473,0.020395740866661072,-0.00016986475384328514,0.0008244715281762183,-0.0002206503413617611,0.002799200126901269,0.0005443482077680528,-0.00011886386346304789,-0.0007217134116217494,0.00032396253664046526,-0.001185814617201686,0.0017106645973399282,-0.0016757311532273889,0.00033545366022735834,-0.0002986605395562947,-0.0005814257310703397,-0.0005121954018250108,-0.0019718599505722523,-0.0012886578915640712,0.00017763829964678735,-0.0011722191702574492,-0.0004181704134680331,-0.001351191895082593,-0.00042430072790011764,-0.001526559586636722,0.0005386274424381554
-5.520880222320557e-06,-3.401236608624458e-05,0.35139140486717224,0.058682069182395935,0.022649457678198814,0.04124312475323677,0.99716717004776,-0.6447436213493347,-3.9752144813537598,-1.0012482404708862,-5.439316749572754,16.299571990966797,14.910111427307129,-0.07499554008245468,0.1897374838590622,-0.016345340758562088,0.24016010761260986,0.6561790704727173,0.8461937308311462,0.8640488982200623,0.7528937458992004,-1.594387173652649,-1.605026364326477,-1.4310014247894287,-1.5436152219772339,-10.698882102966309,-10.22754192352295,-12.311612129211426,-13.543675422668457,0.5914099812507629,-2.137326240539551,-0.5965591073036194,-2.839045286178589,-0.38127225637435913,4.0605645179748535,4.617199897766113,11.073026657104492,-0.2622125744819641,-0.11444468796253204,0.07134512066841125,-0.1847444474697113,0.08051217347383499,0.04441053420305252,0.20734262466430664,-0.18950077891349792,0.03519493341445923,0.1778489053249359,0.01822112500667572,0.02038426697254181,-2.940530300140381,-5.956883430480957,2.543483257293701,5.1499834060668945,14.818830490112305,14.480742454528809,-6.41092586517334,-5.069960594177246,0.7578011751174927,4.50792121887207,13.243099212646484,15.019124031066895,-1.8639168739318848,1.4305176734924316,-5.706114292144775,6.308615684509277,10.851751327514648,14.689509391784668,-5.036567687988281,0.9038035273551941,-6.03307580947876,7.174092769622803,6.929739475250244,16.99282455444336
-0.005383919924497604,-0.033160705119371414,0.34304988384246826,-0.005723296664655209,-0.0373108834028244,0.006154914386570454,0.9992683529853821,0.004724449943751097,0.017217906191945076,-0.005892625544220209,-0.15201161801815033,-0.0018137282459065318,-0.01135673001408577,-0.16415296494960785,0.10450848937034607,-0.11894047260284424,0.1272968351840973,0.6611077785491943,0.8283828496932983,0.8590768575668335,0.7292359471321106,-1.5975643396377563,-1.57118821144104,-1.3925261497497559,-1.4513404369354248,0.0020793897565454245,0.028991254046559334,0.14805328845977783,0.10765255242586136,0.04503263905644417,-0.007379649206995964,-0.06787542253732681,0.11377386748790741,-0.0240540262311697,-0.011184989474713802,-0.12589257955551147,0.03265510872006416,-0.21504363417625427,-0.13218054175376892,0.02165158838033676,-0.1635165512561798,0.0710948184132576,0.01987157016992569,0.266173779964447,-0.13720649480819702,0.03208749741315842,0.211988627910614,0.0660136267542839,0.028983473777770996,0.014199286699295044,-0.029300285503268242,0.011891597881913185,-0.1536019891500473,-0.022572848945856094,-0.014666666276752949,0.002643386833369732,-0.038151513785123825,-0.022556550800800323,-0.1809784173965454,0.01627909205853939,-0.015682576224207878,-0.04157169908285141,-0.0829107016324997,0.025984030216932297,-0.3034714460372925,0.18906964361667633,-0.0019082684302702546,0.04892997443675995,-0.06769843399524689,-0.02728269062936306,-0.25915026664733887,-0.1480974406003952,0.0010086033726111054
-0.005344867706298828,-0.033016547560691833,0.3430008888244629,-0.0063549550250172615,-0.037247881293296814,0.006111886817961931,0.9992671608924866,0.005074802786111832,0.017531314864754677,-0.005350775551050901,-0.1525249481201172,-0.002012350130826235,-0.011374768801033497,-0.1641358584165573,0.10474999248981476,-0.11770586669445038,0.1281951516866684,0.6614828705787659,0.828321099281311,0.858510434627533,0.7301846742630005,-1.5977654457092285,-1.5712817907333374,-1.3935762643814087,-1.4510682821273804,0.006155966315418482,0.0383622907102108,0.16134099662303925,0.12301556020975113,0.03508232161402702,0.003937392495572567,-0.09935931861400604,0.14330507814884186,-0.01872844062745571,-0.034564483910799026,-0.09007181972265244,-0.008574939332902431,-0.21483886241912842,-0.1322963535785675,0.021653026342391968,-0.1636846363544464,0.07097744941711426,0.01984354853630066,0.26592203974723816,-0.13712921738624573,0.03212863951921463,0.21221499145030975,0.06614868342876434,0.028853513300418854,0.012394994497299194,-0.030324850231409073,0.012018534354865551,-0.15826663374900818,-0.018256288021802902,-0.014292441308498383,0.0026202406734228134,-0.04049655795097351,-0.01915339007973671,-0.19091203808784485,0.027899840846657753,-0.017807183787226677,-0.04425733536481857,-0.08662571012973785,0.021817365661263466,-0.31736651062965393,0.1842174082994461,-0.0035772882401943207,0.051880836486816406,-0.07171516865491867,-0.021462243050336838,-0.2748365104198456,-0.13703228533267975,-0.0016518451739102602
-0.005301835015416145,-0.03287037834525108,0.34295687079429626,-0.006990673486143351,-0.03720715269446373,0.006074871402233839,0.9992647171020508,0.004885038360953331,0.018326817080378532,-0.003040720708668232,-0.15667422115802765,-0.0022662279661744833,-0.011670378036797047,-0.16408385336399078,0.10507035255432129,-0.11635931581258774,0.1292213648557663,0.6617757081985474,0.8283537030220032,0.8576810359954834,0.731380045413971,-1.5979218482971191,-1.5715705156326294,-1.39432692527771,-1.4511395692825317,0.004519383888691664,0.03976185992360115,0.1662575751543045,0.12777335941791534,0.020209278911352158,-0.009929459542036057,-0.1460423767566681,0.11829199641942978,-0.022784005850553513,-0.045445121824741364,-0.05545180290937424,0.01389938872307539,-0.2146327793598175,-0.13242557644844055,0.021647371351718903,-0.1638384461402893,0.07083545625209808,0.019836418330669403,0.2656633257865906,-0.1370847374200821,0.03214782476425171,0.2124795913696289,0.06624937057495117,0.028781145811080933,0.007285159546881914,-0.03053274005651474,0.015568599104881287,-0.16124629974365234,0.00021318398648872972,-0.011618833057582378,-0.003399841021746397,-0.041324179619550705,-0.01640831120312214,-0.1966342329978943,0.05215254798531532,-0.021111920475959778,-0.05256069451570511,-0.08831019699573517,0.01828477717936039,-0.32690224051475525,0.19570498168468475,-0.003226684173569083,0.0477614551782608,-0.07428836077451706,-0.02313501201570034,-0.2835772633552551,-0.13497792184352875,-0.0025150245055556297
-0.005261795595288277,-0.032718170434236526,0.34293097257614136,-0.007643494755029678,-0.03724658489227295,0.006043844390660524,0.9992586374282837,0.004781662952154875,0.01937217079102993,-0.0005610564257949591,-0.1658206284046173,-0.002615237608551979,-0.012363775633275509,-0.16404686868190765,0.10540179163217545,-0.11497224122285843,0.13028788566589355,0.6619440317153931,0.8282709121704102,0.8564621806144714,0.7323670387268066,-1.5981111526489258,-1.5719492435455322,-1.3947890996932983,-1.4510233402252197,0.0031496714800596237,0.041904326528310776,0.18144968152046204,0.13779951632022858,0.0024922387674450874,-0.025138868018984795,-0.20692242681980133,0.09538064897060394,-0.028856318444013596,-0.05324924364686012,-0.0021814184729009867,0.03819065913558006,-0.21441590785980225,-0.1325572282075882,0.0216342955827713,-0.16399598121643066,0.07068696618080139,0.01982780545949936,0.2653871178627014,-0.13703836500644684,0.0321769192814827,0.2127549648284912,0.0663430392742157,0.02873031049966812,0.0011308073299005628,-0.032171450555324554,0.02015654183924198,-0.16966770589351654,0.023389972746372223,-0.008633602410554886,-0.009138092398643494,-0.043725498020648956,-0.014512015506625175,-0.20814481377601624,0.07456914335489273,-0.0246885959059,-0.06176302209496498,-0.09455747902393341,0.013296486809849739,-0.3516130745410919,0.20249128341674805,-0.004561182111501694,0.04483925178647041,-0.0800163745880127,-0.0255432091653347,-0.30255159735679626,-0.13699661195278168,-0.003629407612606883
-0.005221802741289139,-0.032555948942899704,0.342926025390625,-0.008326388895511627,-0.03736397996544838,0.0060138278640806675,0.9992489218711853,0.0038097926881164312,0.02049126662313938,0.0007518960046581924,-0.17485930025577545,-0.0029970717150717974,-0.013077882118523121,-0.1640198975801468,0.10575107485055923,-0.11345864832401276,0.13143692910671234,0.661964476108551,0.8280612230300903,0.8547363877296448,0.733161985874176,-1.5983525514602661,-1.5723938941955566,-1.3948074579238892,-1.4507044553756714,0.001912368810735643,0.040412552654743195,0.18240928649902344,0.13540777564048767,-0.01010669395327568,-0.03447311371564865,-0.22715002298355103,0.07737533003091812,-0.029325047507882118,-0.054486166685819626,0.010086585767567158,0.0704377219080925,-0.2141934484243393,-0.13269245624542236,0.021620437502861023,-0.1641577184200287,0.07053206115961075,0.019818328320980072,0.2650896906852722,-0.13700321316719055,0.032198481261730194,0.21304798126220703,0.06642807275056839,0.028700202703475952,-0.0035927421413362026,-0.03354335203766823,0.022585410624742508,-0.17787736654281616,0.03593793511390686,-0.007292057853192091,-0.012908410280942917,-0.044961608946323395,-0.014205973595380783,-0.21588356792926788,0.08464892953634262,-0.02657286822795868,-0.06674003601074219,-0.09664765745401382,0.013242986053228378,-0.36206328868865967,0.2097879946231842,-0.0049021923914551735,0.043886054307222366,-0.0816858634352684,-0.02935798652470112,-0.3089461326599121,-0.15159755945205688,-0.002006478374823928
-0.00518982857465744,-0.0323847234249115,0.34293314814567566,-0.00904031377285719,-0.03752339258790016,0.0059858281165361404,0.9992369413375854,0.002808009274303913,0.02143191173672676,0.0021993431728333235,-0.183323934674263,-0.0034045784268528223,-0.013768556527793407,-0.16400396823883057,0.10608838498592377,-0.11193757504224777,0.1325664073228836,0.6618800759315491,0.8277735114097595,0.852840781211853,0.7338077425956726,-1.5985969305038452,-1.5728484392166138,-1.3947231769561768,-1.450116753578186,0.00034055233118124306,0.03984422981739044,0.19088421761989594,0.14039777219295502,-0.01593288592994213,-0.042293865233659744,-0.2536226511001587,0.06263997405767441,-0.03242141008377075,-0.05873894691467285,0.030877338722348213,0.08829518407583237,-0.21397700905799866,-0.13283129036426544,0.02160356193780899,-0.1643313765525818,0.070377416908741,0.019806303083896637,0.2647828161716461,-0.1369463950395584,0.0322348028421402,0.21335208415985107,0.06653555482625961,0.02866382896900177,-0.006692783907055855,-0.03482566401362419,0.02537335269153118,-0.18509680032730103,0.04437243193387985,-0.006525103468447924,-0.016744721680879593,-0.046442143619060516,-0.013308085501194,-0.2240159660577774,0.09617811441421509,-0.028689511120319366,-0.07210146635770798,-0.10112844407558441,0.012481439858675003,-0.3794076442718506,0.21464097499847412,-0.006050621159374714,0.04157844930887222,-0.08553138375282288,-0.03142686188220978,-0.322165846824646,-0.15535473823547363,-0.0024978129658848047
-0.005165984854102135,-0.03220649063587189,0.3429512083530426,-0.009781227447092533,-0.03771800175309181,0.005961860064417124,0.9992227554321289,0.00021618469327222556,0.02203552797436714,0.002976106246933341,-0.1908954381942749,-0.003828961169347167,-0.014410692267119884,-0.16400113701820374,0.1064206212759018,-0.11034464836120605,0.13373778760433197,0.6617473363876343,0.8274206519126892,0.8507252931594849,0.7343304753303528,-1.598867416381836,-1.573338270187378,-1.3944652080535889,-1.4493796825408936,-0.001962029840797186,0.03819172829389572,0.195204958319664,0.14295659959316254,-0.024555020034313202,-0.049371059983968735,-0.27375879883766174,0.049840446561574936,-0.03526639938354492,-0.06249780207872391,0.05684058368206024,0.10741423815488815,-0.21375803649425507,-0.13297447562217712,0.0215882807970047,-0.16452071070671082,0.07021912187337875,0.01979566365480423,0.2644590735435486,-0.13689427077770233,0.032275229692459106,0.21365264058113098,0.0666423887014389,0.028629861772060394,-0.012168556451797485,-0.03598622977733612,0.027378108352422714,-0.19080379605293274,0.05532266944646835,-0.005271361209452152,-0.021875910460948944,-0.04765979200601578,-0.012957711704075336,-0.2301984280347824,0.10648129880428314,-0.030540429055690765,-0.07606428861618042,-0.10423991829156876,0.01070427242666483,-0.3914283215999603,0.20807689428329468,-0.008012279868125916,0.03850376233458519,-0.08865134418010712,-0.034053999930620193,-0.33202457427978516,-0.16226287186145782,-0.002290822099894285
-0.005164138972759247,-0.03202228993177414,0.34297633171081543,-0.010541052557528019,-0.037962548434734344,0.005944935604929924,0.9992058873176575,-0.0017287360969930887,0.02224602922797203,0.0042174519039690495,-0.19436956942081451,-0.004195222165435553,-0.014767292886972427,-0.1640174239873886,0.10673971474170685,-0.1087159588932991,0.13493064045906067,0.6615424752235413,0.8270087838172913,0.8484417200088501,0.7347461581230164,-1.599161982536316,-1.5738589763641357,-1.3939907550811768,-1.4484833478927612,-0.005374202970415354,0.035225074738264084,0.1956353634595871,0.1383688598871231,-0.03234868124127388,-0.054615993052721024,-0.28959324955940247,0.04093298316001892,-0.03798164427280426,-0.06636787950992584,0.08055159449577332,0.12536421418190002,-0.2135494202375412,-0.13311995565891266,0.021565109491348267,-0.16472584009170532,0.07005956023931503,0.019777610898017883,0.2641364634037018,-0.13684117794036865,0.032322004437446594,0.2139531821012497,0.06674901396036148,0.02860039472579956,-0.016727827489376068,-0.03596571087837219,0.02936040796339512,-0.19131502509117126,0.06541376560926437,-0.0037902891635894775,-0.025893595069646835,-0.047602370381355286,-0.011552328243851662,-0.2309855818748474,0.11516411602497101,-0.03181183338165283,-0.07845029979944229,-0.10518205165863037,0.00924080703407526,-0.3954048156738281,0.19959333539009094,-0.009605377912521362,0.03700518608093262,-0.08844634890556335,-0.035219691693782806,-0.3306119441986084,-0.17166200280189514,-0.0008532553329132497
-0.0051792580634355545,-0.03183713182806969,0.34301140904426575,-0.011305714957416058,-0.03823922574520111,0.005938052665442228,0.9991869926452637,-0.0030510262586176395,0.021862296387553215,0.005093279294669628,-0.19508646428585052,-0.004510536789894104,-0.014929063618183136,-0.16406267881393433,0.10703371465206146,-0.1070847287774086,0.13608418405056,0.6612727046012878,0.8265529870986938,0.8460258841514587,0.7350872755050659,-1.5994783639907837,-1.5744129419326782,-1.3933182954788208,-1.4474378824234009,-0.008017550222575665,0.031642597168684006,0.1902216374874115,0.13098253309726715,-0.03846248239278793,-0.05901682749390602,-0.30560946464538574,0.02584228105843067,-0.03881431743502617,-0.06918220221996307,0.10137753933668137,0.14201989769935608,-0.21335762739181519,-0.1332651674747467,0.021543636918067932,-0.16494616866111755,0.06990036368370056,0.019761405885219574,0.26381373405456543,-0.1367909461259842,0.03237137943506241,0.21425843238830566,0.06686295568943024,0.02857527881860733,-0.019903026521205902,-0.03587781637907028,0.030417945235967636,-0.18974842131137848,0.07202734798192978,-0.0027044315356761217,-0.02890472672879696,-0.047118499875068665,-0.010294021107256413,-0.22840197384357452,0.12203333526849747,-0.03261997178196907,-0.08084697276353836,-0.10395636409521103,0.00699955690652132,-0.390869677066803,0.19434137642383575,-0.010261785238981247,0.0338822640478611,-0.08705179393291473,-0.03636561334133148,-0.32371383905410767,-0.1735347956418991,-9.872271039057523e-05
-0.005204418674111366,-0.03165499120950699,0.3430536687374115,-0.012058229185640812,-0.038554105907678604,0.005943250376731157,0.9991661310195923,-0.004449875559657812,0.021244795992970467,0.0068558938801288605,-0.19473952054977417,-0.00479741208255291,-0.015024617314338684,-0.16412918269634247,0.10729752480983734,-0.10549789667129517,0.13717666268348694,0.6609511971473694,0.8260604739189148,0.843476414680481,0.7353018522262573,-1.5998016595840454,-1.5749897956848145,-1.3924731016159058,-1.446252703666687,-0.012443305924534798,0.026934709399938583,0.18181432783603668,0.12389013171195984,-0.05184569209814072,-0.06953447312116623,-0.32606014609336853,-0.001110503333620727,-0.03997421637177467,-0.07277099788188934,0.12703755497932434,0.16258379817008972,-0.21316975355148315,-0.13340985774993896,0.02151678502559662,-0.16516372561454773,0.06974354386329651,0.01974138617515564,0.2634927034378052,-0.13674257695674896,0.032423235476017,0.2145644575357437,0.06697876751422882,0.028555244207382202,-0.025361571460962296,-0.03527405858039856,0.03235247731208801,-0.18563610315322876,0.08622555434703827,-0.00027071600197814405,-0.033979274332523346,-0.046242423355579376,-0.008081174455583096,-0.22375448048114777,0.13581034541130066,-0.03410119563341141,-0.08385265618562698,-0.10159187018871307,0.0045392196625471115,-0.3822564482688904,0.18881213665008545,-0.01064707338809967,0.027570825070142746,-0.08582038432359695,-0.03737086430191994,-0.31614863872528076,-0.16749638319015503,-0.0004897185717709363
-0.005241384729743004,-0.031476933509111404,0.3431108295917511,-0.01278760563582182,-0.03891785815358162,0.0059654442593455315,0.9991428256034851,-0.0036551475059241056,0.02025962434709072,0.008252261206507683,-0.19238314032554626,-0.0050222063437104225,-0.014982378110289574,-0.16423355042934418,0.1075214371085167,-0.10398101061582565,0.13821078836917877,0.6605186462402344,0.8254808187484741,0.8407555818557739,0.7352926731109619,-1.6001359224319458,-1.5755974054336548,-1.3914132118225098,-1.4448964595794678,-0.015110188163816929,0.023622678592801094,0.17517998814582825,0.11491608619689941,-0.06201092153787613,-0.07935751229524612,-0.35501164197921753,-0.023069322109222412,-0.037437133491039276,-0.07267499715089798,0.1636635959148407,0.18127894401550293,-0.21300053596496582,-0.13354893028736115,0.02148948609828949,-0.16538715362548828,0.06959155946969986,0.019720710813999176,0.26317140460014343,-0.13669700920581818,0.03248371183872223,0.21485313773155212,0.0670853704214096,0.028544776141643524,-0.027164414525032043,-0.034829411655664444,0.03316564857959747,-0.1810520887374878,0.09361936897039413,0.0011322065256536007,-0.03605565428733826,-0.045602623373270035,-0.006565140560269356,-0.2184475064277649,0.14527927339076996,-0.03503287956118584,-0.08533070236444473,-0.09942027926445007,-7.704133167862892e-05,-0.3732975125312805,0.1808757483959198,-0.011238209903240204,0.024661492556333542,-0.08363237977027893,-0.038108088076114655,-0.30468055605888367,-0.1644124686717987,-0.000148712657392025
-0.005272505804896355,-0.031308840960264206,0.3431798815727234,-0.013487016782164574,-0.03931208699941635,0.006001561414450407,0.999117910861969,-0.00459406478330493,0.019391654059290886,0.008330604992806911,-0.185686856508255,-0.005109576974064112,-0.014606999233365059,-0.16435977816581726,0.10771922767162323,-0.10252013057470322,0.13916857540607452,0.6600016355514526,0.82481849193573,0.837794303894043,0.7351003885269165,-1.6004480123519897,-1.5762039422988892,-1.390047311782837,-1.4433841705322266,-0.01601393334567547,0.020034119486808777,0.16076798737049103,0.10401879996061325,-0.05720338597893715,-0.07670816034078598,-0.32128649950027466,-0.0236158799380064,-0.036166150122880936,-0.0719490572810173,0.13152092695236206,0.17796838283538818,-0.21283337473869324,-0.13368724286556244,0.02146083116531372,-0.16560278832912445,0.06943807005882263,0.019698046147823334,0.2628495693206787,-0.13666534423828125,0.032526254653930664,0.21514150500297546,0.06718239933252335,0.028537429869174957,-0.026447851210832596,-0.03333278372883797,0.03226441890001297,-0.17336975038051605,0.08756764978170395,0.0006749283638782799,-0.0361223965883255,-0.043330319225788116,-0.005546693690121174,-0.20830704271793365,0.14189749956130981,-0.034038424491882324,-0.08162413537502289,-0.09392951428890228,0.004129090812057257,-0.3524264395236969,0.17938105762004852,-0.0103148203343153,0.022931788116693497,-0.07873263210058212,-0.03633841127157211,-0.28698429465293884,-0.1605214774608612,0.0005778791382908821
-0.005310673266649246,-0.031146790832281113,0.34324899315834045,-0.014163240790367126,-0.03969312086701393,0.006043686531484127,0.999093234539032,-0.00563090480864048,0.01845443993806839,0.008095357567071915,-0.17660892009735107,-0.005101027898490429,-0.01402719970792532,-0.16449296474456787,0.10788610577583313,-0.10117917507886887,0.14003682136535645,0.6595240831375122,0.8241791725158691,0.8351141810417175,0.7349035739898682,-1.6007496118545532,-1.5768039226531982,-1.3889509439468384,-1.4418996572494507,-0.01647225394845009,0.017616214230656624,0.1571195274591446,0.098588727414608,-0.058184411376714706,-0.07356636971235275,-0.31578347086906433,-0.02062181755900383,-0.030328411608934402,-0.06567379832267761,0.14258888363838196,0.1708100289106369,-0.21267291903495789,-0.1338222622871399,0.021436065435409546,-0.16582095623016357,0.06929177045822144,0.019680269062519073,0.26254603266716003,-0.13662070035934448,0.032602764666080475,0.21541300415992737,0.06728988885879517,0.028531856834888458,-0.026920972391963005,-0.03127109631896019,0.030215110629796982,-0.16377653181552887,0.08280840516090393,0.000571242708247155,-0.03525330871343613,-0.04082535579800606,-0.005377642810344696,-0.19682210683822632,0.13259273767471313,-0.03219336271286011,-0.07879786938428879,-0.09071962535381317,0.0022125004325062037,-0.33935460448265076,0.16279566287994385,-0.011299352161586285,0.02157391607761383,-0.07482321560382843,-0.03435616195201874,-0.2723762094974518,-0.1563563495874405,0.0010289624333381653
-0.00535755418241024,-0.030992815271019936,0.34331703186035156,-0.01480733510106802,-0.040051527321338654,0.006091860122978687,0.9990693926811218,-0.004389516077935696,0.01705377735197544,0.008069547824561596,-0.16912224888801575,-0.005104983225464821,-0.013553517870604992,-0.16463027894496918,0.10803273320198059,-0.09986835718154907,0.1408592164516449,0.6590396165847778,0.8235653042793274,0.8324807286262512,0.734731912612915,-1.6010022163391113,-1.5773518085479736,-1.3877613544464111,-1.4404752254486084,-0.017803169786930084,0.013529538176953793,0.1453145295381546,0.08736571669578552,-0.05751730874180794,-0.07546589523553848,-0.30615484714508057,-0.02403704635798931,-0.025002846494317055,-0.0612594299018383,0.14572930335998535,0.1700567752122879,-0.2125369906425476,-0.13395264744758606,0.021412819623947144,-0.16603922843933105,0.06914975494146347,0.019662894308567047,0.2622452676296234,-0.1365949958562851,0.03266078233718872,0.2156660556793213,0.06738851964473724,0.02852560579776764,-0.02471090853214264,-0.029873427003622055,0.0285380519926548,-0.15483754873275757,0.07694168388843536,0.0002602202584967017,-0.0339319109916687,-0.038778603076934814,-0.005001010373234749,-0.18537537753582,0.13018469512462616,-0.031143303960561752,-0.07392362505197525,-0.08587168157100677,0.0011771838180720806,-0.31983473896980286,0.15024472773075104,-0.011346678249537945,0.021484319120645523,-0.07014003396034241,-0.03305019810795784,-0.25360673666000366,-0.15200667083263397,0.0018347406294196844
-0.005393672734498978,-0.030850850045681,0.34338414669036865,-0.015414250083267689,-0.04041138291358948,0.006148031912744045,0.9990453124046326,-0.004844239912927151,0.015597647055983543,0.008322328329086304,-0.15684296190738678,-0.004926986526697874,-0.01268210168927908,-0.16477851569652557,0.10814540833234787,-0.09865661710500717,0.14158762991428375,0.6585592031478882,0.8229351043701172,0.8299263715744019,0.7345311045646667,-1.6012107133865356,-1.5778627395629883,-1.3865457773208618,-1.4390559196472168,-0.01839231327176094,0.01017239224165678,0.13410022854804993,0.07740921527147293,-0.05688418075442314,-0.07234026491641998,-0.28920143842697144,-0.028077002614736557,-0.020534034818410873,-0.05630715936422348,0.14059756696224213,0.16109132766723633,-0.21238930523395538,-0.13407893478870392,0.021381773054599762,-0.16623659431934357,0.06901296973228455,0.019639097154140472,0.26197823882102966,-0.13657350838184357,0.03271801769733429,0.21592754125595093,0.06748579442501068,0.02852284163236618,-0.02433858811855316,-0.02734413556754589,0.026849962770938873,-0.1418614387512207,0.07211629301309586,0.00042298491462133825,-0.03281036391854286,-0.03550278767943382,-0.003787505440413952,-0.16972897946834564,0.12242680042982101,-0.029071111232042313,-0.06997933238744736,-0.07976584136486053,0.0011938929092139006,-0.2961072325706482,0.13883759081363678,-0.010897518135607243,0.017984556034207344,-0.0642319768667221,-0.03011845424771309,-0.23149146139621735,-0.13875313103199005,0.0015713307075202465
-0.005434557795524597,-0.03072001226246357,0.34345313906669617,-0.015977945178747177,-0.0407402329146862,0.006211168132722378,0.9990227222442627,-0.0038891718722879887,0.01367882825434208,0.007723012939095497,-0.14280609786510468,-0.004649115260690451,-0.011640775948762894,-0.16493268311023712,0.10823092609643936,-0.09753761440515518,0.14223341643810272,0.6580844521522522,0.8223319053649902,0.8275147080421448,0.734296441078186,-1.6013821363449097,-1.5783321857452393,-1.3853728771209717,-1.4377121925354004,-0.01851799339056015,0.006309159565716982,0.11940527707338333,0.06457077711820602,-0.05215619504451752,-0.06938870996236801,-0.2627403140068054,-0.024375367909669876,-0.014020063914358616,-0.04923231527209282,0.1307341307401657,0.14982624351978302,-0.2122681736946106,-0.1341988742351532,0.021360307931900024,-0.16643476486206055,0.06888315826654434,0.01962307095527649,0.261714905500412,-0.1365605592727661,0.032770827412605286,0.21614935994148254,0.06757727265357971,0.028520070016384125,-0.02107599377632141,-0.02476155012845993,0.023764215409755707,-0.1272965669631958,0.06131196767091751,-0.00020386450341902673,-0.030036956071853638,-0.032021112740039825,-0.0035022664815187454,-0.1517506092786789,0.11286156624555588,-0.026539981365203857,-0.06250330805778503,-0.07236777991056442,0.0010074819438159466,-0.2669306993484497,0.12292282283306122,-0.01032677385956049,0.017855726182460785,-0.057126112282276154,-0.027262438088655472,-0.2046789824962616,-0.13065671920776367,0.00254150852560997
-0.005466591566801071,-0.030606191605329514,0.3435180187225342,-0.016490476205945015,-0.041039709001779556,0.006278274115175009,0.9990017414093018,-0.0038180137053132057,0.011770566925406456,0.006650990340858698,-0.12618838250637054,-0.004239271394908428,-0.010361540131270885,-0.16508673131465912,0.10828351974487305,-0.09654191881418228,0.1427721381187439,0.6576500535011292,0.8217536211013794,0.825323224067688,0.7340936660766602,-1.601499319076538,-1.5787423849105835,-1.3842825889587402,-1.436462640762329,-0.01774427480995655,0.003413225058466196,0.10424616187810898,0.05282832682132721,-0.044953200966119766,-0.06074116379022598,-0.23162716627120972,-0.014805139042437077,-0.008126878179609776,-0.04170674830675125,0.11265257000923157,0.13147345185279846,-0.21214762330055237,-0.1343138962984085,0.021337948739528656,-0.16661545634269714,0.06876060366630554,0.019606754183769226,0.2614856958389282,-0.13655386865139008,0.03282054513692856,0.21636445820331573,0.06766507029533386,0.02851763367652893,-0.018063029274344444,-0.021641723811626434,0.020056206732988358,-0.1109287217259407,0.048777930438518524,-0.0009448895580135286,-0.026430774480104446,-0.027977775782346725,-0.003345377277582884,-0.1319812834262848,0.09730706363916397,-0.023089727386832237,-0.05598226934671402,-0.06401057541370392,0.0010919016785919666,-0.23481011390686035,0.11074747890233994,-0.009105006232857704,0.017417388036847115,-0.04933290183544159,-0.02367362566292286,-0.17642930150032043,-0.12123066186904907,0.003465686459094286
-0.005498388782143593,-0.03050840273499489,0.34357285499572754,-0.016948899254202843,-0.041293736547231674,0.006347327493131161,0.9989830851554871,-0.0023263427428901196,0.009766790084540844,0.00534450076520443,-0.10794679075479507,-0.0037268754094839096,-0.008918299339711666,-0.1652345359325409,0.10831128805875778,-0.0956726223230362,0.14321205019950867,0.6572746634483337,0.8212467432022095,0.823391318321228,0.7339696288108826,-1.6015665531158447,-1.5790908336639404,-1.383342981338501,-1.435365915298462,-0.015548678115010262,0.001741747255437076,0.08824985474348068,0.0431993193924427,-0.0326901413500309,-0.05108007788658142,-0.18169134855270386,-0.0019051656126976013,-0.0030557375866919756,-0.03592490777373314,0.0735957995057106,0.104201540350914,-0.21204273402690887,-0.1344221532344818,0.021315544843673706,-0.16678287088871002,0.06864672899246216,0.019590482115745544,0.2612711191177368,-0.1365521401166916,0.03286112844944,0.2165599763393402,0.06774856895208359,0.028511159121990204,-0.012252974323928356,-0.018498390913009644,0.016069909557700157,-0.09412192553281784,0.032110050320625305,-0.0022762352600693703,-0.021426567807793617,-0.023873010650277138,-0.0030646263621747494,-0.11178727447986603,0.08254559338092804,-0.019651977345347404,-0.045973941683769226,-0.055080629885196686,0.0040016393177211285,-0.20028644800186157,0.10088564455509186,-0.007405490148812532,0.017876658588647842,-0.04160739481449127,-0.019100744277238846,-0.1488061100244522,-0.1062304824590683,0.0035016911569982767
-0.0055183060467243195,-0.03042672760784626,0.3436175584793091,-0.017353039234876633,-0.041483525186777115,0.006415313575416803,0.9989678859710693,-0.001771492650732398,0.007422034163028002,0.003184717381373048,-0.08801936358213425,-0.003111084457486868,-0.007305114064365625,-0.16536439955234528,0.1083260029554367,-0.09493576735258102,0.1435723751783371,0.6570026278495789,0.8208210468292236,0.8218755125999451,0.7339547276496887,-1.6015920639038086,-1.579390048980713,-1.3827292919158936,-1.4344969987869263,-0.013968557119369507,-7.157061190810055e-05,0.0770016685128212,0.031059473752975464,-0.01948394998908043,-0.040421612560749054,-0.14218565821647644,0.016501465812325478,0.005768219009041786,-0.023761825636029243,0.06159117817878723,0.07575830072164536,-0.2119419276714325,-0.13452494144439697,0.021301642060279846,-0.16693651676177979,0.06853993982076645,0.01958237588405609,0.2610880136489868,-0.1365530788898468,0.032909199595451355,0.21673184633255005,0.06782454997301102,0.028501667082309723,-0.006602986250072718,-0.014863301999866962,0.010420740582048893,-0.07475676387548447,0.010925698094069958,-0.004093553870916367,-0.016053173691034317,-0.019609548151493073,-0.004265954252332449,-0.08954966068267822,0.06057602912187576,-0.015123584307730198,-0.03510897234082222,-0.04711510241031647,0.002772298641502857,-0.16808347404003143,0.0744418278336525,-0.007200972177088261,0.018847666680812836,-0.032735906541347504,-0.014828703366219997,-0.11693310737609863,-0.0953022837638855,0.004583315458148718
-0.005533087998628616,-0.030365096405148506,0.34364432096481323,-0.01769491657614708,-0.04160499572753906,0.0064793541096150875,0.9989564418792725,-0.0005453731864690781,0.004942555446177721,0.0017123714787885547,-0.06797052174806595,-0.0024496158584952354,-0.005657467059791088,-0.1654810607433319,0.10832565277814865,-0.0942942276597023,0.14383214712142944,0.6568394303321838,0.8204833269119263,0.8206897974014282,0.7340925335884094,-1.6015440225601196,-1.5795880556106567,-1.3822153806686401,-1.4338655471801758,-0.01132198330014944,-0.002021693391725421,0.05389147996902466,0.017310624942183495,-0.008192520588636398,-0.026043623685836792,-0.08966552466154099,0.030909482389688492,0.010993154719471931,-0.01727515086531639,0.01950083114206791,0.046936776489019394,-0.21185049414634705,-0.13461843132972717,0.0212838277220726,-0.1670738160610199,0.0684410110116005,0.019569814205169678,0.2609409987926483,-0.1365719735622406,0.03292843699455261,0.21688444912433624,0.06789505481719971,0.028483405709266663,-0.0013449862599372864,-0.011787621304392815,0.006109168287366629,-0.056560199707746506,-0.004808953031897545,-0.005138821434229612,-0.00986950471997261,-0.015282867476344109,-0.003888134378939867,-0.06706596165895462,0.04060349240899086,-0.010777519084513187,-0.025148160755634308,-0.03563832491636276,0.005194276105612516,-0.12462417781352997,0.06549528241157532,-0.004548962693661451,0.019088534638285637,-0.023453040048480034,-0.009892783127725124,-0.0834583193063736,-0.0799306109547615,0.005137002095580101
-0.005537044256925583,-0.030323617160320282,0.34365910291671753,-0.01796826906502247,-0.04165130481123924,0.0065424684435129166,0.9989491105079651,-0.00012121784675400704,0.0019253167556598783,0.0004603630513884127,-0.04751504212617874,-0.0017387833213433623,-0.0039590890519320965,-0.16557571291923523,0.10830909758806229,-0.0938442274928093,0.1439756602048874,0.6567713022232056,0.820266604423523,0.8199423551559448,0.7343499064445496,-1.6014527082443237,-1.5797321796417236,-1.382053017616272,-1.4334744215011597,-0.009203397668898106,-0.004854527767747641,0.030427152290940285,0.0030513685196638107,0.0015099570155143738,-0.017817264422774315,-0.051009729504585266,0.03159540519118309,0.018041489645838737,-0.01125930342823267,0.005056918598711491,0.029216887429356575,-0.21177661418914795,-0.13470569252967834,0.021276868879795074,-0.1671902984380722,0.06835141777992249,0.019567906856536865,0.2608168423175812,-0.1365850865840912,0.03294697403907776,0.21700887382030487,0.06796029210090637,0.028458796441555023,0.0028799681458622217,-0.008932710625231266,0.0016891254344955087,-0.037398841232061386,-0.020710624754428864,-0.006125479005277157,-0.006434153765439987,-0.011159012094140053,-0.0033472273498773575,-0.043440140783786774,0.027286801487207413,-0.007109290454536676,-0.015229012817144394,-0.024088991805911064,0.004063005559146404,-0.0797937735915184,0.042919326573610306,-0.0028596718329936266,0.01603868044912815,-0.01473827101290226,-0.006486860569566488,-0.049154289066791534,-0.06188807636499405,0.005358691792935133
-0.005538811907172203,-0.030307259410619736,0.34366294741630554,-0.018155405297875404,-0.04166310280561447,0.006607603747397661,0.9989449381828308,0.000984985032118857,-0.0013542588567361236,-0.0003357206587679684,-0.03051198646426201,-0.00112820602953434,-0.0025429497472941875,-0.16565196216106415,0.10826839506626129,-0.09359072148799896,0.14400169253349304,0.6567841172218323,0.8201175332069397,0.8195173144340515,0.734613835811615,-1.601301670074463,-1.5798263549804688,-1.3820104598999023,-1.4332308769226074,-0.009940369054675102,-0.008224370889365673,0.01613556407392025,-0.012147036381065845,0.00578673928976059,-0.012374982237815857,-0.027810553088784218,0.03477330133318901,0.022073006257414818,-0.002107423497363925,0.007305542007088661,0.005450238939374685,-0.2117082178592682,-0.1347840428352356,0.021262794733047485,-0.16728147864341736,0.06827297061681747,0.019563287496566772,0.2607349753379822,-0.13660278916358948,0.032956771552562714,0.2171054184436798,0.06800392270088196,0.028431423008441925,0.005752719007432461,-0.006690444424748421,-0.0015068709617480636,-0.01924761012196541,-0.028273725882172585,-0.005891196429729462,-0.0025730999186635017,-0.008252963423728943,-0.003193118143826723,-0.022705260664224625,0.013543207198381424,-0.003631540574133396,-0.006382230669260025,-0.016826890408992767,0.0016951506258919835,-0.04747013375163078,0.01870006136596203,-0.0022731157951056957,0.013446801342070103,-0.006983892992138863,-0.0020959696266800165,-0.017474999651312828,-0.04039094224572182,0.00480266148224473
-0.005530579015612602,-0.030318934470415115,0.34365975856781006,-0.01825522631406784,-0.04162401705980301,0.00667574955150485,0.9989442825317383,0.0020441366359591484,-0.00463574705645442,-0.0010470990091562271,-0.02632772922515869,-0.0009788983734324574,-0.0021920576691627502,-0.1657348871231079,0.10819949209690094,-0.09345650672912598,0.14389975368976593,0.6568325757980347,0.8200145959854126,0.8192856311798096,0.7349041104316711,-1.6011176109313965,-1.5798439979553223,-1.3819500207901,-1.4331852197647095,-0.009230928495526314,-0.012400396168231964,-0.00806376338005066,-0.031028958037495613,0.012695697136223316,-0.007028878200799227,0.00406306516379118,0.03470191732048988,0.026781298220157623,0.004493999760597944,-0.00017481049872003496,-0.015809880569577217,-0.21166537702083588,-0.13485087454319,0.02125638723373413,-0.1673518866300583,0.06820297986268997,0.01956094801425934,0.2606777548789978,-0.13665390014648438,0.03293605148792267,0.21716947853565216,0.06802613288164139,0.02840498834848404,0.009495889768004417,-0.008666792884469032,-0.0034595774486660957,-0.015193319879472256,-0.03962069749832153,-0.007337842136621475,0.0010260192211717367,-0.00898170005530119,-0.003917027730494738,-0.01404624618589878,0.0019951744470745325,-0.0014740662882104516,0.0033280327916145325,-0.010548222810029984,0.0017475482309237123,-0.01812797784805298,-0.004552965518087149,-0.001827486790716648,0.01039109192788601,-0.002300223335623741,0.0009664114331826568,0.0050185867585241795,-0.01848059706389904,0.0033580840099602938
-0.005513537675142288,-0.03035781905055046,0.34365057945251465,-0.01826130785048008,-0.04154204949736595,0.0067468201741576195,0.9989470839500427,0.00218591489829123,-0.008679116144776344,-0.002028812887147069,-0.04149589315056801,-0.0015435605309903622,-0.0034479941241443157,-0.16581179201602936,0.10809645801782608,-0.09352376312017441,0.14364109933376312,0.6569387912750244,0.8199566006660461,0.8193197250366211,0.7351934313774109,-1.600894570350647,-1.5798065662384033,-1.3819514513015747,-1.4333175420761108,-0.00843869149684906,-0.016805481165647507,-0.03738200291991234,-0.05178021267056465,0.018110712990164757,-0.0017224902985617518,0.037492718547582626,0.03467617556452751,0.029685845598578453,0.01117666158825159,-0.012994520366191864,-0.03578740358352661,-0.2116384506225586,-0.13490554690361023,0.021254338324069977,-0.1674003303050995,0.06814680248498917,0.019562624394893646,0.26065540313720703,-0.13671407103538513,0.03289716690778732,0.2172003984451294,0.06803399324417114,0.02838227152824402,0.011692577041685581,-0.017316725105047226,-0.0034908344969153404,-0.03074178658425808,-0.04843060299754143,-0.009903747588396072,0.004092027433216572,-0.016309617087244987,-0.006935958284884691,-0.024506885558366776,-0.010300670750439167,-0.0009000258287414908,0.011627398431301117,-0.0097384974360466,0.004044453613460064,-0.0032011873554438353,-0.024558771401643753,-0.0022685499861836433,0.0070060244761407375,-0.004135982599109411,0.0019391027744859457,0.01004479918628931,0.0014716715086251497,0.0006618292536586523
-0.005495280027389526,-0.03042980097234249,0.34363436698913574,-0.018153375014662743,-0.041426241397857666,0.006817947141826153,0.9989533424377441,0.0032265689224004745,-0.01267261803150177,-0.0027596650179475546,-0.06365110725164413,-0.0023541334085166454,-0.005273954477161169,-0.16588222980499268,0.10795599222183228,-0.09383638948202133,0.1432085484266281,0.6570896506309509,0.8199418783187866,0.819632887840271,0.7354828119277954,-1.6006461381912231,-1.579713225364685,-1.3820605278015137,-1.4336161613464355,-0.010065959766507149,-0.02714242786169052,-0.07910198718309402,-0.08347462862730026,0.025639252737164497,0.0040446799248456955,0.08618542551994324,0.03506830334663391,0.03129749372601509,0.02133074775338173,-0.04804225265979767,-0.054441556334495544,-0.21163874864578247,-0.13494394719600677,0.021253637969493866,-0.16742512583732605,0.06810856610536575,0.019565075635910034,0.2606569528579712,-0.1367833912372589,0.03284541517496109,0.21720223128795624,0.06802073121070862,0.028366148471832275,0.015238044783473015,-0.02728269249200821,-0.0025463830679655075,-0.05084093287587166,-0.058210235089063644,-0.012962333858013153,0.008812053129076958,-0.023925481364130974,-0.010537389665842056,-0.03594597056508064,-0.026529977098107338,7.184470450738445e-05,0.02147037535905838,-0.007276746444404125,0.009769787080585957,0.016779795289039612,-0.03743063658475876,-0.0017335494048893452,0.004849609453231096,-0.0046029225923120975,0.002863394096493721,0.01902690902352333,0.019847547635436058,-0.0014310026308521628
-0.00546778179705143,-0.03053557127714157,0.34361129999160767,-0.017940111458301544,-0.04128405451774597,0.006891272030770779,0.9989625215530396,0.0052755833603441715,-0.015521248802542686,-0.003010652493685484,-0.08331254869699478,-0.003045919816941023,-0.006879100576043129,-0.16596637666225433,0.10772960633039474,-0.09449625015258789,0.14251196384429932,0.6573033928871155,0.8199753761291504,0.8203520774841309,0.7357748746871948,-1.600385069847107,-1.5795350074768066,-1.3824609518051147,-1.4340707063674927,-0.010282665491104126,-0.03212780877947807,-0.10986040532588959,-0.10019578039646149,0.027634531259536743,0.005908750928938389,0.12636615335941315,0.025230787694454193,0.03515968471765518,0.026530008763074875,-0.07824549823999405,-0.059541430324316025,-0.21164804697036743,-0.1349658966064453,0.021252550184726715,-0.1674092561006546,0.06809789687395096,0.019564583897590637,0.26070255041122437,-0.13682757318019867,0.032805152237415314,0.21718725562095642,0.06801771372556686,0.028362661600112915,0.018463216722011566,-0.03581659868359566,-0.0015548209194093943,-0.07002875953912735,-0.06468459218740463,-0.015426681376993656,0.01258457824587822,-0.03127885237336159,-0.013184541836380959,-0.05046587809920311,-0.03406010568141937,-0.00026961692492477596,0.0305643193423748,-0.006506309844553471,0.01539784949272871,0.02816811017692089,-0.04697204753756523,-0.00163870002143085,0.0029923098627477884,-0.008411603979766369,0.001871227053925395,0.015682345256209373,0.0344802550971508,-0.004013460595160723
-0.0054234787821769714,-0.03066539391875267,0.343586266040802,-0.017652839422225952,-0.0411040335893631,0.006973413750529289,0.998974621295929,0.006416644435375929,-0.01848146691918373,-0.003124300390481949,-0.10074160993099213,-0.003625366138294339,-0.00828162394464016,-0.16605275869369507,0.10746164619922638,-0.09541289508342743,0.1416764110326767,0.6575340628623962,0.8200244307518005,0.8214060664176941,0.7359853386878967,-1.6000920534133911,-1.5793132781982422,-1.3831138610839844,-1.4345673322677612,-0.011522422544658184,-0.03495771810412407,-0.12583404779434204,-0.11172981560230255,0.02962414175271988,0.01040281169116497,0.1431647539138794,0.013485986739397049,0.04540763795375824,0.036055322736501694,-0.0791703462600708,-0.06883982568979263,-0.21167072653770447,-0.13498330116271973,0.02126060426235199,-0.16737470030784607,0.06809581816196442,0.0195702463388443,0.2607840299606323,-0.13685563206672668,0.032774657011032104,0.217145174741745,0.06799902766942978,0.028348185122013092,0.021638255566358566,-0.04328871890902519,-0.0017123040743172169,-0.08567624539136887,-0.07731355726718903,-0.01855875551700592,0.016934512183070183,-0.03875155374407768,-0.016071615740656853,-0.06473162770271301,-0.04846705496311188,0.0002567384799476713,0.036849454045295715,-0.009774427860975266,0.017463063821196556,0.0273012425750494,-0.06284865736961365,-0.0030740706715732813,-0.0010733890812844038,-0.013275896199047565,0.0014431088929995894,0.009283523075282574,0.05504152923822403,-0.0077654155902564526
-0.0053703635931015015,-0.03081926330924034,0.34355971217155457,-0.0172954723238945,-0.04089612141251564,0.007057589944452047,0.9989888072013855,0.006549232639372349,-0.02129920944571495,-0.005159190855920315,-0.12110694497823715,-0.004271721467375755,-0.009905084036290646,-0.16614872217178345,0.10716981440782547,-0.09646328538656235,0.14074382185935974,0.6577808856964111,0.820111870765686,0.8226009011268616,0.7360976934432983,-1.5997132062911987,-1.5790128707885742,-1.3837748765945435,-1.4351410865783691,-0.011089058592915535,-0.03706683591008186,-0.15912538766860962,-0.13434641063213348,0.0357927568256855,0.015611068345606327,0.1735851913690567,-0.0013147766003385186,0.031217776238918304,0.024346178397536278,-0.10020048171281815,-0.07314813137054443,-0.21170035004615784,-0.13498973846435547,0.021263964474201202,-0.16731104254722595,0.0680994987487793,0.01957549899816513,0.2608852684497833,-0.1368999034166336,0.03272949159145355,0.21706250309944153,0.06795741617679596,0.028330788016319275,0.021687975153326988,-0.052697572857141495,0.00040289899334311485,-0.10690779238939285,-0.07006432861089706,-0.01902070827782154,0.017013372853398323,-0.04694175347685814,-0.01839565671980381,-0.08318664133548737,-0.04261549934744835,-0.002009725896641612,0.04260072112083435,-0.008338588289916515,0.019670670852065086,0.040452130138874054,-0.07176336646080017,-0.002852171892300248,-0.006365073379129171,-0.015392454341053963,-0.0013821267057210207,0.01106063462793827,0.07399094849824905,-0.010514015331864357
-0.0053153689950704575,-0.030997183173894882,0.3435164988040924,-0.016837315633893013,-0.04069745913147926,0.007144704926759005,0.9990041255950928,0.006460102275013924,-0.02425074391067028,-0.0059468625113368034,-0.14121687412261963,-0.004851636476814747,-0.011493503116071224,-0.16624076664447784,0.10686058551073074,-0.09779093414545059,0.13962319493293762,0.6580798029899597,0.8202424049377441,0.8240491151809692,0.7360867857933044,-1.5994532108306885,-1.5788099765777588,-1.3846104145050049,-1.435752272605896,-0.010792461223900318,-0.0366952009499073,-0.17970727384090424,-0.147820845246315,0.038507383316755295,0.021442338824272156,0.18819288909435272,-0.00876141618937254,0.02653435245156288,0.01935976929962635,-0.09531692415475845,-0.08281335979700089,-0.21174326539039612,-0.13498172163963318,0.021264515817165375,-0.16722232103347778,0.06811968982219696,0.019576527178287506,0.26102006435394287,-0.1369304060935974,0.03268888592720032,0.21695958077907562,0.0679091066122055,0.028310760855674744,0.02178562432527542,-0.06189022213220596,0.0022772690281271935,-0.12746793031692505,-0.06872331351041794,-0.020341040566563606,0.018192997202277184,-0.05603078007698059,-0.02046128548681736,-0.10367774963378906,-0.04408188909292221,-0.0035467951092869043,0.048014990985393524,-0.010912488214671612,0.02036077156662941,0.04158850386738777,-0.09118898957967758,-0.004514882806688547,-0.010326112620532513,-0.020410161465406418,-0.002445612568408251,0.004071913193911314,0.09066566079854965,-0.013628890737891197
-0.005262220278382301,-0.031198963522911072,0.34346726536750793,-0.016292883083224297,-0.04048483073711395,0.007232667878270149,0.9990211129188538,0.0066863917745649815,-0.026304347440600395,-0.006661720108240843,-0.15509027242660522,-0.005159264896064997,-0.01255659107118845,-0.16633057594299316,0.10655408352613449,-0.09928932040929794,0.1383896768093109,0.6584011912345886,0.8204206824302673,0.8256192207336426,0.7360131740570068,-1.5992316007614136,-1.5786478519439697,-1.3854055404663086,-1.4364428520202637,-0.00962961744517088,-0.03749033808708191,-0.19404947757720947,-0.15995140373706818,0.04618249088525772,0.02527719736099243,0.2086648941040039,-0.014549721032381058,0.024004392325878143,0.019305070862174034,-0.10047299414873123,-0.09035244584083557,-0.2118130475282669,-0.13496188819408417,0.02127009630203247,-0.1671193391084671,0.06814560294151306,0.019582919776439667,0.26117247343063354,-0.1369718462228775,0.03262820839881897,0.21682865917682648,0.06783805787563324,0.028292693197727203,0.023938072845339775,-0.06843514740467072,0.0032333629205822945,-0.14234183728694916,-0.07416697591543198,-0.022269492968916893,0.019760480150580406,-0.06204359978437424,-0.022455135360360146,-0.11671026051044464,-0.048155833035707474,-0.0041083283722400665,0.053752295672893524,-0.012757156044244766,0.0222339890897274,0.042531777173280716,-0.10646001249551773,-0.0058961291797459126,-0.013166587799787521,-0.022933995351195335,-0.0031254966743290424,0.0021044076420366764,0.10378462076187134,-0.01571635901927948
-0.0052058640867471695,-0.03141864761710167,0.34341201186180115,-0.015689890831708908,-0.040259405970573425,0.0073165581561625,0.9990392923355103,0.007818222045898438,-0.028007159009575844,-0.007321770302951336,-0.16479742527008057,-0.005283151753246784,-0.013268251903355122,-0.16641180217266083,0.10624173283576965,-0.10090848803520203,0.13705585896968842,0.6587867140769958,0.8206312656402588,0.827359676361084,0.7358918786048889,-1.5990314483642578,-1.5784869194030762,-1.3862441778182983,-1.4371963739395142,-0.010255390778183937,-0.03752899542450905,-0.20685723423957825,-0.1652110069990158,0.046579837799072266,0.026708170771598816,0.218508780002594,-0.019013546407222748,0.020371193066239357,0.01877431385219097,-0.10701052844524384,-0.09610366821289062,-0.2118833214044571,-0.13493412733078003,0.021276123821735382,-0.16699983179569244,0.06817864626646042,0.019590340554714203,0.2613539397716522,-0.1370188146829605,0.032562270760536194,0.216677725315094,0.06776084005832672,0.028275683522224426,0.02465842105448246,-0.0729885995388031,0.0040544564835727215,-0.1516546905040741,-0.07109028100967407,-0.02244993858039379,0.021358486264944077,-0.06669057160615921,-0.02402064949274063,-0.1264064759016037,-0.0492190346121788,-0.004732784349471331,0.05672619491815567,-0.01351579837501049,0.023201363161206245,0.04560578614473343,-0.10969097167253494,-0.006108399014919996,-0.014341804198920727,-0.02602219022810459,-0.0038471799343824387,-0.002442352706566453,0.11375277489423752,-0.017502985894680023
-0.005140867084264755,-0.031652193516492844,0.3433508276939392,-0.015045123174786568,-0.040028396993875504,0.007394540589302778,0.999057948589325,0.007633851375430822,-0.029042929410934448,-0.007684548385441303,-0.1714690923690796,-0.005275486968457699,-0.013726381585001945,-0.1664971113204956,0.1059284433722496,-0.10263392329216003,0.1356775313615799,0.6591752767562866,0.8208543062210083,0.8291825652122498,0.735733151435852,-1.5988610982894897,-1.5783311128616333,-1.3871365785598755,-1.4379981756210327,-0.01112960372120142,-0.037499379366636276,-0.2161608189344406,-0.17184460163116455,0.05068745091557503,0.02912701666355133,0.22522872686386108,-0.027969105169177055,0.016941597685217857,0.017374079674482346,-0.10865044593811035,-0.09655795991420746,-0.2119598388671875,-0.13489769399166107,0.021281450986862183,-0.1668635606765747,0.06821650266647339,0.019596047699451447,0.26154813170433044,-0.13706332445144653,0.032490894198417664,0.21652022004127502,0.06767138838768005,0.028259582817554474,0.025172945111989975,-0.07582507282495499,0.004767886828631163,-0.15751580893993378,-0.07174276560544968,-0.022943895310163498,0.021725572645664215,-0.06974498182535172,-0.024828104302287102,-0.1331384927034378,-0.05027372017502785,-0.00509629026055336,0.05831972137093544,-0.01373613066971302,0.02366979606449604,0.048276565968990326,-0.11471103876829147,-0.006536848843097687,-0.017418544739484787,-0.027116376906633377,-0.0047113425098359585,-0.002538094762712717,0.12307693809270859,-0.01877969317138195
-0.0050775595009326935,-0.03189465031027794,0.3432866632938385,-0.014367936179041862,-0.03980303928256035,0.007469543721526861,0.9990763664245605,0.008308066055178642,-0.029755860567092896,-0.00792231410741806,-0.1747151017189026,-0.005138245411217213,-0.013907846063375473,-0.16658955812454224,0.10561583936214447,-0.10443764925003052,0.13424357771873474,0.6595978140830994,0.821097731590271,0.8310613036155701,0.7355000376701355,-1.5987199544906616,-1.5781853199005127,-1.3880425691604614,-1.4388036727905273,-0.012180821970105171,-0.03831837326288223,-0.22244374454021454,-0.17359524965286255,0.05141939967870712,0.0268588587641716,0.22854189574718475,-0.03046341985464096,0.01389150507748127,0.015909343957901,-0.11244868487119675,-0.09927050024271011,-0.21203449368476868,-0.13485220074653625,0.021284177899360657,-0.16671361029148102,0.06825857609510422,0.019599713385105133,0.2617528736591339,-0.13710631430149078,0.03242001682519913,0.21634697914123535,0.0675792470574379,0.028245709836483,0.025586705654859543,-0.07729845494031906,0.005264018662273884,-0.15990349650382996,-0.06930350512266159,-0.022701071575284004,0.02146410010755062,-0.0712156817317009,-0.025249997153878212,-0.13569779694080353,-0.04646081477403641,-0.005691295489668846,0.05928480625152588,-0.013580575585365295,0.024057980626821518,0.05114324390888214,-0.11418666690587997,-0.006471465807408094,-0.017958739772439003,-0.028271757066249847,-0.004875060636550188,-0.00397146912291646,0.12820874154567719,-0.0195112656801939
-0.0050077736377716064,-0.032143011689186096,0.3432203531265259,-0.013677014969289303,-0.039573874324560165,0.007542296312749386,0.999094545841217,0.007550079375505447,-0.03011646866798401,-0.008849828504025936,-0.17798151075839996,-0.0049878391437232494,-0.014086753129959106,-0.16669143736362457,0.10529572516679764,-0.10629338026046753,0.13279612362384796,0.6600265502929688,0.8213217854499817,0.8329681158065796,0.7352457046508789,-1.5986042022705078,-1.5780526399612427,-1.3889813423156738,-1.4396320581436157,-0.011671709828078747,-0.03784230351448059,-0.22199273109436035,-0.17343246936798096,0.05835552141070366,0.035542987287044525,0.2439417988061905,-0.021975848823785782,0.012603112496435642,0.01783149316906929,-0.12119120359420776,-0.1099381372332573,-0.21210908889770508,-0.13480304181575775,0.021289318799972534,-0.16656458377838135,0.06830289959907532,0.019604533910751343,0.2619621455669403,-0.13714510202407837,0.03234757483005524,0.21617069840431213,0.06748189777135849,0.028232380747795105,0.026652703061699867,-0.07875891029834747,0.0047605992294847965,-0.16354671120643616,-0.07476752996444702,-0.023771148175001144,0.02361259236931801,-0.07267807424068451,-0.026524823158979416,-0.1392977237701416,-0.05690554529428482,-0.004653220530599356,0.06177489086985588,-0.015335207805037498,0.025539245456457138,0.0475282147526741,-0.12096884846687317,-0.007587330881506205,-0.01778142899274826,-0.029479732736945152,-0.0045058648101985455,-0.007267683744430542,0.130299910902977,-0.019929762929677963
-0.004945157095789909,-0.0323944129049778,0.3431466519832611,-0.012979929335415363,-0.039321087300777435,0.007606434635818005,0.9991133809089661,0.009219324216246605,-0.03071938268840313,-0.007615266367793083,-0.17712874710559845,-0.004716289695352316,-0.013930232264101505,-0.1667884737253189,0.10498078167438507,-0.10814519226551056,0.13134919106960297,0.6605133414268494,0.8216184377670288,0.8350024819374084,0.735062837600708,-1.5984992980957031,-1.5779045820236206,-1.3899916410446167,-1.4405491352081299,-0.014666765928268433,-0.03982855752110481,-0.22513413429260254,-0.1748877316713333,0.049792587757110596,0.02430942840874195,0.22544465959072113,-0.04302878677845001,0.00874342955648899,0.014284048229455948,-0.10931548476219177,-0.09786730259656906,-0.21219104528427124,-0.1347498893737793,0.021296173334121704,-0.16641190648078918,0.06835038959980011,0.019611172378063202,0.262175977230072,-0.13718822598457336,0.03227093070745468,0.21598213911056519,0.06738648563623428,0.028217017650604248,0.025181546807289124,-0.07845539599657059,0.006524514406919479,-0.160284161567688,-0.06216247379779816,-0.021531186997890472,0.021236898377537727,-0.07248033583164215,-0.02499902993440628,-0.13678282499313354,-0.04196572303771973,-0.0061549656093120575,0.0597335509955883,-0.014644804410636425,0.024091040715575218,0.0511460117995739,-0.11431854963302612,-0.006906829308718443,-0.0207460206001997,-0.029682088643312454,-0.0051997206173837185,-0.004926519934087992,0.13928191363811493,-0.02088323049247265
-0.004867849871516228,-0.032650094479322433,0.3430827260017395,-0.012273314408957958,-0.039106935262680054,0.007672425825148821,0.9991301894187927,0.009948915801942348,-0.03193054720759392,-0.007184132933616638,-0.17656350135803223,-0.0044511789456009865,-0.013810854405164719,-0.16691114008426666,0.1046479195356369,-0.11002282798290253,0.1298900991678238,0.6609294414520264,0.8218206167221069,0.8368839621543884,0.7347029447555542,-1.598426103591919,-1.577784776687622,-1.3909035921096802,-1.4413648843765259,-0.01935710944235325,-0.04445268213748932,-0.23037971556186676,-0.17688317596912384,0.05486022308468819,0.024058375507593155,0.21806974709033966,-0.05095406621694565,0.006003936752676964,0.016691679134964943,-0.10612639039754868,-0.09455208480358124,-0.21226027607917786,-0.13469189405441284,0.02130190283060074,-0.16625003516674042,0.06840082257986069,0.01961648464202881,0.2623969614505768,-0.13723304867744446,0.03220426291227341,0.215796560049057,0.06728316098451614,0.02821245789527893,0.026956312358379364,-0.07810068875551224,0.00701070437207818,-0.15504337847232819,-0.06410330533981323,-0.021403726190328598,0.022160731256008148,-0.07213710248470306,-0.024577291682362556,-0.1316240131855011,-0.04378325864672661,-0.005442085675895214,0.05866921320557594,-0.01403193548321724,0.023364173248410225,0.05666704103350639,-0.11005933582782745,-0.00629077386111021,-0.021981175988912582,-0.030137786641716957,-0.0052176848985254765,-0.0022502243518829346,0.143942192196846,-0.021158793941140175
-0.004784764721989632,-0.03291644528508186,0.3430227041244507,-0.011568468995392323,-0.03889508172869682,0.007736298721283674,0.9991464018821716,0.009912042878568172,-0.03222484514117241,-0.007084745913743973,-0.18268881738185883,-0.00434751296415925,-0.014213371090590954,-0.16707266867160797,0.10427685081958771,-0.11194531619548798,0.12841473519802094,0.6613863706588745,0.8220211267471313,0.8387027382850647,0.734278678894043,-1.5983765125274658,-1.5776455402374268,-1.3917884826660156,-1.442153811454773,-0.017445378005504608,-0.0437399297952652,-0.2355816662311554,-0.17986401915550232,0.04731468856334686,0.02222166210412979,0.21809031069278717,-0.05661788582801819,0.004384949337691069,0.016931386664509773,-0.10275451093912125,-0.09152974933385849,-0.21231257915496826,-0.13463234901428223,0.021311268210411072,-0.16607844829559326,0.06845258921384811,0.019625067710876465,0.26261112093925476,-0.13727261126041412,0.032133832573890686,0.2156028300523758,0.06717602163553238,0.02820989489555359,0.02440698817372322,-0.0809892863035202,0.00818277895450592,-0.16348329186439514,-0.05501891300082207,-0.020597003400325775,0.021656926721334457,-0.07455464452505112,-0.02526993490755558,-0.13853366672992706,-0.04217599704861641,-0.0061219967901706696,0.059236180037260056,-0.014667024835944176,0.02355976030230522,0.05570128187537193,-0.11351680755615234,-0.006914043333381414,-0.02322080172598362,-0.031507037580013275,-0.006045366637408733,-0.005247286520898342,0.14651335775852203,-0.021581871435046196
-0.004702039062976837,-0.033185362815856934,0.34296366572380066,-0.010833523236215115,-0.03869229182600975,0.0077955229207873344,0.9991620182991028,0.008797219023108482,-0.03420552611351013,-0.006936912424862385,-0.19539138674736023,-0.004361961502581835,-0.015123439952731133,-0.16721810400485992,0.10391231626272202,-0.11391039937734604,0.12691399455070496,0.6617811322212219,0.8222069144248962,0.840522050857544,0.733806312084198,-1.5983394384384155,-1.5775047540664673,-1.392646312713623,-1.4429175853729248,-0.018413841724395752,-0.04715392366051674,-0.2511110305786133,-0.1926543265581131,0.04534795507788658,0.02673259936273098,0.22535444796085358,-0.06559493392705917,0.00441531790420413,0.01862371899187565,-0.09668239951133728,-0.08868763595819473,-0.21238481998443604,-0.13456526398658752,0.021320566534996033,-0.16589859127998352,0.06851279735565186,0.01963163912296295,0.26283037662506104,-0.1373138278722763,0.032064251601696014,0.215410515666008,0.06706514954566956,0.028211474418640137,0.02263658121228218,-0.0865337997674942,0.009533777832984924,-0.1753625124692917,-0.05312596634030342,-0.021154040470719337,0.022252334281802177,-0.07936137914657593,-0.026349185034632683,-0.147804856300354,-0.048338934779167175,-0.006054967176169157,0.06151242554187775,-0.015658710151910782,0.02413136139512062,0.058732546865940094,-0.1267823874950409,-0.008231177926063538,-0.026640981435775757,-0.033486783504486084,-0.007047051563858986,-0.005066759884357452,0.15262436866760254,-0.022239549085497856
-0.004628414288163185,-0.03347059339284897,0.34290561079978943,-0.010042467154562473,-0.03849939629435539,0.007858828641474247,0.9991772770881653,0.007589979562908411,-0.03685476630926132,-0.006953295320272446,-0.21316416561603546,-0.00442085275426507,-0.0164182148873806,-0.1673716902732849,0.10351856797933578,-0.11600476503372192,0.12530674040317535,0.6621592044830322,0.8224303722381592,0.842401921749115,0.7332585453987122,-1.5983033180236816,-1.5773489475250244,-1.393452525138855,-1.4436570405960083,-0.01953836902976036,-0.051124148070812225,-0.27212610840797424,-0.20913496613502502,0.041433028876781464,0.027485134080052376,0.2341359257698059,-0.08109787851572037,0.0020762875210493803,0.0174761563539505,-0.09195730835199356,-0.08488325774669647,-0.21247532963752747,-0.1344899982213974,0.021327033638954163,-0.1656954437494278,0.06858258694410324,0.01963646709918976,0.2630648612976074,-0.13736000657081604,0.03199439495801926,0.21520698070526123,0.0669465959072113,0.02821972966194153,0.019845977425575256,-0.09431250393390656,0.01161319762468338,-0.19229386746883392,-0.04701251536607742,-0.021437063813209534,0.021215982735157013,-0.08620771765708923,-0.027844998985528946,-0.1616896539926529,-0.04800061881542206,-0.007124461233615875,0.06390701234340668,-0.017191726714372635,0.025005195289850235,0.062117692083120346,-0.1402178406715393,-0.009603558108210564,-0.03203371912240982,-0.03662165626883507,-0.008814512751996517,-0.0062972865998744965,0.16421914100646973,-0.023754991590976715
-0.00456547737121582,-0.03377874940633774,0.34284770488739014,-0.009172385558485985,-0.038314539939165115,0.007928107865154743,0.9991921782493591,0.007096960209310055,-0.039259590208530426,-0.0066340332850813866,-0.23015743494033813,-0.004372172988951206,-0.017643801867961884,-0.16753485798835754,0.10309220850467682,-0.11827497184276581,0.12356215715408325,0.6625047922134399,0.8226595520973206,0.8443546891212463,0.7325817346572876,-1.5982853174209595,-1.5772037506103516,-1.3942192792892456,-1.4443646669387817,-0.019478164613246918,-0.05363854393362999,-0.2911417484283447,-0.22525572776794434,0.039112430065870285,0.02730220928788185,0.24181444942951202,-0.09530379623174667,-0.0013824283378198743,0.014802866615355015,-0.08862210065126419,-0.07868548482656479,-0.21259844303131104,-0.13440442085266113,0.021333537995815277,-0.16548079252243042,0.0686628669500351,0.019641563296318054,0.26330894231796265,-0.1374160200357437,0.03192208707332611,0.21497854590415955,0.06681323051452637,0.028231844305992126,0.018065353855490685,-0.10198347270488739,0.014161355793476105,-0.20959779620170593,-0.04128936678171158,-0.021811990067362785,0.02034330740571022,-0.09300824999809265,-0.028841054067015648,-0.17627555131912231,-0.04516000300645828,-0.008531920611858368,0.06640856713056564,-0.018935084342956543,0.026328928768634796,0.06416318565607071,-0.1512097418308258,-0.010898438282310963,-0.03589672967791557,-0.03938376531004906,-0.010439194738864899,-0.007015932817012072,0.17218095064163208,-0.02466438151896
-0.004506450146436691,-0.03410634770989418,0.3427925109863281,-0.008228476159274578,-0.038138497620821,0.008001930080354214,0.99920654296875,0.00407731207087636,-0.03996538743376732,-0.006974229589104652,-0.23403441905975342,-0.004003471694886684,-0.017860833555459976,-0.16769742965698242,0.10264487564563751,-0.12070374935865402,0.12168346345424652,0.6628317832946777,0.8228874206542969,0.8463718891143799,0.7317874431610107,-1.5982972383499146,-1.5770796537399292,-1.394958734512329,-1.445021152496338,-0.017801836133003235,-0.0532345212996006,-0.2943386137485504,-0.2297419011592865,0.038345400243997574,0.026363113895058632,0.24468980729579926,-0.09889204800128937,-0.006583729758858681,0.011723675765097141,-0.07968129962682724,-0.06682536005973816,-0.2127428948879242,-0.13430970907211304,0.021344318985939026,-0.16525201499462128,0.06875286996364594,0.019649945199489594,0.2635664641857147,-0.1374809294939041,0.03185255080461502,0.21473857760429382,0.0666702389717102,0.028249353170394897,0.013981012627482414,-0.10453923046588898,0.015114350244402885,-0.21538618206977844,-0.03508917987346649,-0.02127126231789589,0.016480740159749985,-0.09500393271446228,-0.029257414862513542,-0.18066003918647766,-0.04091198369860649,-0.009290185756981373,0.06596788763999939,-0.019883936271071434,0.025676794350147247,0.06351866573095322,-0.16305378079414368,-0.012552289292216301,-0.03799884766340256,-0.04001429304480553,-0.012445707805454731,-0.006060675717890263,0.164054274559021,-0.023168833926320076
-0.004472043365240097,-0.034439507871866226,0.34273451566696167,-0.007263796404004097,-0.037988126277923584,0.008069467730820179,0.9992191791534424,-3.7237186916172504e-05,-0.03956089913845062,-0.006741371937096119,-0.23178020119667053,-0.0035172030329704285,-0.017621589824557304,-0.16784565150737762,0.10220120847225189,-0.12315940856933594,0.11976683139801025,0.6631514430046082,0.8231065273284912,0.8484131693840027,0.7309622168540955,-1.5983526706695557,-1.5769827365875244,-1.395623803138733,-1.445578694343567,-0.015332235023379326,-0.05103367567062378,-0.289707750082016,-0.2264532446861267,0.036608368158340454,0.028506090864539146,0.24226203560829163,-0.09758393466472626,-0.01268165372312069,0.008576955646276474,-0.06994161009788513,-0.05629792809486389,-0.21290668845176697,-0.13421286642551422,0.021347947418689728,-0.16503292322158813,0.06884711980819702,0.01965159922838211,0.26383429765701294,-0.13754971325397491,0.03178781270980835,0.21450288593769073,0.06652900576591492,0.028267450630664825,0.008397046476602554,-0.10441740602254868,0.016248399391770363,-0.21586193144321442,-0.02693239599466324,-0.02005106955766678,0.012364187277853489,-0.09455042332410812,-0.028448617085814476,-0.1806739866733551,-0.039567019790410995,-0.009366079233586788,0.06291911751031876,-0.020312700420618057,0.02496349811553955,0.061048030853271484,-0.17043869197368622,-0.013914966955780983,-0.03987862169742584,-0.0400487557053566,-0.013385300524532795,-0.0067305718548595905,0.152366042137146,-0.021334994584321976
-0.004473000764846802,-0.03476916253566742,0.34267860651016235,-0.0063045434653759,-0.03785575553774834,0.00812538992613554,0.9992302060127258,-1.6274978406727314e-05,-0.04028645530343056,-0.006283343769609928,-0.23774531483650208,-0.0031509827822446823,-0.018014905974268913,-0.16797323524951935,0.10177508741617203,-0.12557603418827057,0.1178775280714035,0.663456380367279,0.823344349861145,0.8504347801208496,0.7301483750343323,-1.5984584093093872,-1.5769104957580566,-1.3962064981460571,-1.4460482597351074,-0.01380024291574955,-0.0501302145421505,-0.2925608456134796,-0.22979648411273956,0.03263752907514572,0.024626631289720535,0.23538318276405334,-0.1059807762503624,-0.014590363949537277,0.00641421414911747,-0.062132637947797775,-0.04785630851984024,-0.21310360729694366,-0.13411526381969452,0.02135317772626877,-0.16483603417873383,0.0689450055360794,0.01965492218732834,0.26409000158309937,-0.1376183182001114,0.03172793239355087,0.2142624408006668,0.06639160215854645,0.028287373483181,0.006838066037744284,-0.10750609636306763,0.017725452780723572,-0.2235439121723175,-0.020805571228265762,-0.019683023914694786,0.010838892310857773,-0.09738273918628693,-0.02853805013000965,-0.18763160705566406,-0.033312514424324036,-0.010567075572907925,0.06219538301229477,-0.02209414727985859,0.02476273477077484,0.057657476514577866,-0.17147687077522278,-0.014672394841909409,-0.04103418439626694,-0.04172023385763168,-0.014572255313396454,-0.009085951372981071,0.15233774483203888,-0.02124490588903427
-0.004473138600587845,-0.03510536998510361,0.34262585639953613,-0.005318674724549055,-0.037740789353847504,0.008178120478987694,0.9992400407791138,-0.0004541740636341274,-0.0398598313331604,-0.005605742335319519,-0.23573225736618042,-0.0026589026674628258,-0.017811160534620285,-0.1680886149406433,0.1013568639755249,-0.12801647186279297,0.11596017330884933,0.6637289524078369,0.8235499262809753,0.8523979187011719,0.7292638421058655,-1.5985794067382812,-1.5768572092056274,-1.3967249393463135,-1.446447491645813,-0.011842506937682629,-0.04693281650543213,-0.29166728258132935,-0.22777137160301208,0.025699274614453316,0.020265089347958565,0.22223150730133057,-0.11993072181940079,-0.016785552725195885,0.0046262615360319614,-0.05682498589158058,-0.03403306007385254,-0.21330419182777405,-0.13401472568511963,0.021356970071792603,-0.1646331548690796,0.06904473900794983,0.0196576789021492,0.2643471658229828,-0.13769817352294922,0.0316704586148262,0.21403014659881592,0.06624726951122284,0.028311260044574738,0.00391897140070796,-0.10720773041248322,0.01877114363014698,-0.22372356057167053,-0.011335911229252815,-0.01825862191617489,0.0086891558021307,-0.09733753651380539,-0.027765344828367233,-0.18887805938720703,-0.026849806308746338,-0.011349628679454327,0.05857926607131958,-0.021382197737693787,0.023930169641971588,0.0583246685564518,-0.16373708844184875,-0.01414456032216549,-0.04355254024267197,-0.041508883237838745,-0.015855932608246803,-0.008808605372905731,0.15251940488815308,-0.02097288705408573
-0.004476236179471016,-0.03543804958462715,0.34257906675338745,-0.004337888211011887,-0.03765113651752472,0.008223135955631733,0.999247670173645,-0.0005988981574773788,-0.03826838359236717,-0.004841333255171776,-0.22381876409053802,-0.002084923442453146,-0.016873890534043312,-0.16818729043006897,0.10096582025289536,-0.13044899702072144,0.11406064033508301,0.6639429926872253,0.8237192630767822,0.8542518019676208,0.7282629609107971,-1.5987199544906616,-1.576818823814392,-1.3971986770629883,-1.446731686592102,-0.008254939690232277,-0.04083273559808731,-0.27390122413635254,-0.21420837938785553,0.020097551867365837,0.015705399215221405,0.19930435717105865,-0.12013980001211166,-0.02060597762465477,0.0029069515876471996,-0.04959392175078392,-0.016310660168528557,-0.2135096788406372,-0.13391399383544922,0.021359696984291077,-0.16442978382110596,0.06914220005273819,0.019659005105495453,0.2645933926105499,-0.13777053356170654,0.03162156045436859,0.2137940376996994,0.06610646098852158,0.02833714336156845,0.0015059245051816106,-0.10329342633485794,0.019266460090875626,-0.2155979871749878,-0.0015057126292958856,-0.016176879405975342,0.0066989087499678135,-0.09399642795324326,-0.02604256011545658,-0.18309557437896729,-0.020189793780446053,-0.011623512022197247,0.05255123972892761,-0.02179010957479477,0.022210096940398216,0.05195721983909607,-0.1482672393321991,-0.013211953453719616,-0.04076963663101196,-0.04071437567472458,-0.01681557297706604,-0.01014737505465746,0.13519498705863953,-0.018526820465922356
-0.00448167510330677,-0.03575699031352997,0.342538446187973,-0.003403373993933201,-0.037591125816106796,0.008246387355029583,0.9992533326148987,-0.0016196859069168568,-0.03733355551958084,-0.003838576376438141,-0.21683698892593384,-0.0016138862119987607,-0.016324462369084358,-0.16825583577156067,0.10062477737665176,-0.1327345073223114,0.11227388679981232,0.6641108393669128,0.8238499760627747,0.8559137582778931,0.727261483669281,-1.5988914966583252,-1.5767945051193237,-1.3976123332977295,-1.4468668699264526,-0.004382039420306683,-0.035339560359716415,-0.26000508666038513,-0.20675380527973175,0.016716353595256805,0.009614571928977966,0.1752040535211563,-0.1288069784641266,-0.023651286959648132,0.0010928318370133638,-0.03999215364456177,0.0010968742426484823,-0.21370655298233032,-0.13381652534008026,0.0213596373796463,-0.16423249244689941,0.0692354291677475,0.01965901255607605,0.2648170292377472,-0.1378401219844818,0.031581491231918335,0.21359184384346008,0.06597398966550827,0.028362669050693512,-0.0010291377548128366,-0.10155496001243591,0.020328009501099586,-0.21259699761867523,0.00527338869869709,-0.014952024444937706,0.0034195473417639732,-0.09262774884700775,-0.024605767801404,-0.18161314725875854,-0.011985702440142632,-0.012420803308486938,0.045709576457738876,-0.023102615028619766,0.020674921572208405,0.04460105299949646,-0.13397575914859772,-0.012404389679431915,-0.041609663516283035,-0.040194880217313766,-0.01789429597556591,-0.010381030850112438,0.12657424807548523,-0.017193417996168137
-0.004495246335864067,-0.03606826066970825,0.3425067663192749,-0.002497691661119461,-0.03755337372422218,0.008254001848399639,0.9992574453353882,-0.0006579490727744997,-0.037082064896821976,-0.0028944085352122784,-0.2152119278907776,-0.0012111153919249773,-0.0161888524889946,-0.16829317808151245,0.10033012181520462,-0.1349034607410431,0.11054890602827072,0.6642502546310425,0.823930025100708,0.8573755621910095,0.7261864542961121,-1.5990886688232422,-1.5767852067947388,-1.3979464769363403,-1.4468573331832886,-0.0028607433196157217,-0.03384064510464668,-0.2568657100200653,-0.20488406717777252,0.01003608200699091,0.002233552746474743,0.1593226045370102,-0.14036542177200317,-0.023426558822393417,0.002156221540644765,-0.030514566227793694,0.01910932920873165,-0.21390292048454285,-0.13372452557086945,0.021362684667110443,-0.16405172646045685,0.06932147592306137,0.01966145634651184,0.2650047540664673,-0.13791531324386597,0.03154544532299042,0.21339254081249237,0.06584916263818741,0.028387881815433502,-0.002124827355146408,-0.10132171958684921,0.02126697450876236,-0.2125854343175888,0.012040847912430763,-0.013958238065242767,0.0022479433100670576,-0.09238571673631668,-0.023982349783182144,-0.18148107826709747,-0.005381093360483646,-0.013139219954609871,0.04343297332525253,-0.0232820063829422,0.01962294802069664,0.042784951627254486,-0.12767094373703003,-0.012064732611179352,-0.04127616435289383,-0.04027457907795906,-0.019422460347414017,-0.010430604219436646,0.1202184334397316,-0.016169043257832527
-0.004500502720475197,-0.036378227174282074,0.34248214960098267,-0.0015976245049387217,-0.03754058852791786,0.008253796957433224,0.9992597699165344,-0.0011223477777093649,-0.036273106932640076,-0.0020816989708691835,-0.21086181700229645,-0.0008062059059739113,-0.01585925742983818,-0.16831685602664948,0.10004792362451553,-0.13704578578472137,0.10883976519107819,0.664333701133728,0.8239482641220093,0.858704149723053,0.7250152230262756,-1.5992845296859741,-1.5767675638198853,-1.3982003927230835,-1.4466979503631592,-0.001986155053600669,-0.03355803340673447,-0.25188910961151123,-0.20303775370121002,0.003952952567487955,-0.0017900844104588032,0.15053339302539825,-0.14477694034576416,-0.02034093253314495,0.005797159858047962,-0.027496101334691048,0.03122011572122574,-0.21408939361572266,-0.13363313674926758,0.02136232703924179,-0.16386380791664124,0.06940741091966629,0.019660882651805878,0.26519203186035156,-0.13798965513706207,0.031514428555965424,0.21321184933185577,0.0657261461019516,0.028411544859409332,-0.004054471384733915,-0.09942930191755295,0.021313238888978958,-0.20912888646125793,0.015400425530970097,-0.013241487555205822,0.0010497472248971462,-0.09040476381778717,-0.02335846796631813,-0.1774183213710785,-0.004658183082938194,-0.012877138331532478,0.04076899215579033,-0.022727619856595993,0.019398158416152,0.0418911874294281,-0.12198757380247116,-0.011701920069754124,-0.04112992435693741,-0.03878356143832207,-0.019879817962646484,-0.007762065622955561,0.1126348227262497,-0.014805854298174381
-0.004510050639510155,-0.036680918186903,0.34246522188186646,-0.0007155650528147817,-0.03753228485584259,0.00824938528239727,0.9992610812187195,-0.00010318508429918438,-0.03487192839384079,-0.0018342663533985615,-0.20216205716133118,-0.00041546349530108273,-0.015204460360109806,-0.16833318769931793,0.09976845979690552,-0.139146625995636,0.10714638978242874,0.6643668413162231,0.8239337205886841,0.8599593639373779,0.7238078117370605,-1.599454402923584,-1.5767189264297485,-1.3984304666519165,-1.4464375972747803,-0.00028203055262565613,-0.03137756884098053,-0.23702724277973175,-0.1925618052482605,0.0023706096690148115,-0.002816000720486045,0.14590142667293549,-0.1379600316286087,-0.017116952687501907,0.009817917831242085,-0.029786888509988785,0.03346846625208855,-0.21428437530994415,-0.13354134559631348,0.021364279091358185,-0.16368502378463745,0.06949522346258163,0.019662052392959595,0.2653639614582062,-0.13805879652500153,0.03148898482322693,0.21303296089172363,0.06561453640460968,0.02843233197927475,-0.003115325467661023,-0.09585559368133545,0.020316187292337418,-0.2020779550075531,0.014161627739667892,-0.012960474006831646,0.002271348377689719,-0.08708877116441727,-0.022900300100445747,-0.17091959714889526,-0.007305843289941549,-0.01204063929617405,0.03989415615797043,-0.02351963333785534,0.019519630819559097,0.035498570650815964,-0.11517084389925003,-0.011583315208554268,-0.03759690374135971,-0.03794620558619499,-0.019407423213124275,-0.009388864040374756,0.10367362201213837,-0.013622710481286049
-0.004511209204792976,-0.03697138652205467,0.34245023131370544,0.00012979644816368818,-0.03751721978187561,0.008236482739448547,0.9992620348930359,-0.0005075932713225484,-0.03297249227762222,-0.001771547133103013,-0.19123876094818115,-6.877537816762924e-05,-0.014379793778061867,-0.16833527386188507,0.09950639307498932,-0.14112357795238495,0.10554000735282898,0.6643862128257751,0.8239100575447083,0.8611767292022705,0.7226568460464478,-1.5995970964431763,-1.5766366720199585,-1.3986784219741821,-1.4461592435836792,0.004241271875798702,-0.02646343596279621,-0.22077250480651855,-0.17851391434669495,0.007441394962370396,-0.0020635982509702444,0.1463598906993866,-0.12585067749023438,-0.01358434185385704,0.014863000251352787,-0.037987906485795975,0.028997953981161118,-0.21446804702281952,-0.13345178961753845,0.02136637270450592,-0.16350650787353516,0.06958187371492386,0.019663043320178986,0.26553285121917725,-0.1381337195634842,0.03146781772375107,0.21287302672863007,0.06550753116607666,0.02844894677400589,-0.0015679572243243456,-0.09192951023578644,0.018895506858825684,-0.1955399513244629,0.006001948844641447,-0.013771279715001583,0.0027747533749789,-0.08345677703619003,-0.02262880653142929,-0.16495633125305176,-0.012772701680660248,-0.01091824658215046,0.03808756545186043,-0.023652728646993637,0.020235437899827957,0.02996097505092621,-0.10752071440219879,-0.01125898864120245,-0.034945275634527206,-0.0369582362473011,-0.01811658777296543,-0.012377885170280933,0.0961279422044754,-0.012751823291182518
-0.0045148395001888275,-0.037246186286211014,0.3424350321292877,0.0009284400148317218,-0.03748233616352081,0.008206653408706188,0.9992631673812866,0.00034649705048650503,-0.03183199092745781,-0.0021499479189515114,-0.18657584488391876,0.00023206300102174282,-0.014018548652529716,-0.16830037534236908,0.0992860272526741,-0.14296548068523407,0.10405083745718002,0.6644487977027893,0.8238930702209473,0.8623982667922974,0.7216076254844666,-1.5997103452682495,-1.5765130519866943,-1.3989956378936768,-1.4459168910980225,0.00825017224997282,-0.02222750522196293,-0.2078498899936676,-0.17115512490272522,0.008797173388302326,0.00035594648215919733,0.15175840258598328,-0.11273272335529327,-0.0097194267436862,0.02033929154276848,-0.04721475765109062,0.024708226323127747,-0.2146407663822174,-0.13336648046970367,0.021370306611061096,-0.16334368288516998,0.06966500729322433,0.01966596394777298,0.26568469405174255,-0.13820450007915497,0.031448088586330414,0.21271589398384094,0.06540919095277786,0.028461314737796783,0.00015023746527731419,-0.09050357341766357,0.017623096704483032,-0.19481214880943298,0.0011539391707628965,-0.01449751015752554,0.005160538945347071,-0.0822954997420311,-0.023426342755556107,-0.16461534798145294,-0.020352227613329887,-0.009971508756279945,0.03886572644114494,-0.025525232776999474,0.021419785916805267,0.021549541503190994,-0.10373402386903763,-0.01160691399127245,-0.030662380158901215,-0.036585211753845215,-0.017545219510793686,-0.015000900253653526,0.08740567415952682,-0.011740196496248245
-0.004511836916208267,-0.037512026727199554,0.342416912317276,0.0017056397628039122,-0.03743104264140129,0.008162339217960835,0.9992643594741821,0.0004181143012829125,-0.03087155520915985,-0.0024898855481296778,-0.18377789855003357,0.00051560701103881,-0.013791720382869244,-0.16823111474514008,0.09910014271736145,-0.1446993052959442,0.10262365639209747,0.6645225286483765,0.8238957524299622,0.8636637926101685,0.7206671237945557,-1.5997906923294067,-1.5763434171676636,-1.3993891477584839,-1.4457106590270996,0.010907289572060108,-0.01941565051674843,-0.2029164582490921,-0.16580167412757874,0.012303401716053486,0.003782719373703003,0.1562565118074417,-0.10257991403341293,-0.0057182954624295235,0.023795977234840393,-0.06049114093184471,0.02046974003314972,-0.21480494737625122,-0.13328197598457336,0.021371886134147644,-0.16317547857761383,0.0697474256157875,0.01966666430234909,0.26583725214004517,-0.138284370303154,0.03143175691366196,0.21258030831813812,0.06531879305839539,0.028471149504184723,0.0017368851695209742,-0.08939381688833237,0.016442352905869484,-0.19459819793701172,-0.005963242147117853,-0.01560225524008274,0.006739667616784573,-0.0814136490225792,-0.023997372016310692,-0.16473114490509033,-0.026933422312140465,-0.009174022823572159,0.03781522065401077,-0.02559036761522293,0.02270139567553997,0.019220437854528427,-0.09503050148487091,-0.01084104459732771,-0.028091182932257652,-0.036352064460515976,-0.01710081472992897,-0.017484430223703384,0.0815802663564682,-0.01109289564192295
-0.00450839102268219,-0.03776940330862999,0.3423967659473419,0.0024695973843336105,-0.037356898188591,0.008113118819892406,0.9992659687995911,0.0014507269952446222,-0.028799500316381454,-0.0026446508709341288,-0.1718604415655136,0.0007461454952135682,-0.012873896397650242,-0.16814029216766357,0.09893830120563507,-0.1463921219110489,0.10124045610427856,0.6646248698234558,0.8239280581474304,0.8649678230285645,0.7198117971420288,-1.5998387336730957,-1.5761446952819824,-1.3998937606811523,-1.4455397129058838,0.01228649914264679,-0.016492417082190514,-0.186944380402565,-0.1559913009405136,0.015056462027132511,0.0067903343588113785,0.15462428331375122,-0.08546634018421173,-0.0011480398243293166,0.02652285248041153,-0.07065939903259277,0.017331691458821297,-0.21496760845184326,-0.13319702446460724,0.021375879645347595,-0.16301000118255615,0.06982867419719696,0.0196690633893013,0.265970379114151,-0.13836215436458588,0.03141673654317856,0.21245016157627106,0.06523215770721436,0.028474904596805573,0.004227086901664734,-0.0840427502989769,0.014428247697651386,-0.18401481211185455,-0.012949139811098576,-0.015892641618847847,0.008973483927547932,-0.0766611099243164,-0.023330360651016235,-0.15584351122379303,-0.032416798174381256,-0.007829590700566769,0.03639322519302368,-0.02513592690229416,0.023075103759765625,0.015013463795185089,-0.08331888914108276,-0.009789911098778248,-0.022200025618076324,-0.033549562096595764,-0.015766672790050507,-0.015416926704347134,0.06773388385772705,-0.009174142964184284
-0.0044970400631427765,-0.038010016083717346,0.3423745930194855,0.003180369269102812,-0.03726423531770706,0.0080611202865839,0.9992678165435791,0.001973010366782546,-0.02533070184290409,-0.0029055008199065924,-0.1509772092103958,0.0008713564602658153,-0.011283166706562042,-0.16803735494613647,0.09880062192678452,-0.14795129001140594,0.09993965178728104,0.6647504568099976,0.8239847421646118,0.8662575483322144,0.7190985083580017,-1.5998482704162598,-1.5759235620498657,-1.4004840850830078,-1.4453952312469482,0.01208000723272562,-0.013355362229049206,-0.1543785184621811,-0.13337670266628265,0.018165186047554016,0.010223747231066227,0.1372508853673935,-0.05977817252278328,0.004041254986077547,0.02861914224922657,-0.06518316268920898,0.00606380682438612,-0.215111643075943,-0.133119598031044,0.021379590034484863,-0.16284869611263275,0.06990216672420502,0.019672319293022156,0.2660893499851227,-0.13844020664691925,0.03140468895435333,0.21234695613384247,0.06515930593013763,0.028471343219280243,0.0065027931705117226,-0.07411052286624908,0.011262055486440659,-0.16289934515953064,-0.021010205149650574,-0.015539082698523998,0.010677028447389603,-0.0678313821554184,-0.021721692755818367,-0.13821327686309814,-0.03779052570462227,-0.005853977520018816,0.03244919702410698,-0.025499805808067322,0.020633703097701073,0.0032641792204231024,-0.07146050035953522,-0.009239373728632927,-0.015479108318686485,-0.0305402260273695,-0.013112176209688187,-0.0172029510140419,0.053454432636499405,-0.0075352867133915424
-0.004480082541704178,-0.03822110965847969,0.3423497676849365,0.00380106084048748,-0.037160757929086685,0.00800972431898117,0.999269962310791,0.0019175291527062654,-0.0207881610840559,-0.002620254410430789,-0.12361818552017212,0.0008679072489030659,-0.009214024990797043,-0.1679365038871765,0.09868969023227692,-0.14923863112926483,0.09882710874080658,0.6649022102355957,0.8240698575973511,0.8674021363258362,0.7186002731323242,-1.5998148918151855,-1.575684666633606,-1.4010270833969116,-1.4453448057174683,0.013795782811939716,-0.008504997007548809,-0.12625055015087128,-0.10864565521478653,0.021470509469509125,0.012292935512959957,0.13542701303958893,-0.04367068037390709,0.006584974937140942,0.030181415379047394,-0.08626800775527954,0.0066786035895347595,-0.21522632241249084,-0.13305100798606873,0.021379023790359497,-0.16269654035568237,0.06996549665927887,0.019672580063343048,0.2661871314048767,-0.1385314017534256,0.031383827328681946,0.21227724850177765,0.06509239971637726,0.028466202318668365,0.007966077886521816,-0.06181911379098892,0.008533645421266556,-0.13725408911705017,-0.026768337935209274,-0.014480342157185078,0.011295520700514317,-0.056470755487680435,-0.018946221098303795,-0.11579372733831406,-0.0413844920694828,-0.00374433072283864,0.027861252427101135,-0.021676264703273773,0.021534781903028488,0.002424185862764716,-0.04874001070857048,-0.006353695876896381,-0.010407600551843643,-0.025258760899305344,-0.011107784695923328,-0.014703328721225262,0.03685358166694641,-0.005356773734092712
-0.0044640060514211655,-0.038394659757614136,0.3423284888267517,0.004298812709748745,-0.03703463077545166,0.007951789535582066,0.9992731213569641,0.0020334115251898766,-0.015443658456206322,-0.0030210730619728565,-0.09058845043182373,0.0007269454072229564,-0.006729845888912678,-0.16782186925411224,0.09861864894628525,-0.15029115974903107,0.09792093187570572,0.6650812029838562,0.8241726160049438,0.8685312867164612,0.71823650598526,-1.5997594594955444,-1.5754332542419434,-1.4017471075057983,-1.4452890157699585,0.016772126778960228,-0.00029839391936548054,-0.08186854422092438,-0.07606519013643265,0.025207500904798508,0.013790980912744999,0.12187043577432632,-0.013665804639458656,0.009785348549485207,0.032337989658117294,-0.09217975288629532,0.003679691581055522,-0.21532252430915833,-0.13299886882305145,0.021388299763202667,-0.16257955133914948,0.07001586258411407,0.019681021571159363,0.2662539780139923,-0.138597771525383,0.031381458044052124,0.2122112214565277,0.06504937261343002,0.02844545990228653,0.009893347509205341,-0.04739340394735336,0.004524746909737587,-0.10719846189022064,-0.033729180693626404,-0.01326335035264492,0.012013323605060577,-0.043622832745313644,-0.016544973477721214,-0.09104817360639572,-0.04509915038943291,-0.0014640730805695057,0.022583043202757835,-0.020253684371709824,0.019696159288287163,-0.008888281881809235,-0.02935146354138851,-0.004640237428247929,-0.0013583970721811056,-0.01990266516804695,-0.008882595226168633,-0.014571295119822025,0.010039066895842552,-0.0022229088936001062
-0.0044469889253377914,-0.038523294031620026,0.3423026204109192,0.004646966699510813,-0.03690741956233978,0.007878941483795643,0.9992768168449402,0.002030120464041829,-0.010412353090941906,-0.0027969263028353453,-0.06476437300443649,0.0005653793341480196,-0.004795128013938665,-0.16768208146095276,0.09861627221107483,-0.1509736180305481,0.0972866415977478,0.6652910113334656,0.824286937713623,0.8695482015609741,0.7181227207183838,-1.5996781587600708,-1.5751636028289795,-1.4025157690048218,-1.445258378982544,0.018192285671830177,0.006916483864188194,-0.03780567646026611,-0.04174702614545822,0.026405753567814827,0.016124539077281952,0.09312888979911804,0.015017424710094929,0.013658290728926659,0.03504336252808571,-0.08496420830488205,-0.0047284564934670925,-0.215378075838089,-0.13296611607074738,0.02138885110616684,-0.1624886691570282,0.07004817575216293,0.019681207835674286,0.26630347967147827,-0.1386544555425644,0.031386733055114746,0.21218983829021454,0.0650329440832138,0.028414413332939148,0.011006178334355354,-0.034959129989147186,0.0016951241996139288,-0.08280343562364578,-0.038879334926605225,-0.012197412550449371,0.01301151979714632,-0.03299199417233467,-0.014272207394242287,-0.07253546267747879,-0.05020412802696228,0.0005019687814638019,0.014825237914919853,-0.021036194637417793,0.016754813492298126,-0.027052495628595352,-0.007853960618376732,-0.0031039018649607897,0.006278522312641144,-0.01768927089869976,-0.006236569955945015,-0.02330758608877659,-0.010020576417446136,-0.0005584608297795057
-0.004430092871189117,-0.03861032798886299,0.3422796428203583,0.004858659114688635,-0.036762941628694534,0.007793255150318146,0.9992818236351013,0.0018259248463436961,-0.006447322200983763,-0.002807468641549349,-0.049725241959095,0.0004556091735139489,-0.003667318494990468,-0.16753016412258148,0.09867411851882935,-0.15128877758979797,0.0969383493065834,0.6655120849609375,0.8244221806526184,0.8703246116638184,0.7182482481002808,-1.5995638370513916,-1.5748708248138428,-1.4032251834869385,-1.4452983140945435,0.021642260253429413,0.012465693056583405,-0.007588086184114218,-0.019647158682346344,0.03206862509250641,0.018193282186985016,0.08959965407848358,0.039685845375061035,0.01630898378789425,0.03604617714881897,-0.10001292079687119,-0.006964639760553837,-0.21541184186935425,-0.13294707238674164,0.021393612027168274,-0.16242918372154236,0.07006463408470154,0.0196860209107399,0.26630157232284546,-0.13870930671691895,0.03137814253568649,0.21219347417354584,0.06502889841794968,0.02837754786014557,0.01296625379472971,-0.027458850294351578,-0.00011399132199585438,-0.07120642066001892,-0.04716741666197777,-0.012577245943248272,0.013513520359992981,-0.02617449313402176,-0.01307104155421257,-0.06310389935970306,-0.05331186577677727,0.0015654941089451313,0.010569178499281406,-0.02233879268169403,0.017950421199202538,-0.04216735437512398,0.010703865438699722,-0.0017009117873385549,0.013512629084289074,-0.01613526977598667,-0.005132262594997883,-0.030699472874403,-0.03223554790019989,0.0014313445426523685
-0.004415446892380714,-0.03866341710090637,0.34225666522979736,0.004962000995874405,-0.036612220108509064,0.007697847206145525,0.9992876052856445,0.0010110237635672092,-0.00250564725138247,-0.002631174633279443,-0.04566800966858864,0.0004283142043277621,-0.0033542783930897713,-0.1673498898744583,0.09877823293209076,-0.15135253965854645,0.09677434712648392,0.6657791137695312,0.8245737552642822,0.8710724115371704,0.7185795307159424,-1.5994280576705933,-1.5745705366134644,-1.4040590524673462,-1.4453564882278442,0.02375432290136814,0.018329661339521408,0.02226160652935505,0.004021497443318367,0.03375541418790817,0.01934020034968853,0.0784643217921257,0.06529761850833893,0.017586462199687958,0.03587932139635086,-0.10814729332923889,-0.011683371849358082,-0.215415358543396,-0.13294436037540436,0.021397538483142853,-0.16239380836486816,0.0700700581073761,0.019690975546836853,0.26628047227859497,-0.13875222206115723,0.0313868522644043,0.21223074197769165,0.06504865735769272,0.02833506464958191,0.012853354215621948,-0.022913409397006035,-0.00045657786540687084,-0.06926294416189194,-0.05010030046105385,-0.012861860916018486,0.012997956946492195,-0.022808998823165894,-0.012755054980516434,-0.06492159515619278,-0.054255615919828415,0.0015588912647217512,0.004514334257692099,-0.02693643979728222,0.019150253385305405,-0.06788843125104904,0.03004571609199047,-0.0009627612889744341,0.020071402192115784,-0.01864437758922577,-0.004755539819598198,-0.05061647668480873,-0.05280691757798195,0.002318618120625615
-0.004406187683343887,-0.038684625178575516,0.3422340750694275,0.004955992568284273,-0.036451857537031174,0.0075973039492964745,0.9992942810058594,0.001657721004448831,0.0008909101597964764,-0.0036080582067370415,-0.054851289838552475,0.0005143129383213818,-0.0040110270492732525,-0.1671513020992279,0.09893126040697098,-0.15116634964942932,0.09680807590484619,0.6660604476928711,0.8247347474098206,0.8717264533042908,0.7191237807273865,-1.5992811918258667,-1.5742708444595337,-1.404961347579956,-1.445453405380249,0.02611924335360527,0.023637976497411728,0.052030108869075775,0.025891534984111786,0.03890024498105049,0.024236902594566345,0.07193435728549957,0.09337519854307175,0.020484114065766335,0.0362866073846817,-0.11732256412506104,-0.023774880915880203,-0.21540464460849762,-0.13296033442020416,0.021404892206192017,-0.1623915135860443,0.07005845010280609,0.019697241485118866,0.26622474193573,-0.13878612220287323,0.0314020961523056,0.212294802069664,0.06508348137140274,0.028286591172218323,0.015324853360652924,-0.022909248247742653,-0.0009849946945905685,-0.08079323917627335,-0.057942092418670654,-0.014900497160851955,0.015229269862174988,-0.023877127096056938,-0.014930954203009605,-0.07949025928974152,-0.059389375150203705,0.0011191394878551364,0.0010510287247598171,-0.03640676662325859,0.020944928750395775,-0.10676870495080948,0.04597031697630882,-0.0016544529935345054,0.027692224830389023,-0.02527923882007599,-0.005820621736347675,-0.081886887550354,-0.06840202212333679,0.0018362734699621797
-0.0043924730271101,-0.038677409291267395,0.34220385551452637,0.004856077954173088,-0.03627564013004303,0.007490955758839846,0.9993019700050354,0.0029024602845311165,0.003150347387418151,-0.002293586963787675,-0.056745223701000214,0.0005212905234657228,-0.004129255190491676,-0.16693365573883057,0.09912829101085663,-0.1507318913936615,0.09702466428279877,0.6663851737976074,0.8249371647834778,0.8723266124725342,0.7199029922485352,-1.5991101264953613,-1.5739681720733643,-1.4059398174285889,-1.4456521272659302,0.0231513399630785,0.025265105068683624,0.06739237159490585,0.03980397433042526,0.03426602855324745,0.02087683416903019,0.04341435432434082,0.09319854527711868,0.01663489267230034,0.02754354104399681,-0.11270812153816223,-0.02281658910214901,-0.21536631882190704,-0.1329910159111023,0.02140747755765915,-0.16240297257900238,0.07003329694271088,0.019700035452842712,0.26614898443222046,-0.13882151246070862,0.03141576796770096,0.21239151060581207,0.0651300698518753,0.028231367468833923,0.014669756405055523,-0.02042376436293125,0.001060072798281908,-0.07973640412092209,-0.04958154261112213,-0.013510104268789291,0.014035268686711788,-0.022536862641572952,-0.012870878912508488,-0.0827835351228714,-0.04734878987073898,-0.0004796237626578659,-0.00593488710001111,-0.039464522153139114,0.020607853308320045,-0.12400853633880615,0.06979533284902573,0.0003550254332367331,0.029067866504192352,-0.02820535935461521,-0.0056480588391423225,-0.09765434265136719,-0.06904931366443634,0.0008054875652305782
-0.004368191584944725,-0.03865102678537369,0.3421853184700012,0.00469533447176218,-0.03612993285059929,0.007396381348371506,0.999308705329895,0.0034367579501122236,0.005645925644785166,-0.0030163025949150324,-0.06636474281549454,0.0005888724699616432,-0.004809570498764515,-0.16674081981182098,0.09933886677026749,-0.15017002820968628,0.0973563939332962,0.6666710376739502,0.8251111507415771,0.8726887702941895,0.7206800580024719,-1.5989716053009033,-1.5737380981445312,-1.4068807363510132,-1.445841908454895,0.020458579063415527,0.027644570916891098,0.08509941399097443,0.051661279052495956,0.03346022218465805,0.019199838861823082,0.024579742923378944,0.10292366147041321,0.015112673863768578,0.021719900891184807,-0.11073984205722809,-0.02062297612428665,-0.21530252695083618,-0.13303057849407196,0.02141643315553665,-0.1624181866645813,0.06999630481004715,0.019709736108779907,0.2660456895828247,-0.1388528048992157,0.031444989144802094,0.21250583231449127,0.06517545878887177,0.02818988263607025,0.014688271097838879,-0.02003285102546215,0.0013865320943295956,-0.08666253834962845,-0.047243859618902206,-0.01363616157323122,0.0131615549325943,-0.023609183728694916,-0.014053035527467728,-0.09463255852460861,-0.03981686383485794,-0.002172412583604455,-0.011158961802721024,-0.045704539865255356,0.020122423768043518,-0.151323139667511,0.0867142453789711,0.0006640774663537741,0.03313703089952469,-0.03277334198355675,-0.008139088749885559,-0.1192784309387207,-0.0807313472032547,0.000617508077993989
-0.004340227693319321,-0.038603734225034714,0.3421594798564911,0.004463571589440107,-0.036004483699798584,0.007309817709028721,0.9993149042129517,0.0031916277948766947,0.007994988933205605,-0.0028297281824052334,-0.08066748082637787,0.0006789630861021578,-0.005825401749461889,-0.16656933724880219,0.09956943243741989,-0.1494600474834442,0.09778779745101929,0.6669501066207886,0.8252712488174438,0.8728934526443481,0.7215396165847778,-1.598845362663269,-1.5735573768615723,-1.4078038930892944,-1.4460147619247437,0.017618857324123383,0.028502019122242928,0.10936538130044937,0.06506852060556412,0.033322397619485855,0.024300523102283478,0.008578397333621979,0.11411330848932266,0.011974703520536423,0.01701362058520317,-0.10904237627983093,-0.02463775873184204,-0.2152125984430313,-0.1330796778202057,0.02141265571117401,-0.16244448721408844,0.06994573771953583,0.019708707928657532,0.26592546701431274,-0.13887859880924225,0.0314737930893898,0.21265080571174622,0.06523268669843674,0.02814142405986786,0.013862556777894497,-0.02118583954870701,0.0033115344122052193,-0.09812203794717789,-0.04394887387752533,-0.01394613180309534,0.013747785240411758,-0.025816459208726883,-0.014658295549452305,-0.10977810621261597,-0.040123939514160156,-0.003195149125531316,-0.016391349956393242,-0.055807411670684814,0.02161039598286152,-0.18988190591335297,0.1011497974395752,-0.00020278811280149966,0.03587804734706879,-0.03940466791391373,-0.009462774731218815,-0.14703403413295746,-0.08767939358949661,-0.0005275416187942028
