Huisouan/isaac-rl-lab/source/vqvae/data/back_002.csv
rootstate0,rootstate1,rootstate2,rootstate3,rootstate4,rootstate5,rootstate6,rootstate7,rootstate8,rootstate9,rootstate10,rootstate11,rootstate12,joint_pos_0,joint_pos_1,joint_pos_2,joint_pos_3,joint_pos_4,joint_pos_5,joint_pos_6,joint_pos_7,joint_pos_8,joint_pos_9,joint_pos_10,joint_pos_11,joint_vel_0,joint_vel_1,joint_vel_2,joint_vel_3,joint_vel_4,joint_vel_5,joint_vel_6,joint_vel_7,joint_vel_8,joint_vel_9,joint_vel_10,joint_vel_11,foot_pos_0_x,foot_pos_0_y,foot_pos_0_z,foot_pos_1_x,foot_pos_1_y,foot_pos_1_z,foot_pos_2_x,foot_pos_2_y,foot_pos_2_z,foot_pos_3_x,foot_pos_3_y,foot_pos_3_z,foot_vel_0_x,foot_vel_0_y,foot_vel_0_z,foot_vel_0_rx,foot_vel_0_ry,foot_vel_0_rz,foot_vel_1_x,foot_vel_1_y,foot_vel_1_z,foot_vel_1_rx,foot_vel_1_ry,foot_vel_1_rz,foot_vel_2_x,foot_vel_2_y,foot_vel_2_z,foot_vel_2_rx,foot_vel_2_ry,foot_vel_2_rz,foot_vel_3_x,foot_vel_3_y,foot_vel_3_z,foot_vel_3_rx,foot_vel_3_ry,foot_vel_3_rz
0.0,0.0,0.34365200996398926,-0.15636393427848816,-0.0029929988086223602,0.03420198708772659,0.9871026277542114,-0.0,0.0,0.0,-0.0,0.0,0.0,-0.10252799838781357,0.16793300211429596,-0.07149600237607956,0.2252179980278015,0.8718699812889099,0.7806910276412964,0.9256920218467712,0.857804000377655,-1.62773597240448,-1.6308419704437256,-1.463644027709961,-1.5499769449234009,-0.005609000101685524,-0.002498999936506152,-0.001357999979518354,0.0015719999792054296,0.009236999787390232,-0.005419999826699495,0.003461000043898821,0.0016969999996945262,-0.011985000222921371,0.006856999825686216,-0.004743000026792288,-0.002474999986588955,-0.12839490175247192,-0.18038728833198547,0.05256574600934982,-0.21688225865364075,0.004066411405801773,0.03532356768846512,0.2841518521308899,-0.0559222549200058,0.034348390996456146,0.19098034501075745,0.11458528786897659,0.021463073790073395,0.00031406120979227126,0.0017742221243679523,0.001422874629497528,0.004486675839871168,0.004344847984611988,6.660520739387721e-05,-0.0007531610899604857,0.0003029716026503593,-0.0009493271936662495,0.0028098307084292173,-0.0005562579026445746,0.0003246474952902645,7.138084038160741e-05,0.0004653406795114279,0.0005995195242576301,0.0008955764351412654,0.0016387876821681857,-2.6758295916806674e-06,0.00022564665414392948,-0.0003368283505551517,0.0003567545209079981,-0.0017261605244129896,0.00022233666095416993,-0.0002177217393182218
-5.25452196598053e-06,-9.242445230484009e-06,0.34364885091781616,-0.15634649991989136,-0.0030121151357889175,0.034183867275714874,0.9871059656143188,-0.9142584204673767,-1.607886552810669,-0.5508131980895996,-8.648393630981445,2.832314968109131,-6.268442630767822,-0.10261119902133942,0.16787709295749664,-0.07155288755893707,0.22518333792686462,0.8719508647918701,0.7806376218795776,0.9257293939590454,0.8578191995620728,-1.6278269290924072,-1.63075852394104,-1.4636718034744263,-1.549967646598816,-6.297449111938477,-6.073099136352539,-7.809637546539307,-8.292755126953125,0.6691691875457764,-1.285791039466858,1.4666111469268799,0.21088634431362152,1.5771713256835938,4.607766151428223,1.947738766670227,5.294405937194824,-0.12839502096176147,-0.1803540289402008,0.052558161318302155,-0.21688520908355713,0.0040896981954574585,0.035302259027957916,0.28415581583976746,-0.05590929463505745,0.034352198243141174,0.19099219143390656,0.11459515988826752,0.02147035300731659,-2.9726016521453857,-1.4909785985946655,0.49708908796310425,-1.9658528566360474,2.6420178413391113,-6.37495756149292,-1.969236135482788,-1.3047173023223877,-0.6448555588722229,-1.8712685108184814,1.6375354528427124,-5.5193634033203125,-2.064911365509033,-3.581834316253662,-1.8535126447677612,-0.16615983843803406,1.9970519542694092,-6.315962791442871,-0.9173219799995422,-3.0732009410858154,-2.8572492599487305,0.8736042976379395,0.38406291604042053,-4.7142133712768555
-0.00762411393225193,-0.013408657163381577,0.33905911445617676,-0.13091933727264404,-0.030714619904756546,0.007887906394898891,0.9908857941627502,-0.009834893979132175,0.02982400730252266,0.0112687973305583,-0.06304523348808289,0.09487435221672058,0.22869130969047546,-0.15508976578712463,0.11726805567741394,-0.13663125038146973,0.1560785174369812,0.8775274753570557,0.7699226140975952,0.9379498362541199,0.8595759868621826,-1.6146836280822754,-1.592360258102417,-1.4474406242370605,-1.5058454275131226,0.020672764629125595,0.004181323107331991,0.24012883007526398,0.21984225511550903,-0.04824068024754524,-0.11730565875768661,-0.36447015404701233,-0.08723840117454529,-0.051918983459472656,-0.025335140526294708,0.12799599766731262,0.22000153362751007,-0.13019967079162598,-0.15280956029891968,0.026729188859462738,-0.2098279893398285,0.03478704392910004,0.018335461616516113,0.2899985909461975,-0.04317134618759155,0.03537970036268234,0.20679417252540588,0.1326354444026947,0.030653588473796844,-0.02835210971534252,-0.025712689384818077,0.03565473109483719,-0.10957080870866776,0.18517112731933594,0.24057336151599884,-0.08924370259046555,-0.04233718663454056,0.02749215066432953,-0.10271065682172775,0.23044821619987488,0.20843639969825745,-0.09884674102067947,-0.009486667811870575,-0.04602658748626709,-0.35718491673469543,0.2589109539985657,0.2411690354347229,-0.041009001433849335,-0.005821364000439644,-0.058956775814294815,-0.24227195978164673,-0.08875131607055664,0.23946450650691986
-0.007706167176365852,-0.013159459456801414,0.3391532003879547,-0.13188809156417847,-0.031163986772298813,0.007819862104952335,0.9907436966896057,-0.009754438884556293,0.031408533453941345,0.011586987413465977,-0.06930854916572571,0.10630279034376144,0.25075849890708923,-0.1549174189567566,0.11730331182479858,-0.1346283257007599,0.1579122245311737,0.8771247863769531,0.7689442038536072,0.9349095821380615,0.8588489294052124,-1.6151164770126343,-1.5925719738006592,-1.4463725090026855,-1.504011631011963,0.03353812173008919,0.01817898266017437,0.2711465358734131,0.2453753501176834,-0.06829532235860825,-0.1040184497833252,-0.4319845139980316,-0.061458345502614975,-0.028001684695482254,-0.05586831271648407,0.20191822946071625,0.1906966269016266,-0.12990428507328033,-0.15284870564937592,0.026742488145828247,-0.21003791689872742,0.03460976481437683,0.018282979726791382,0.28968504071235657,-0.04305746778845787,0.035487569868564606,0.2069607377052307,0.13277985155582428,0.030641846358776093,-0.029701856896281242,-0.032052572816610336,0.03475780785083771,-0.12738092243671417,0.18945205211639404,0.2613281011581421,-0.09353974461555481,-0.05056513845920563,0.03345085307955742,-0.12704508006572723,0.2546515166759491,0.2272341400384903,-0.10574108362197876,-0.013185039162635803,-0.05958600714802742,-0.3919351398944855,0.2555605471134186,0.2599835991859436,-0.042906682938337326,-0.007340643554925919,-0.05835546925663948,-0.2736758887767792,-0.08096855133771896,0.25942084193229675
-0.00778723880648613,-0.012898284941911697,0.33925026655197144,-0.13289982080459595,-0.03164234757423401,0.007752831093966961,0.9905939102172852,-0.010327671654522419,0.031081626191735268,0.01204604096710682,-0.06665951013565063,0.10269591957330704,0.2376600205898285,-0.15463726222515106,0.1174544170498848,-0.132367804646492,0.15995857119560242,0.8765553832054138,0.7680765986442566,0.9313068389892578,0.8583365678787231,-1.615350604057312,-1.5930373668670654,-1.4446879625320435,-1.5024216175079346,0.032137561589479446,0.018164468929171562,0.26990413665771484,0.2421192079782486,-0.06990429013967514,-0.1042100191116333,-0.4413732886314392,-0.06406570971012115,-0.027367278933525085,-0.05940181761980057,0.2150905281305313,0.19293099641799927,-0.1295848786830902,-0.15291696786880493,0.026724986732006073,-0.21022862195968628,0.034396134316921234,0.018253743648529053,0.2893584668636322,-0.04299166426062584,0.0355285108089447,0.20717361569404602,0.1329028606414795,0.030678927898406982,-0.03129863739013672,-0.029858605936169624,0.03424715995788574,-0.12382631748914719,0.18702669441699982,0.24837708473205566,-0.09275062382221222,-0.0478515625,0.03395862877368927,-0.12560686469078064,0.25449639558792114,0.21356435120105743,-0.10597500950098038,-0.016862373799085617,-0.05974941700696945,-0.3873715102672577,0.2480582445859909,0.24576596915721893,-0.04082132503390312,-0.009075384587049484,-0.05671213939785957,-0.2676355242729187,-0.0837409570813179,0.24648645520210266
-0.007873330265283585,-0.012639183551073074,0.33935031294822693,-0.13390929996967316,-0.03212769329547882,0.007690833881497383,0.9904428124427795,-0.011491178534924984,0.028418434783816338,0.012054070830345154,-0.24793511629104614,-0.06848710775375366,-0.015870146453380585,-0.15436919033527374,0.11760645359754562,-0.1301167756319046,0.16197745501995087,0.8759729862213135,0.7672082185745239,0.9276267290115356,0.8578018546104431,-1.6155788898468018,-1.593532681465149,-1.4428945779800415,-1.5008124113082886,0.027972882613539696,0.01578136906027794,0.25135892629623413,0.22432777285575867,-0.0718015506863594,-0.09660108387470245,-0.4272540509700775,-0.07375321537256241,-0.027468234300613403,-0.06078894063830376,0.22652515769004822,0.19292289018630981,-0.12926894426345825,-0.1529858261346817,0.02670811116695404,-0.21042263507843018,0.03417712450027466,0.01822827011346817,0.2890282869338989,-0.042931847274303436,0.03556269407272339,0.20738354325294495,0.13302777707576752,0.03072088211774826,-0.015013555064797401,-0.06115810573101044,0.040992867201566696,-0.3018204867839813,0.018740125000476837,-0.004701012745499611,-0.024880312383174896,-0.060056544840335846,-0.006347750313580036,-0.303288072347641,0.0778752863407135,-0.03899522125720978,-0.05764876306056976,-0.14667515456676483,-0.0016551001463085413,-0.5441682934761047,0.05675670504570007,-0.01010635681450367,0.04389002546668053,-0.12142060697078705,-0.04351622238755226,-0.43387842178344727,-0.24135345220565796,-0.007704327814280987
-0.0079694464802742,-0.01240219734609127,0.3394504189491272,-0.1348542720079422,-0.032615963369607925,0.007641888689249754,0.9902989864349365,-0.013020307756960392,0.023157380521297455,0.011734438128769398,-0.2183218002319336,-0.06076005846261978,-0.014200103469192982,-0.1541363149881363,0.11773733049631119,-0.12802080810070038,0.16384729743003845,0.8753736615180969,0.7664018869400024,0.9240634441375732,0.8571872711181641,-1.6158080101013184,-1.5940401554107666,-1.4410059452056885,-1.4992034435272217,0.019817238673567772,0.00949882436543703,0.20865850150585175,0.18274825811386108,-0.06730490922927856,-0.0908115953207016,-0.39207470417022705,-0.08075924217700958,-0.027526218444108963,-0.06249162182211876,0.2355184257030487,0.1896550953388214,-0.1289847195148468,-0.1530579924583435,0.026690766215324402,-0.21060195565223694,0.03396603465080261,0.018203340470790863,0.2887272834777832,-0.04288005828857422,0.03559437394142151,0.20757071673870087,0.13313546776771545,0.030765272676944733,-0.01802680268883705,-0.054866593331098557,0.037264954298734665,-0.2633282244205475,0.024316983297467232,-0.0031556158792227507,-0.028031211346387863,-0.054108403623104095,-0.0029792403802275658,-0.26684123277664185,0.08327086269855499,-0.03640502318739891,-0.05275007709860802,-0.12648193538188934,-0.00537120783701539,-0.46167483925819397,0.03314097225666046,-0.01102243922650814,0.03364269807934761,-0.10520841926336288,-0.0394379161298275,-0.3665764033794403,-0.21306639909744263,-0.005334888584911823
-0.008077559992671013,-0.012208277359604836,0.33954840898513794,-0.13566021621227264,-0.03309419006109238,0.007615965325385332,0.9901732802391052,-0.013918446376919746,0.018021661788225174,0.010203246958553791,-0.1885727494955063,-0.052815619856119156,-0.012454722076654434,-0.15397045016288757,0.11781711131334305,-0.126281276345253,0.16537177562713623,0.8748125433921814,0.7656446099281311,0.9207941889762878,0.8565137386322021,-1.616037130355835,-1.5945613384246826,-1.4390417337417603,-1.497622013092041,0.013836481608450413,0.00294108921661973,0.16722244024276733,0.1439255028963089,-0.06047475337982178,-0.08340779691934586,-0.3432900011539459,-0.08146929740905762,-0.025163831189274788,-0.05853113532066345,0.23062916100025177,0.17629888653755188,-0.12874983251094818,-0.15312844514846802,0.026676177978515625,-0.21077553927898407,0.03377457708120346,0.01818208396434784,0.288474977016449,-0.04283209890127182,0.03561887890100479,0.20773197710514069,0.1332288384437561,0.03081338107585907,-0.019276024773716927,-0.04870755970478058,0.03218807652592659,-0.22544986009597778,0.02504114806652069,-0.0022656673099845648,-0.029324956238269806,-0.047666169703006744,-0.001606559380888939,-0.2280682921409607,0.08204135298728943,-0.032678622752428055,-0.045666277408599854,-0.10619063675403595,-0.007994174025952816,-0.3802025616168976,0.009898697957396507,-0.011601388454437256,0.024177074432373047,-0.0893518477678299,-0.03531299903988838,-0.30285918712615967,-0.18154127895832062,-0.0037645709235221148
-0.008193623274564743,-0.012058310210704803,0.33963340520858765,-0.13633224368095398,-0.03354912996292114,0.007609034888446331,0.9900657534599304,-0.013559507206082344,0.015061420388519764,0.009120007045567036,-0.16223403811454773,-0.045679721981287,-0.010869407095015049,-0.15385553240776062,0.11784101277589798,-0.12488757073879242,0.16657155752182007,0.8743078708648682,0.7649499773979187,0.9179321527481079,0.8558339476585388,-1.6162470579147339,-1.5950496196746826,-1.4371190071105957,-1.4961521625518799,0.010202840901911259,0.0002727560349740088,0.1397576481103897,0.12080011516809464,-0.04695747047662735,-0.06681685894727707,-0.2795948088169098,-0.0668146014213562,-0.023655053228139877,-0.055229250341653824,0.1943308562040329,0.1493464708328247,-0.12855830788612366,-0.15320031344890594,0.026655465364456177,-0.21093851327896118,0.033604755997657776,0.018152929842472076,0.288280189037323,-0.04278530180454254,0.035637155175209045,0.20786289870738983,0.1333061307668686,0.030859798192977905,-0.017117030918598175,-0.0416116788983345,0.028413843363523483,-0.19157741963863373,0.01880127564072609,-0.0024199842009693384,-0.026241671293973923,-0.04050874710083008,-0.00015932228416204453,-0.19416971504688263,0.07084187865257263,-0.028136542066931725,-0.03717048838734627,-0.08980494737625122,-0.0048913005739450455,-0.32000449299812317,-0.0019713391084223986,-0.01131676696240902,0.01967850886285305,-0.07621046900749207,-0.029333777725696564,-0.2572791874408722,-0.15662570297718048,-0.0030213440768420696
-0.008306657895445824,-0.011933366768062115,0.33970940113067627,-0.13691402971744537,-0.03393411636352539,0.007615103852003813,0.9899722337722778,-0.012708636932075024,0.012137074023485184,0.007277203723788261,-0.13958977162837982,-0.039483651518821716,-0.009464253671467304,-0.15377065539360046,0.11784396320581436,-0.12372191250324249,0.1675790250301361,0.8739171028137207,0.7643920183181763,0.9156010746955872,0.8552771806716919,-1.6164439916610718,-1.595509648323059,-1.4354982376098633,-1.4949073791503906,0.00655055046081543,-0.0006855728570371866,0.11753636598587036,0.09726755321025848,-0.03635125979781151,-0.058243539184331894,-0.25005200505256653,-0.05421490967273712,-0.01823008805513382,-0.05000597983598709,0.1891155242919922,0.12906090915203094,-0.12839959561824799,-0.1532684564590454,0.02664852887392044,-0.21109090745449066,0.03345221281051636,0.018138669431209564,0.28812724351882935,-0.0427379384636879,0.03566655516624451,0.20796184241771698,0.13337187469005585,0.030902281403541565,-0.014427107758820057,-0.03554394841194153,0.023638848215341568,-0.16105233132839203,0.01069449633359909,-0.0028654008638113737,-0.02422422543168068,-0.03552750125527382,-0.00029993802309036255,-0.16713526844978333,0.0640849769115448,-0.024735568091273308,-0.03207016363739967,-0.07680197060108185,-0.007628601044416428,-0.2693311274051666,-0.013166314922273159,-0.011088053695857525,0.01648889109492302,-0.0640644058585167,-0.025350656360387802,-0.21388444304466248,-0.13685141503810883,-0.001544409547932446
-0.008412668481469154,-0.011831441894173622,0.3397703170776367,-0.13740688562393188,-0.03427698090672493,0.00763221038505435,0.9898920059204102,-0.011552813462913036,0.009700900875031948,0.005775239784270525,-0.1156546026468277,-0.03283997252583504,-0.007923688739538193,-0.15371577441692352,0.11783784627914429,-0.12274164706468582,0.16838958859443665,0.8736134171485901,0.7639073133468628,0.9135163426399231,0.8548246622085571,-1.6165958642959595,-1.5959265232086182,-1.433921456336975,-1.4938311576843262,0.003880028845742345,-0.0027223583310842514,0.09289707988500595,0.07987738400697708,-0.028142021968960762,-0.04672259837388992,-0.20253980159759521,-0.04063849896192551,-0.014373885467648506,-0.043887507170438766,0.1668403297662735,0.1012706384062767,-0.1282552182674408,-0.1533278375864029,0.02663564682006836,-0.21122649312019348,0.03331388533115387,0.018119141459465027,0.2880021631717682,-0.04270251840353012,0.0356714129447937,0.2080526351928711,0.1334332823753357,0.030940614640712738,-0.012396746315062046,-0.029163239523768425,0.01923169195652008,-0.13124188780784607,0.006562709808349609,-0.0027158637531101704,-0.02116760052740574,-0.02909104898571968,-1.3899989426136017e-05,-0.13672737777233124,0.05441484600305557,-0.02057819999754429,-0.024706998839974403,-0.06172443553805351,-0.0073145488277077675,-0.21475116908550262,-0.024046191945672035,-0.01054203137755394,0.012917913496494293,-0.05300271138548851,-0.020282814279198647,-0.1768093705177307,-0.11206388473510742,-0.0015738853253424168
-0.008509635925292969,-0.01175055094063282,0.33981823921203613,-0.13781438767910004,-0.03456161916255951,0.007662375923246145,0.9898252487182617,-0.010178416036069393,0.007095518987625837,0.004045369569212198,-0.09044665098190308,-0.025764169171452522,-0.006249660160392523,-0.15368308126926422,0.11781562864780426,-0.12196681648492813,0.16905544698238373,0.8733789324760437,0.7635176777839661,0.9118269681930542,0.8544864058494568,-1.616715669631958,-1.5962926149368286,-1.4325298070907593,-1.4929865598678589,-0.001176602439954877,-0.005951982457190752,0.06603304296731949,0.05439320579171181,-0.016512591391801834,-0.03633462265133858,-0.14343804121017456,-0.025550680235028267,-0.010700911283493042,-0.03999705985188484,0.13059048354625702,0.06955191493034363,-0.12813830375671387,-0.15338465571403503,0.02662546932697296,-0.2113470435142517,0.0331915020942688,0.018101952970027924,0.2879146635532379,-0.04266786575317383,0.03566882759332657,0.2081233710050583,0.13347432017326355,0.030974358320236206,-0.009522884152829647,-0.021610794588923454,0.014475425705313683,-0.09693412482738495,0.0004490349965635687,-0.002680395497009158,-0.01881225034594536,-0.02221883274614811,0.0005510728806257248,-0.10474275797605515,0.04872643202543259,-0.016676707193255424,-0.016491316258907318,-0.04559081792831421,-0.00532101932913065,-0.15739619731903076,-0.03153952956199646,-0.00938392337411642,0.0083965715020895,-0.0391354113817215,-0.014583319425582886,-0.1313554346561432,-0.08231227099895477,-0.0014005437260493636
-0.008593561127781868,-0.011691709980368614,0.33985215425491333,-0.13813577592372894,-0.034776169806718826,0.0077124787494540215,0.9897725582122803,-0.008037330582737923,0.0041890498250722885,0.0018508417997509241,-0.061721839010715485,-0.017625991255044937,-0.00429164245724678,-0.15369324386119843,0.11776552349328995,-0.12141641974449158,0.16950911283493042,0.8732418417930603,0.7632144093513489,0.9106319546699524,0.8542728424072266,-1.6168053150177002,-1.5966261625289917,-1.4314414262771606,-1.4924064874649048,-0.003475665580481291,-0.0069982982240617275,0.037368059158325195,0.030745459720492363,-0.002638542791828513,-0.02314966358244419,-0.08712328970432281,-0.0025907454546540976,-0.003553821472451091,-0.03029610961675644,0.09418386965990067,0.03589341789484024,-0.12804633378982544,-0.15343661606311798,0.026622049510478973,-0.21146196126937866,0.03308175131678581,0.018092751502990723,0.28786879777908325,-0.04263387620449066,0.035669632256031036,0.2081620991230011,0.13350914418697357,0.031001605093479156,-0.004786658100783825,-0.01371208019554615,0.008656238205730915,-0.06012453883886337,-0.010783244855701923,-0.003266421379521489,-0.014159384183585644,-0.014882126823067665,7.591350004076958e-05,-0.06904670596122742,0.0352996326982975,-0.01140860840678215,-0.008832994848489761,-0.028232794255018234,-0.004584004171192646,-0.09560003876686096,-0.03460932523012161,-0.007463131565600634,0.006390436086803675,-0.024336135014891624,-0.008518621325492859,-0.08265997469425201,-0.057586658746004105,7.76993329054676e-05
-0.008661322295665741,-0.01165679469704628,0.3398680090904236,-0.13835327327251434,-0.03491740673780441,0.0077705360017716885,0.9897366762161255,-0.00431622751057148,0.002689182758331299,-0.0001509471912868321,-0.0377437025308609,-0.01079689059406519,-0.002634915756061673,-0.15372221171855927,0.11770746111869812,-0.1211053878068924,0.16976529359817505,0.8732194900512695,0.7630218863487244,0.9099052548408508,0.8542520999908447,-1.6168347597122192,-1.596879005432129,-1.4306560754776,-1.492107629776001,-0.0028622429817914963,-0.007174526806920767,0.021447032690048218,0.01736707240343094,0.006419611629098654,-0.001998921623453498,-0.036569591611623764,0.014332639053463936,0.004468103405088186,-0.011986291967332363,0.053616564720869064,0.003825519699603319,-0.12797273695468903,-0.15347790718078613,0.02661711722612381,-0.2115534096956253,0.03299468010663986,0.018082939088344574,0.2878546416759491,-0.042602721601724625,0.035662464797496796,0.20819243788719177,0.1335371434688568,0.031024791300296783,0.000901074439752847,-0.006995369680225849,0.003402144880965352,-0.031938426196575165,-0.020367125049233437,-0.0038366192020475864,-0.003825391409918666,-0.007010334637016058,-0.0019248641328886151,-0.0345403254032135,0.004517543129622936,-0.00414042454212904,-0.000619012163951993,-0.015629800036549568,-0.0024103932082653046,-0.053545381873846054,-0.03296617418527603,-0.005701552610844374,0.005830544978380203,-0.013326266780495644,-0.0035336294677108526,-0.049730487167835236,-0.03275483474135399,-0.0002897596568800509
-0.008697068318724632,-0.011633913032710552,0.3398667871952057,-0.13849663734436035,-0.03496253862977028,0.00783070269972086,0.9897146224975586,-0.0007786540081724524,0.0011254389537498355,-0.0024116020649671555,-0.025908704847097397,-0.007419688627123833,-0.0018107283394783735,-0.15374645590782166,0.11764724552631378,-0.1209261566400528,0.16991029679775238,0.8732726573944092,0.7630049586296082,0.9096001386642456,0.8543711304664612,-1.616797924041748,-1.5969780683517456,-1.4302089214324951,-1.492075800895691,-0.005803963635116816,-0.009447181597352028,0.010290340520441532,0.0036017457023262978,0.020837323740124702,0.01187769416719675,0.0019211028702557087,0.03934093192219734,0.014020378701388836,-0.0014023929834365845,0.037860821932554245,-0.03417796269059181,-0.12791621685028076,-0.15351223945617676,0.026615723967552185,-0.21159332990646362,0.032936226576566696,0.018072545528411865,0.28786444664001465,-0.04258274659514427,0.03564091771841049,0.20820149779319763,0.13355262577533722,0.03102729469537735,0.0088087422773242,-0.0024220184423029423,-0.0010040045017376542,-0.010536125861108303,-0.03897727653384209,-0.0058785793371498585,0.004000183194875717,-0.0029946332797408104,-0.004265329800546169,-0.014088601805269718,-0.014820007607340813,0.0003109628160018474,0.009694953449070454,-0.007847278378903866,-0.002102236496284604,-0.024631885811686516,-0.04824584349989891,-0.006292611360549927,0.00752995815128088,-0.005540146492421627,0.0012854619417339563,-0.028033554553985596,-0.013296769000589848,-0.0010532370069995522
-0.008703924715518951,-0.011625103652477264,0.3398466408252716,-0.1385658234357834,-0.03491488844156265,0.007903887890279293,0.9897059202194214,0.0008650253876112401,-0.0012665288522839546,-0.004278973210602999,-0.031972918659448624,-0.009161279536783695,-0.0022307459730654955,-0.15379483997821808,0.11756915599107742,-0.12084095925092697,0.1699398159980774,0.873446524143219,0.7631043791770935,0.9096167087554932,0.8546998500823975,-1.6166805028915405,-1.5969901084899902,-1.4298938512802124,-1.4923609495162964,-0.009853396564722061,-0.009677502326667309,-0.011477802880108356,-0.01385718584060669,0.02935367450118065,0.01635873131453991,0.0431850366294384,0.0561443492770195,0.016882002353668213,-0.0015593944117426872,0.01456613652408123,-0.06985042244195938,-0.12786434590816498,-0.15353523194789886,0.026615992188453674,-0.21161048114299774,0.03289616107940674,0.01806694269180298,0.2879083752632141,-0.04258960485458374,0.03558143228292465,0.20820076763629913,0.13355351984500885,0.031016208231449127,0.013441290706396103,-0.004598237108439207,-0.002497171051800251,-0.009510349482297897,-0.05042524263262749,-0.007479088380932808,0.007450248580425978,-0.006794372573494911,-0.006678514648228884,-0.018791401758790016,-0.020622193813323975,0.0005205133347772062,0.01817218028008938,-0.0035440106876194477,0.0009090958628803492,-0.004774713888764381,-0.06116971746087074,-0.006954857148230076,0.006729931570589542,-0.0038249087519943714,0.004422137979418039,-0.022214043885469437,0.007621468510478735,-0.0039575370028615
-0.00869673676788807,-0.01163528673350811,0.33981049060821533,-0.13855110108852386,-0.03480716049671173,0.007989992387592793,0.9897112250328064,0.002897065132856369,-0.003052439773455262,-0.0055109839886426926,-0.0477917417883873,-0.01369239017367363,-0.0033225591760128736,-0.15387634932994843,0.11748805642127991,-0.12093625962734222,0.16982406377792358,0.8736922144889832,0.7632402777671814,0.9099773168563843,0.8551676869392395,-1.6165399551391602,-1.59700345993042,-1.4297720193862915,-1.4929436445236206,-0.0146992402151227,-0.010281925089657307,-0.03561532497406006,-0.032209593802690506,0.04571413993835449,0.035806041210889816,0.10214820504188538,0.08370963484048843,0.012016399763524532,0.00695221358910203,-0.033005304634571075,-0.11533897370100021,-0.12783768773078918,-0.15355125069618225,0.026616930961608887,-0.2116328775882721,0.0328642912209034,0.01806793361902237,0.28797900676727295,-0.04260554537177086,0.0355076938867569,0.20817777514457703,0.13353712856769562,0.031004786491394043,0.020173639059066772,-0.00873720645904541,-0.001026674173772335,-0.017449388280510902,-0.06455840915441513,-0.009715648368000984,0.01778007298707962,-0.011445017531514168,-0.010565582662820816,-0.02666386403143406,-0.05166368931531906,0.0034434653352946043,0.028563998639583588,-0.0011150799691677094,0.009253136813640594,0.0057489266619086266,-0.06995043158531189,-0.007520243059843779,0.008592560887336731,-0.003605244681239128,0.009101378731429577,-0.025048915296792984,0.025099538266658783,-0.007300416007637978
-0.008672542870044708,-0.011661469005048275,0.3397642970085144,-0.13846823573112488,-0.03463944420218468,0.008080086670815945,0.9897279143333435,0.00460896547883749,-0.00482580903917551,-0.007263146340847015,-0.06458974629640579,-0.01849321275949478,-0.004466193728148937,-0.15399961173534393,0.11740215867757797,-0.12123344093561172,0.16955558955669403,0.8740735054016113,0.7635387182235718,0.9108288884162903,0.8558664917945862,-1.616439700126648,-1.59694504737854,-1.4300475120544434,-1.4939055442810059,-0.01660868711769581,-0.00866398774087429,-0.0557989701628685,-0.04543105140328407,0.05628475546836853,0.048045121133327484,0.15304504334926605,0.09745371341705322,0.01357890386134386,0.00966117437928915,-0.07665541023015976,-0.13910800218582153,-0.1278219223022461,-0.15355265140533447,0.026632867753505707,-0.2116127461194992,0.03285422921180725,0.01807299256324768,0.2880849838256836,-0.04260760545730591,0.03545422852039337,0.20814207196235657,0.1335272341966629,0.031015418469905853,0.026262996718287468,-0.01406211219727993,-0.0008765892125666142,-0.029015256091952324,-0.08038070052862167,-0.01228747982531786,0.025121459737420082,-0.017736021429300308,-0.014408143237233162,-0.04108152538537979,-0.07117432355880737,0.004317030310630798,0.03733152523636818,-0.0006302924593910575,0.016420990228652954,0.010331347584724426,-0.07613831758499146,-0.008039729669690132,0.010514764115214348,-0.005980684421956539,0.009820290841162205,-0.031742557883262634,0.03341669589281082,-0.009514431469142437
-0.008633367717266083,-0.011701670475304127,0.33970412611961365,-0.13832037150859833,-0.03442147374153137,0.008173227310180664,0.989755392074585,0.006154275964945555,-0.006572732701897621,-0.008595705032348633,-0.08536819368600845,-0.024414490908384323,-0.005861968733370304,-0.1541377604007721,0.11733008176088333,-0.12169913202524185,0.1691768616437912,0.8745424151420593,0.7639400959014893,0.9121062159538269,0.8566785454750061,-1.6163257360458374,-1.5968642234802246,-1.4306869506835938,-1.4950659275054932,-0.017079612240195274,-0.008966663852334023,-0.06948789209127426,-0.059710897505283356,0.061929404735565186,0.05905383080244064,0.186701700091362,0.10235680639743805,0.021326230838894844,0.01717785932123661,-0.09556636214256287,-0.1550631821155548,-0.12781527638435364,-0.15354496240615845,0.026649370789527893,-0.21156910061836243,0.03285684809088707,0.018080338835716248,0.2882192134857178,-0.04260396957397461,0.03541630506515503,0.2080981433391571,0.13350923359394073,0.031020812690258026,0.03218263387680054,-0.02096838504076004,-0.0008044173009693623,-0.04560338333249092,-0.09892303496599197,-0.0153725016862154,0.032879896461963654,-0.024642055854201317,-0.018853461369872093,-0.0567074790596962,-0.09469541907310486,0.005575931631028652,0.046109531074762344,-0.003264286322519183,0.021174045279622078,0.006792934611439705,-0.09241047501564026,-0.00999537669122219,0.011355139315128326,-0.00987220462411642,0.009308721870183945,-0.04165499284863472,0.041868243366479874,-0.012115714140236378
-0.00858226977288723,-0.011756086722016335,0.33963292837142944,-0.13810791075229645,-0.034136902540922165,0.008272457867860794,0.989794135093689,0.006677635014057159,-0.01007880549877882,-0.00975805427879095,-0.10686538368463516,-0.030512087047100067,-0.007271807640790939,-0.15428051352500916,0.11725557595491409,-0.12227846682071686,0.1686783879995346,0.875058650970459,0.764432430267334,0.9136631488800049,0.8575322031974792,-1.6161487102508545,-1.5967211723327637,-1.4314838647842407,-1.4963592290878296,-0.023183325305581093,-0.013073012232780457,-0.10549785196781158,-0.0884971022605896,0.0697280615568161,0.06832996755838394,0.2403167188167572,0.11160379648208618,0.02090907096862793,0.016710108146071434,-0.12741099298000336,-0.17612703144550323,-0.12783315777778625,-0.15353478491306305,0.026667214930057526,-0.2115141749382019,0.03287310525774956,0.018093779683113098,0.2883678078651428,-0.04261421784758568,0.03536027669906616,0.2080228626728058,0.13347770273685455,0.031004704535007477,0.03602872043848038,-0.02855324186384678,0.0003534792922437191,-0.05921244993805885,-0.11038930714130402,-0.01734076254069805,0.03761902451515198,-0.032711878418922424,-0.021852504462003708,-0.0719742476940155,-0.10808425396680832,0.0056851948611438274,0.05567003786563873,-0.00016874587163329124,0.027607779949903488,0.025898482650518417,-0.10947782546281815,-0.011229394935071468,0.01028982549905777,-0.010987544432282448,0.01020920928567648,-0.03854786604642868,0.05482977256178856,-0.013940460048615932
-0.008526228368282318,-0.011839654296636581,0.33955079317092896,-0.13778994977474213,-0.03382251411676407,0.008383807726204395,0.989848256111145,0.006766028236597776,-0.014432664029300213,-0.010442577302455902,-0.13138504326343536,-0.03742057830095291,-0.008850072510540485,-0.15447339415550232,0.11714585870504379,-0.12315887212753296,0.1679408997297287,0.8756403923034668,0.7650023102760315,0.9156668782234192,0.8584629893302917,-1.6159741878509521,-1.5965819358825684,-1.4325467348098755,-1.4978275299072266,-0.029616275802254677,-0.018643004819750786,-0.1385190188884735,-0.12301961332559586,0.07304618507623672,0.07255242764949799,0.26919427514076233,0.09555181115865707,0.024057462811470032,0.01830141432583332,-0.11938611418008804,-0.17860937118530273,-0.12787966430187225,-0.15351638197898865,0.02668432891368866,-0.21144357323646545,0.03291225805878639,0.018109403550624847,0.2885582149028778,-0.04261290654540062,0.0353206992149353,0.20793671905994415,0.13343960046768188,0.030994564294815063,0.03893478959798813,-0.03792146220803261,0.0016484064981341362,-0.07580789923667908,-0.12172429263591766,-0.01935272477567196,0.040932536125183105,-0.04248183220624924,-0.024955542758107185,-0.08966588973999023,-0.11903945356607437,0.0052868155762553215,0.06509119272232056,0.0006628853734582663,0.029333019629120827,0.043303120881319046,-0.14269748330116272,-0.014400584623217583,0.004450626205652952,-0.013955686241388321,0.008080138824880123,-0.03464793786406517,0.07487374544143677,-0.01686907559633255
-0.008470132946968079,-0.01196012832224369,0.3394637107849121,-0.13734611868858337,-0.033496055752038956,0.008515053428709507,0.9899199604988098,0.007256852462887764,-0.017667708918452263,-0.010667732916772366,-0.15257145464420319,-0.043305784463882446,-0.010167605243623257,-0.1547202467918396,0.11699017882347107,-0.12431412935256958,0.1669149547815323,0.8762498497962952,0.765607476234436,0.9179123640060425,0.8592593669891357,-1.6157732009887695,-1.596429705619812,-1.4335423707962036,-1.4993171691894531,-0.03521694615483284,-0.02348455972969532,-0.16736027598381042,-0.14994364976882935,0.07288820296525955,0.07824521511793137,0.2935933768749237,0.08587408810853958,0.02239634282886982,0.018313603475689888,-0.12805481255054474,-0.183480367064476,-0.1279599666595459,-0.1534954160451889,0.02669794112443924,-0.21135881543159485,0.032972026616334915,0.018122851848602295,0.288796991109848,-0.04262670874595642,0.03526873141527176,0.20781353116035461,0.13337531685829163,0.030976250767707825,0.04031582921743393,-0.0459941029548645,0.0035885917022824287,-0.09220721572637558,-0.12440256029367447,-0.020109711214900017,0.04456150159239769,-0.05026336759328842,-0.027048232033848763,-0.1047770082950592,-0.1290869116783142,0.005077698267996311,0.0706147626042366,0.0009405501186847687,0.03260164335370064,0.054081037640571594,-0.15589836239814758,-0.015656404197216034,0.0008379612118005753,-0.016576027497649193,0.007056930102407932,-0.03362559527158737,0.09003324061632156,-0.019260412082076073
-0.0084100142121315,-0.012107517570257187,0.3393746018409729,-0.13680265843868256,-0.033154696226119995,0.008657274767756462,0.9900054931640625,0.00781186344102025,-0.019941411912441254,-0.010929345153272152,-0.16862915456295013,-0.047662295401096344,-0.011110818013548851,-0.15501408278942108,0.11679462343454361,-0.1257099062204361,0.16566415131092072,0.876857578754425,0.766260027885437,0.920360267162323,0.8599755167961121,-1.6155866384506226,-1.596276879310608,-1.434610366821289,-1.500847578048706,-0.04016567021608353,-0.02683037333190441,-0.19721226394176483,-0.17307446897029877,0.07578073441982269,0.07889799773693085,0.32672184705734253,0.07566710561513901,0.019132155925035477,0.017240680754184723,-0.15248093008995056,-0.1869632601737976,-0.12807875871658325,-0.15347039699554443,0.02671443670988083,-0.21125873923301697,0.033055149018764496,0.018140949308872223,0.28905314207077026,-0.042648397386074066,0.035216815769672394,0.20766523480415344,0.13329587876796722,0.03095640242099762,0.04201129823923111,-0.05162839591503143,0.005302303936332464,-0.10371148586273193,-0.12712857127189636,-0.02073066122829914,0.04628125950694084,-0.05640486255288124,-0.028616521507501602,-0.11781508475542068,-0.13218437135219574,0.004266493953764439,0.07544561475515366,0.003790340619161725,0.03739531338214874,0.06897884607315063,-0.160676047205925,-0.015895098447799683,-0.0027585155330598354,-0.01778382621705532,0.006127603817731142,-0.030836116522550583,0.10481692850589752,-0.02134690247476101
-0.008344907313585281,-0.012273883447051048,0.33928361535072327,-0.1361844539642334,-0.032804276794195175,0.008807460777461529,0.9901010394096375,0.008248419500887394,-0.021820059046149254,-0.010608167387545109,-0.18075069785118103,-0.05084330588579178,-0.011769699864089489,-0.1553497165441513,0.11657054722309113,-0.12735429406166077,0.16422036290168762,0.8774895668029785,0.7669180631637573,0.9230847954750061,0.8606064319610596,-1.615427017211914,-1.596132755279541,-1.4358819723129272,-1.5024065971374512,-0.04347892105579376,-0.03386692702770233,-0.2070266306400299,-0.1869109570980072,0.07250338047742844,0.07603026181459427,0.3316284716129303,0.07090330123901367,0.0222775936126709,0.02444797195494175,-0.14295291900634766,-0.18581831455230713,-0.12821902334690094,-0.15343771874904633,0.026734858751296997,-0.2111532837152481,0.03315437585115433,0.018162451684474945,0.2893306612968445,-0.04265347495675087,0.035186439752578735,0.2074929177761078,0.1332121342420578,0.03093591332435608,0.042656563222408295,-0.05624019354581833,0.006180030759423971,-0.11279237270355225,-0.1293695569038391,-0.021211080253124237,0.047447171062231064,-0.059987641870975494,-0.03024931624531746,-0.12214536219835281,-0.13767050206661224,0.004640479572117329,0.07920821011066437,0.0019189468584954739,0.038111522793769836,0.07012580335140228,-0.17527484893798828,-0.017790336161851883,-0.0035848082043230534,-0.019610874354839325,0.00556454062461853,-0.03041655570268631,0.10865592956542969,-0.02180999331176281
-0.008275892585515976,-0.012456391006708145,0.3391956090927124,-0.13551349937915802,-0.03244253620505333,0.008962694555521011,0.9902036190032959,0.008011198602616787,-0.024708494544029236,-0.01013681385666132,-0.19559451937675476,-0.05473118647933006,-0.012580238282680511,-0.15571175515651703,0.11628878861665726,-0.12908132374286652,0.1626615971326828,0.8780943751335144,0.767551839351654,0.925851047039032,0.8611981868743896,-1.6152414083480835,-1.5959290266036987,-1.4370741844177246,-1.5039559602737427,-0.048983048647642136,-0.03776555880904198,-0.2350497841835022,-0.21372580528259277,0.06756621599197388,0.07132159173488617,0.33442360162734985,0.04432496428489685,0.019252223894000053,0.0214608795940876,-0.1321006566286087,-0.17386388778686523,-0.12838199734687805,-0.15340417623519897,0.02675630897283554,-0.21104779839515686,0.033272117376327515,0.01818450540304184,0.289622962474823,-0.04267769306898117,0.035145409405231476,0.20731477439403534,0.13311858475208282,0.030914582312107086,0.04123128205537796,-0.06254591792821884,0.00812113843858242,-0.12464800477027893,-0.12428182363510132,-0.020709151402115822,0.04635324701666832,-0.0666811391711235,-0.030703548341989517,-0.13533487915992737,-0.1332339197397232,0.00294133392162621,0.08061839640140533,0.003744003362953663,0.03784925118088722,0.08579352498054504,-0.1849854290485382,-0.01870840974152088,-0.010461774654686451,-0.02095804177224636,0.0030047891195863485,-0.023000841960310936,0.12567675113677979,-0.023691251873970032
-0.008208880200982094,-0.012661980465054512,0.33911070227622986,-0.1347574144601822,-0.03211307153105736,0.009125928394496441,0.9903160333633423,0.007771140895783901,-0.027761345729231834,-0.009283212013542652,-0.21176962554454803,-0.05890742689371109,-0.013465393334627151,-0.15612094104290009,0.11597312241792679,-0.13104084134101868,0.16087964177131653,0.8786576986312866,0.7681466341018677,0.9286397695541382,0.8615674376487732,-1.6150808334350586,-1.595750331878662,-1.4381754398345947,-1.5054054260253906,-0.055397093296051025,-0.0409814827144146,-0.26370373368263245,-0.2394935041666031,0.06038372963666916,0.06712760776281357,0.3324988782405853,0.00935363583266735,0.014316682703793049,0.017399094998836517,-0.11458457261323929,-0.15566182136535645,-0.1285688430070877,-0.1533641666173935,0.026771970093250275,-0.21093229949474335,0.03340724855661392,0.018201060593128204,0.28993314504623413,-0.04269881919026375,0.03510814160108566,0.20711417496204376,0.13301655650138855,0.030896790325641632,0.03888659551739693,-0.06943168491125107,0.010696053504943848,-0.13807928562164307,-0.11529815942049026,-0.019694790244102478,0.0453970693051815,-0.07412339746952057,-0.030785037204623222,-0.15064741671085358,-0.12874872982501984,0.0010436652228236198,0.0818978101015091,0.005209723021835089,0.037093766033649445,0.1012309119105339,-0.19680070877075195,-0.019976889714598656,-0.01846959814429283,-0.023773666471242905,-0.0004550614394247532,-0.018381386995315552,0.14408378303050995,-0.026066362857818604
-0.008143780753016472,-0.012893352657556534,0.3390337824821472,-0.13391004502773285,-0.03182747960090637,0.009295995347201824,0.9904386401176453,0.00815613940358162,-0.029093312099575996,-0.008103316649794579,-0.21970951557159424,-0.06071031838655472,-0.013828849419951439,-0.15658268332481384,0.11563162505626678,-0.1332404613494873,0.15888242423534393,0.879160463809967,0.7687059640884399,0.9314121603965759,0.8616448044776917,-1.6149615049362183,-1.5956050157546997,-1.4391305446624756,-1.5067036151885986,-0.05818819999694824,-0.042767055332660675,-0.27768436074256897,-0.2516324818134308,0.05004372447729111,0.059697870165109634,0.32191771268844604,-0.015282721258699894,0.0100737689062953,0.013255958445370197,-0.10333210229873657,-0.1382037103176117,-0.12878215312957764,-0.15331807732582092,0.026784583926200867,-0.21079802513122559,0.033559057861566544,0.01821330189704895,0.2902660369873047,-0.04271911084651947,0.035077840089797974,0.20688971877098083,0.13289561867713928,0.030883803963661194,0.03601636737585068,-0.07338046282529831,0.012702658772468567,-0.14739516377449036,-0.10257571935653687,-0.01805984601378441,0.04347945749759674,-0.07802741974592209,-0.029786912724375725,-0.15993493795394897,-0.11911260336637497,-0.0008884428534656763,0.080632783472538,0.005394205916672945,0.03650667890906334,0.10669621080160141,-0.19601576030254364,-0.020151471719145775,-0.022518035024404526,-0.025545310229063034,-0.0027292845770716667,-0.016131065785884857,0.15203803777694702,-0.026903852820396423
-0.008075695484876633,-0.013136446475982666,0.33896583318710327,-0.13301648199558258,-0.03157521039247513,0.009462867863476276,0.9905655384063721,0.008428683504462242,-0.028670523315668106,-0.007312547415494919,-0.2156076580286026,-0.05915779992938042,-0.013447143137454987,-0.15706795454025269,0.11527545005083084,-0.13555577397346497,0.1567838191986084,0.8795778155326843,0.7692033648490906,0.9340963363647461,0.8615179061889648,-1.6148769855499268,-1.5954947471618652,-1.439992070198059,-1.5078561305999756,-0.05765845254063606,-0.04219580069184303,-0.2756880223751068,-0.252549409866333,0.04342564567923546,0.04739866778254509,0.2980872392654419,-0.039473436772823334,0.006644963286817074,0.007743352092802525,-0.09055063873529434,-0.11622899770736694,-0.1290152221918106,-0.15326817333698273,0.026795625686645508,-0.2106587290763855,0.033722106367349625,0.018227197229862213,0.2906014025211334,-0.04274057224392891,0.035054512321949005,0.20666056871414185,0.13276658952236176,0.030874773859977722,0.03354277461767197,-0.07260555028915405,0.013254620134830475,-0.14659209549427032,-0.09170541912317276,-0.016458122059702873,0.03894825279712677,-0.07762446254491806,-0.027912212535738945,-0.1609998643398285,-0.10077527910470963,-0.0030981553718447685,0.07592304795980453,0.005300932563841343,0.033885303884744644,0.10566603392362595,-0.18495234847068787,-0.019298885017633438,-0.025886662304401398,-0.02504461072385311,-0.005248995032161474,-0.011352709494531155,0.15561705827713013,-0.026718728244304657
-0.008005745708942413,-0.013375593349337578,0.3389051556587219,-0.13212692737579346,-0.03137189894914627,0.009616703726351261,0.9906895756721497,0.007777963299304247,-0.028668593615293503,-0.005177992396056652,-0.21286924183368683,-0.057995300740003586,-0.013176929205656052,-0.15754884481430054,0.11492343246936798,-0.13785505294799805,0.15467818081378937,0.8799404501914978,0.7695990800857544,0.9365816712379456,0.8611885905265808,-1.6148216724395752,-1.5954304933547974,-1.440746784210205,-1.508825659751892,-0.055203184485435486,-0.040801648050546646,-0.2679796516895294,-0.24776290357112885,0.02736881747841835,0.037614788860082626,0.2584683299064636,-0.06536193192005157,0.0026424522511661053,0.0031978304032236338,-0.05456702411174774,-0.09611298888921738,-0.12923464179039001,-0.15321040153503418,0.02679925411939621,-0.21052297949790955,0.033889107406139374,0.018236584961414337,0.29093000292778015,-0.042758721858263016,0.03504152595996857,0.2064344882965088,0.13264523446559906,0.030869312584400177,0.027640001848340034,-0.0739521011710167,0.015117062255740166,-0.151655912399292,-0.07216006517410278,-0.013773893937468529,0.034557659178972244,-0.07807061076164246,-0.024995531886816025,-0.1632857620716095,-0.08635902404785156,-0.004965846426784992,0.07038450241088867,0.002878286875784397,0.02960710972547531,0.0997910276055336,-0.18285775184631348,-0.019637204706668854,-0.030396196991205215,-0.027327459305524826,-0.006624242756515741,-0.014307216741144657,0.1606961190700531,-0.02759205736219883
-0.007940901443362236,-0.013613995164632797,0.33886149525642395,-0.13123862445354462,-0.031212378293275833,0.009756617248058319,0.9908113479614258,0.006537525914609432,-0.029971374198794365,-0.0030470238998532295,-0.217474564909935,-0.058831263333559036,-0.013381138443946838,-0.1580086201429367,0.11458329856395721,-0.1400902420282364,0.1526111513376236,0.8801687359809875,0.7699129581451416,0.9387367963790894,0.860643208026886,-1.6147998571395874,-1.5954030752182007,-1.44120192527771,-1.5096261501312256,-0.057857636362314224,-0.040174540132284164,-0.2837328016757965,-0.26355135440826416,0.01607097126543522,0.023550573736429214,0.23256485164165497,-0.10745641589164734,-0.0051194773986935616,-0.0009807002497836947,-0.035391002893447876,-0.05407179519534111,-0.12947311997413635,-0.15315809845924377,0.02680487185716629,-0.2103930115699768,0.03405759483575821,0.018251873552799225,0.29124152660369873,-0.042790915817022324,0.035019636154174805,0.20619972050189972,0.1325124204158783,0.030874207615852356,0.022058457136154175,-0.07716141641139984,0.018150759860873222,-0.15880565345287323,-0.054208919405937195,-0.011372595094144344,0.02898828685283661,-0.08212544023990631,-0.022890528663992882,-0.17311091721057892,-0.06997527182102203,-0.007807034067809582,0.06400129199028015,0.004149150103330612,0.0274252537637949,0.10836178809404373,-0.17365562915802002,-0.018657110631465912,-0.0375017486512661,-0.027713853865861893,-0.011224383488297462,-0.0033560439478605986,0.16371721029281616,-0.026652608066797256
-0.007886068895459175,-0.013864334672689438,0.3388367295265198,-0.1303185671567917,-0.031132908537983894,0.009887483902275562,0.990933895111084,0.0054101888090372086,-0.0309695266187191,-0.0014638628344982862,-0.22137130796909332,-0.05944511666893959,-0.013575848191976547,-0.15849100053310394,0.11424808204174042,-0.14245589077472687,0.1504134088754654,0.8803021311759949,0.7701085805892944,0.9406762719154358,0.8597463369369507,-1.6148427724838257,-1.5954115390777588,-1.4414968490600586,-1.5100772380828857,-0.057972900569438934,-0.0401938259601593,-0.2896064221858978,-0.2705245018005371,0.0005491425981745124,0.014501102268695831,0.20440301299095154,-0.14385166764259338,-0.010673251003026962,-0.0037018507719039917,-0.004156023263931274,-0.017938485369086266,-0.12971895933151245,-0.15310122072696686,0.02680818736553192,-0.2102579027414322,0.03422827646136284,0.01826004683971405,0.29154449701309204,-0.04280797019600868,0.03502342849969864,0.20596067607402802,0.13238690793514252,0.030886083841323853,0.015865791589021683,-0.08075830340385437,0.020248590037226677,-0.16815845668315887,-0.03476247936487198,-0.00883080717176199,0.02507133036851883,-0.08504452556371689,-0.021391691640019417,-0.17993538081645966,-0.05938754975795746,-0.009673639200627804,0.060017962008714676,0.003488335758447647,0.0239194855093956,0.11073707789182663,-0.17624248564243317,-0.019329681992530823,-0.04319501668214798,-0.029905587434768677,-0.015660785138607025,-0.000217384091229178,0.1648114174604416,-0.0262058787047863
-0.00784127227962017,-0.014122618362307549,0.338824063539505,-0.12937577068805695,-0.03112861141562462,0.010007347911596298,0.9910563826560974,0.0041224295273423195,-0.03149867057800293,0.0003367941244505346,-0.2225162237882614,-0.05930017679929733,-0.01363606657832861,-0.15897518396377563,0.1139129102230072,-0.14487098157405853,0.1481575071811676,0.8803061842918396,0.7702298164367676,0.9423807859420776,0.8585473895072937,-1.614931583404541,-1.595442295074463,-1.4415315389633179,-1.510226845741272,-0.05727171525359154,-0.03982039541006088,-0.2919001877307892,-0.27255505323410034,-0.010068257339298725,0.004762877244502306,0.17809881269931793,-0.1669648438692093,-0.01487182267010212,-0.007882911711931229,0.014723478816449642,0.007273364346474409,-0.12997809052467346,-0.15304477512836456,0.026800721883773804,-0.2101077288389206,0.03440714627504349,0.01825518161058426,0.29185593128204346,-0.04281994327902794,0.035037361085414886,0.2057238519191742,0.13225848972797394,0.030901513993740082,0.010955984704196453,-0.08284622430801392,0.02232711762189865,-0.17382612824440002,-0.020735088735818863,-0.006997763644903898,0.020357150584459305,-0.08684446662664413,-0.0192070621997118,-0.1848762035369873,-0.046072687953710556,-0.011722582392394543,0.054256223142147064,0.002471732906997204,0.021819453686475754,0.10964613407850266,-0.16896900534629822,-0.01883724145591259,-0.04692353308200836,-0.03138391301035881,-0.01788295805454254,0.0014982119901105762,0.16310831904411316,-0.025452669709920883
-0.0078073590993881226,-0.014385821297764778,0.3388272225856781,-0.1284290999174118,-0.03115847334265709,0.01011720485985279,0.991177499294281,0.003399832174181938,-0.03168036788702011,0.0012288587167859077,-0.222744882106781,-0.058907125145196915,-0.013656490482389927,-0.15945224463939667,0.11358096450567245,-0.14730523526668549,0.14588533341884613,0.8802228569984436,0.7702693939208984,0.9438663721084595,0.8571539521217346,-1.6150562763214111,-1.5955086946487427,-1.4414092302322388,-1.510165810585022,-0.05565233156085014,-0.03815505653619766,-0.2895682156085968,-0.27535882592201233,-0.01730908639729023,-0.0033775540068745613,0.15964007377624512,-0.1852351725101471,-0.0179278701543808,-0.008800050243735313,0.031492188572883606,0.028740663081407547,-0.13025760650634766,-0.15299347043037415,0.026798777282238007,-0.20997484028339386,0.03458358347415924,0.018258564174175262,0.29213976860046387,-0.042831551283597946,0.035053715109825134,0.20547686517238617,0.13212794065475464,0.03091929852962494,0.007739594671875238,-0.08425767719745636,0.023431120440363884,-0.17823189496994019,-0.011000786907970905,-0.005756982136517763,0.01719304546713829,-0.08821094036102295,-0.018367622047662735,-0.1889064460992813,-0.037488196045160294,-0.013115614652633667,0.05132506787776947,0.0011170124635100365,0.01985097862780094,0.10652898252010345,-0.16812774538993835,-0.019211065024137497,-0.049489982426166534,-0.031644854694604874,-0.02021651342511177,0.005138615146279335,0.16078932583332062,-0.024408893659710884
-0.007778432220220566,-0.01464986614882946,0.33883729577064514,-0.12748168408870697,-0.031226160004734993,0.010216932743787766,0.9912965893745422,0.0030063919257372618,-0.031050048768520355,0.0017339761834591627,-0.22061432898044586,-0.05789443850517273,-0.01355011947453022,-0.1599167287349701,0.11326280981302261,-0.14971932768821716,0.14358830451965332,0.8800780177116394,0.770241379737854,0.9451972246170044,0.8556095957756042,-1.6152056455612183,-1.5955816507339478,-1.441145896911621,-1.5099260807037354,-0.051399778574705124,-0.03252669423818588,-0.2812111973762512,-0.2675427198410034,-0.021022839471697807,-0.008731750771403313,0.14361298084259033,-0.19754117727279663,-0.01976747438311577,-0.009040124714374542,0.042919959872961044,0.041747380048036575,-0.13053882122039795,-0.15294262766838074,0.02679237723350525,-0.20984205603599548,0.03475930541753769,0.018255233764648438,0.2924235761165619,-0.04284442588686943,0.03507525473833084,0.2052331566810608,0.13200683891773224,0.03093840926885605,0.006059469189494848,-0.08459348976612091,0.024021577090024948,-0.18155676126480103,-0.005838238634169102,-0.005156973376870155,0.015381098724901676,-0.08899945020675659,-0.01795397512614727,-0.1935303807258606,-0.03259706497192383,-0.014123678207397461,0.048765670508146286,-0.0006857262924313545,0.018271930515766144,0.0992031842470169,-0.16539514064788818,-0.01943187601864338,-0.050795115530490875,-0.033317774534225464,-0.021869219839572906,0.0002765304234344512,0.15876872837543488,-0.024279912933707237
-0.007753508165478706,-0.014908021315932274,0.3388514518737793,-0.12654432654380798,-0.03132136911153793,0.010301852598786354,0.9914128184318542,0.002460553077980876,-0.030805733054876328,0.0024366353172808886,-0.21842022240161896,-0.056879203766584396,-0.013452707789838314,-0.16034458577632904,0.11299102753400803,-0.152065247297287,0.14135779440402985,0.8799026608467102,0.7701684832572937,0.9463949799537659,0.8539625406265259,-1.6153701543807983,-1.5956568717956543,-1.4407880306243896,-1.509577751159668,-0.048997197300195694,-0.030611004680395126,-0.27788564562797546,-0.26726841926574707,-0.022519314661622047,-0.013038910925388336,0.13251949846744537,-0.2022990584373474,-0.021013978868722916,-0.00978611595928669,0.04617772251367569,0.05312667042016983,-0.13081257045269012,-0.15289050340652466,0.02678169310092926,-0.2097066044807434,0.034930519759655,0.018244817852973938,0.292704313993454,-0.04285971447825432,0.03510092943906784,0.20499324798583984,0.13188275694847107,0.030959032475948334,0.0048041329719126225,-0.08455537259578705,0.024707479402422905,-0.18229345977306366,-0.002877172315493226,-0.004820653237402439,0.013333169743418694,-0.08897853642702103,-0.017056798562407494,-0.19435910880565643,-0.02726253680884838,-0.014842423610389233,0.045630838721990585,-0.0014207828789949417,0.017753805965185165,0.0959785133600235,-0.1582529991865158,-0.01892109401524067,-0.050961874425411224,-0.03243069350719452,-0.022450322285294533,0.004163052886724472,0.15301558375358582,-0.022709108889102936
-0.0077327582985162735,-0.015165174379944801,0.33887168765068054,-0.12561792135238647,-0.03142349421977997,0.010380711406469345,0.9915265440940857,0.001164824585430324,-0.03073551505804062,0.0032555353827774525,-0.21698153018951416,-0.05607358738780022,-0.013404719531536102,-0.16075360774993896,0.11273594945669174,-0.1543816477060318,0.1391286998987198,0.879715621471405,0.7700594663619995,0.9474992752075195,0.8522753119468689,-1.6155457496643066,-1.595738410949707,-1.4404032230377197,-1.5091348886489868,-0.047740645706653595,-0.030115533620119095,-0.27672210335731506,-0.26518458127975464,-0.031384631991386414,-0.017271211370825768,0.11113516241312027,-0.21189124882221222,-0.023746537044644356,-0.011953978799283504,0.05824865773320198,0.07516544312238693,-0.13108640909194946,-0.15284250676631927,0.02677588164806366,-0.20958155393600464,0.035094596445560455,0.018238581717014313,0.29296642541885376,-0.04287818819284439,0.03512938320636749,0.20475533604621887,0.1317688524723053,0.030978955328464508,0.0004501805524341762,-0.08518525958061218,0.025439279153943062,-0.18493571877479553,0.00865321233868599,-0.0032991133630275726,0.010289231315255165,-0.08895228058099747,-0.01583782210946083,-0.194877490401268,-0.020476745441555977,-0.01571422815322876,0.040172215551137924,-0.0020448220893740654,0.015591414645314217,0.09373541921377182,-0.14934128522872925,-0.01810486800968647,-0.05122218653559685,-0.0326642245054245,-0.024552658200263977,0.006899307016283274,0.141020268201828,-0.02034744620323181
-0.007722925394773483,-0.015421399846673012,0.3388994634151459,-0.12470245361328125,-0.03156760707497597,0.01045181229710579,0.9916368126869202,0.0003597762843128294,-0.030871381983160973,0.0022539393976330757,-0.2142479568719864,-0.054947443306446075,-0.013294967822730541,-0.16115176677703857,0.11248474568128586,-0.15668931603431702,0.13691765069961548,0.8794531226158142,0.7699152827262878,0.9484263062477112,0.8505082726478577,-1.615743637084961,-1.595838189125061,-1.439917802810669,-1.508507490158081,-0.0470072403550148,-0.030100414529442787,-0.27196186780929565,-0.26248106360435486,-0.028463713824748993,-0.008153012953698635,0.1268821358680725,-0.19658391177654266,-0.023060420528054237,-0.010171021334826946,0.04962610453367233,0.06534244120121002,-0.1313658356666565,-0.15279774367809296,0.02676473557949066,-0.20945438742637634,0.035258565098047256,0.018226735293865204,0.2932107746601105,-0.042890265583992004,0.035166941583156586,0.20453917980194092,0.1316627711057663,0.03100302815437317,0.0003303636913187802,-0.08444400131702423,0.02418791875243187,-0.18187975883483887,0.0060793678276240826,-0.003680079011246562,0.012049239128828049,-0.087553970515728,-0.01673099957406521,-0.18950079381465912,-0.02987166866660118,-0.014062001369893551,0.042703595012426376,-0.002308719791471958,0.016847729682922363,0.09351372718811035,-0.15674611926078796,-0.019473528489470482,-0.04929954186081886,-0.0315970852971077,-0.023433534428477287,0.008645696565508842,0.13585329055786133,-0.019138125702738762
-0.007720280438661575,-0.01567927375435829,0.3389183282852173,-0.12379398196935654,-0.03167295455932617,0.010524452663958073,0.9917465448379517,-0.0013857063604518771,-0.029487816616892815,0.0016659436514601111,-0.2033633291721344,-0.051760636270046234,-0.012659411877393723,-0.16154371201992035,0.11223425716161728,-0.15895716845989227,0.1347290575504303,0.8792165517807007,0.7698478102684021,0.949484646320343,0.8488695025444031,-1.6159361600875854,-1.595922827720642,-1.4395034313201904,-1.5079628229141235,-0.04069162905216217,-0.022060438990592957,-0.2541065812110901,-0.24832387268543243,-0.020936544984579086,-0.005961916875094175,0.11996416747570038,-0.1858634501695633,-0.023936700075864792,-0.013320504687726498,0.05006382241845131,0.07164960354566574,-0.13166527450084686,-0.15275926887989044,0.026756420731544495,-0.20933417975902557,0.03541962057352066,0.018219374120235443,0.2934563159942627,-0.042912792414426804,0.035195380449295044,0.20431627333164215,0.13155704736709595,0.03101661056280136,0.00017040532839018852,-0.08116966485977173,0.02318655140697956,-0.1753181517124176,0.0012738992227241397,-0.004279489163309336,0.010069593787193298,-0.08514849096536636,-0.016143307089805603,-0.18657413125038147,-0.02778768539428711,-0.014036035165190697,0.03955831378698349,-0.0035480977967381477,0.015527395531535149,0.08531713485717773,-0.15224911272525787,-0.01939016953110695,-0.04659567400813103,-0.030008340254426003,-0.023774748668074608,0.010140019468963146,0.11886435747146606,-0.016263345256447792
-0.00773162767291069,-0.015924891456961632,0.3389315903186798,-0.12293274700641632,-0.03178927302360535,0.010580391623079777,0.9918493032455444,-0.0028112230356782675,-0.02691354788839817,0.002556497696787119,-0.1823500692844391,-0.04607661813497543,-0.011392047628760338,-0.16188329458236694,0.1120501458644867,-0.16107618808746338,0.1326584368944168,0.8790411949157715,0.7697979807853699,0.9504848718643188,0.8473193049430847,-1.616135835647583,-1.596034288406372,-1.4390864372253418,-1.5073657035827637,-0.028482699766755104,-0.012918215245008469,-0.22398057579994202,-0.21648894250392914,-0.026477530598640442,-0.018178997561335564,0.09500399976968765,-0.1762903928756714,-0.026682347059249878,-0.014744742773473263,0.05298890173435211,0.08330395072698593,-0.13193929195404053,-0.15272121131420135,0.026742123067378998,-0.20922043919563293,0.03556491434574127,0.01820516586303711,0.2936916649341583,-0.04293499141931534,0.03522719442844391,0.20411638915538788,0.1314675509929657,0.03102751076221466,-0.003935352433472872,-0.07643517851829529,0.022673213854432106,-0.1681072860956192,0.011868581175804138,-0.0026322852354496717,0.003776249475777149,-0.07982084900140762,-0.013487017713487148,-0.1775631606578827,-0.011245094239711761,-0.015226542949676514,0.031953562051057816,-0.005253346171230078,0.013414910063147545,0.0714908167719841,-0.13324765861034393,-0.01732465624809265,-0.04240095615386963,-0.029509693384170532,-0.023179100826382637,0.005550982430577278,0.09606331586837769,-0.013229846954345703
-0.00775575265288353,-0.016148973256349564,0.33895349502563477,-0.12216312438249588,-0.03191380575299263,0.0105946259573102,0.9919402599334717,-0.003383736126124859,-0.02204396016895771,0.0023263099137693644,-0.14828653633594513,-0.03722548112273216,-0.009301210753619671,-0.1621207892894745,0.1119425967335701,-0.16294372081756592,0.13085296750068665,0.8788212537765503,0.7696462869644165,0.9512764811515808,0.8458493947982788,-1.6163573265075684,-1.596157431602478,-1.438644289970398,-1.5066707134246826,-0.016665272414684296,-0.006097144912928343,-0.17182575166225433,-0.16444671154022217,-0.02134181186556816,-0.012133915908634663,0.06854458153247833,-0.13611257076263428,-0.02399175427854061,-0.005775040481239557,0.047718290239572525,0.06847096234560013,-0.1322072297334671,-0.15269435942173004,0.026731885969638824,-0.2091519981622696,0.03568878769874573,0.018199458718299866,0.29388347268104553,-0.042946700006723404,0.035261012613773346,0.20394064486026764,0.1313912570476532,0.031041622161865234,-0.00421201903373003,-0.06433717161417007,0.01934296451508999,-0.14344742894172668,0.010315190069377422,-0.0022775926627218723,0.003972318489104509,-0.06607877463102341,-0.0118337981402874,-0.14655309915542603,-0.01850844733417034,-0.011439858004450798,0.023927170783281326,-0.007978323847055435,0.010552897118031979,0.04702986031770706,-0.10698835551738739,-0.014379256404936314,-0.032401151955127716,-0.027073949575424194,-0.01882593333721161,-0.004709418397396803,0.06767045706510544,-0.010053609497845173
-0.00778377428650856,-0.016332941129803658,0.33897244930267334,-0.12153767049312592,-0.03201735392212868,0.010579900816082954,0.9920139312744141,-0.0033386729191988707,-0.01695917546749115,0.001868140185251832,-0.11473914980888367,-0.02865041233599186,-0.007221691310405731,-0.1622595191001892,0.11189202964305878,-0.16437646746635437,0.12948207557201385,0.8786429166793823,0.7695457339286804,0.9518484473228455,0.8447144031524658,-1.6165578365325928,-1.5962053537368774,-1.4382461309432983,-1.506100058555603,-0.00630754791200161,0.0003393978113308549,-0.1315484642982483,-0.12907622754573822,-0.01765759103000164,-0.010048340074717999,0.05388715863227844,-0.11938702315092087,-0.021614111959934235,-0.001851894543506205,0.024952823296189308,0.07797455787658691,-0.1324327290058136,-0.15267498791217804,0.026723496615886688,-0.20908761024475098,0.03579559922218323,0.018189646303653717,0.2940233647823334,-0.042970843613147736,0.03528334200382233,0.20381543040275574,0.13131976127624512,0.031060129404067993,-0.004363281186670065,-0.05187563598155975,0.015751363709568977,-0.11836928874254227,0.01056084968149662,-0.0016225206200033426,0.0029157905373722315,-0.05253724008798599,-0.009743920527398586,-0.11782359331846237,-0.017276229336857796,-0.008908388204872608,0.015952276065945625,-0.007196894846856594,0.00945545919239521,0.032208047807216644,-0.0724729597568512,-0.009837510995566845,-0.02575688622891903,-0.020773539319634438,-0.0180219653993845,0.0007380548631772399,0.04233449324965477,-0.0058709243312478065
-0.007811678573489189,-0.01647493802011013,0.338988333940506,-0.12105583399534225,-0.032101988792419434,0.010539336130023003,0.9920705556869507,-0.0029352912679314613,-0.012337005697190762,0.0012753125047311187,-0.08616448938846588,-0.02142646536231041,-0.005438993219286203,-0.16231225430965424,0.11189455538988113,-0.16547317802906036,0.12840555608272552,0.8784958720207214,0.7694615125656128,0.9522979259490967,0.8437190651893616,-1.6167383193969727,-1.5962209701538086,-1.4380382299423218,-1.5054497718811035,0.0033427563030272722,0.006786981597542763,-0.09282566606998444,-0.08982830494642258,-0.013002611696720123,-0.010556613095104694,0.03743313252925873,-0.09226780384778976,-0.018448276445269585,-0.0038229376077651978,0.01182346511632204,0.072994664311409,-0.13261432945728302,-0.15265996754169464,0.02671603113412857,-0.20903877913951874,0.0358835905790329,0.018180713057518005,0.2941112220287323,-0.04297904297709465,0.03531167656183243,0.2037128508090973,0.13128527998924255,0.03105580061674118,-0.0034408217761665583,-0.04105057194828987,0.01244704145938158,-0.09717302769422531,0.007956080138683319,-0.0014627758646383882,0.0009966904763132334,-0.0412478931248188,-0.007464342750608921,-0.09605477005243301,-0.009214695543050766,-0.00786582287400961,0.009811203926801682,-0.007493466604501009,0.007617420516908169,0.015923259779810905,-0.04632333666086197,-0.006464744918048382,-0.01746409200131893,-0.01725315861403942,-0.015810418874025345,-0.003568814368918538,0.018727924674749374,-0.002957221120595932
-0.007835637778043747,-0.016577735543251038,0.3389991819858551,-0.12069852650165558,-0.032171495258808136,0.010479824617505074,0.992112398147583,-0.002528517274186015,-0.007060718722641468,0.0008297833264805377,-0.055345386266708374,-0.013720312155783176,-0.0035022797528654337,-0.16228410601615906,0.11195092648267746,-0.1662469059228897,0.12765739858150482,0.8783876299858093,0.76937335729599,0.9526101350784302,0.8429499864578247,-1.6168919801712036,-1.596252202987671,-1.4379401206970215,-1.5048409700393677,0.012009510770440102,0.012063970789313316,-0.04397321864962578,-0.04259829595685005,-0.009721945971250534,-0.0069679152220487595,0.016815057024359703,-0.06082354485988617,-0.016102956607937813,-0.0012978934682905674,0.0027690990827977657,0.05318879336118698,-0.13274818658828735,-0.1526486575603485,0.026706896722316742,-0.20901015400886536,0.03595190495252609,0.018174804747104645,0.29416149854660034,-0.0429808609187603,0.035337239503860474,0.20365211367607117,0.1312662810087204,0.03104330599308014,-0.003234082367271185,-0.028756428509950638,0.009059712290763855,-0.07334346324205399,0.008187186904251575,-0.0008033602498471737,0.0007029485423117876,-0.027918756008148193,-0.005362098105251789,-0.06893327087163925,-0.008656780235469341,-0.00539778359234333,0.0037609809078276157,-0.009609152562916279,0.00546695152297616,-0.007916753180325031,-0.021948765963315964,-0.003488259157165885,-0.010021891444921494,-0.014874150045216084,-0.011656728573143482,-0.015820402652025223,0.003848069114610553,-0.002076798351481557
-0.007857471704483032,-0.016636384651064873,0.33900606632232666,-0.12048101425170898,-0.032222289592027664,0.010404359549283981,0.9921380281448364,-0.0019552854355424643,-0.001379182212986052,0.0002836900239344686,-0.025845197960734367,-0.00639501353725791,-0.0016386682400479913,-0.162183940410614,0.11205155402421951,-0.16661381721496582,0.1273016482591629,0.8783060312271118,0.7693154811859131,0.9527496099472046,0.8424425721168518,-1.6170262098312378,-1.5962636470794678,-1.4379163980484009,-1.5043977499008179,0.01287436205893755,0.010716062039136887,-0.002487446181476116,-0.0006630581920035183,-0.003812990849837661,-0.005896379239857197,0.0021563104819506407,-0.017974408343434334,-0.01305653341114521,0.0016560901422053576,-0.015197226777672768,0.030246993526816368,-0.13283921778202057,-0.15264122188091278,0.0266992449760437,-0.20899254083633423,0.03600252419710159,0.018169619143009186,0.29417330026626587,-0.042991045862436295,0.035357117652893066,0.20361891388893127,0.1312515139579773,0.031034395098686218,-0.0024438484106212854,-0.01393125019967556,0.005288845859467983,-0.042468927800655365,0.006714820861816406,-0.0001847761304816231,-0.00047295194235630333,-0.012783329002559185,-0.003232805524021387,-0.0372009314596653,-0.004879713524132967,-0.0028897232841700315,-0.0024417496751993895,-0.009576447308063507,0.0042801350355148315,-0.026644695550203323,0.006713369395583868,0.0003065818746108562,0.00012743344996124506,-0.010064104571938515,-0.006590948440134525,-0.022404221817851067,-0.018033217638731003,0.000302424217807129
-0.007873274385929108,-0.016648150980472565,0.3390078544616699,-0.12041909992694855,-0.032231494784355164,0.010315031744539738,0.9921461343765259,-0.001053124200552702,0.003470171708613634,-0.000702878285665065,-0.028595460578799248,-0.007071584463119507,-0.001814217772334814,-0.1620759665966034,0.11214127391576767,-0.16663390398025513,0.12729685008525848,0.8782742023468018,0.7692661881446838,0.9527680277824402,0.8422927260398865,-1.617134690284729,-1.5962496995925903,-1.4380438327789307,-1.5041449069976807,0.03212294355034828,0.024983102455735207,0.029210874810814857,0.02832803875207901,0.0008120310958474874,-0.006889644544571638,-0.00015724595868960023,-0.016039440408349037,-0.0064681051298975945,0.009321961551904678,-0.047215331345796585,0.05511679872870445,-0.132890522480011,-0.15262117981910706,0.026695527136325836,-0.20900799334049225,0.03604356199502945,0.018174223601818085,0.29413408041000366,-0.04298318549990654,0.03536514192819595,0.20361930131912231,0.1312665343284607,0.03102603554725647,0.002324094297364354,-0.01489573996514082,0.004962619859725237,-0.06111076474189758,-0.009338144212961197,-0.0030358603689819574,0.0026461940724402666,-0.012966803275048733,-0.00638578413054347,-0.05224425718188286,-0.015400794334709644,-0.00301018706522882,-0.005611619912087917,-0.017598476260900497,0.007761421613395214,-0.06855219602584839,0.03138060122728348,0.0029106768779456615,0.008511112071573734,-0.014384506270289421,-0.01204550452530384,-0.04713662341237068,-0.05142506957054138,0.002488264348357916
-0.007881905883550644,-0.016619231551885605,0.33900249004364014,-0.12048982828855515,-0.03221321851015091,0.010216863825917244,0.9921391010284424,0.0004141884855926037,0.006912268232554197,-0.0019584479741752148,-0.04601651802659035,-0.011386406607925892,-0.002918889280408621,-0.16180838644504547,0.1123497262597084,-0.16639037430286407,0.1275329291820526,0.8782813549041748,0.7692084312438965,0.9527661800384521,0.8421593308448792,-1.6171886920928955,-1.596171259880066,-1.4384377002716064,-1.5036861896514893,0.041004449129104614,0.02983182668685913,0.06485295295715332,0.0659756287932396,0.0055721355602145195,0.0018178822938352823,-0.003015573602169752,0.01812921091914177,0.0017955848015844822,0.010514996945858002,-0.06538272649049759,0.029570719227194786,-0.13288581371307373,-0.15263451635837555,0.026694729924201965,-0.2090325951576233,0.03603740036487579,0.018167898058891296,0.2940554916858673,-0.04295315966010094,0.03538289666175842,0.20362965762615204,0.13131050765514374,0.030963636934757233,0.00822849478572607,-0.018482759594917297,0.005118488799780607,-0.0839327722787857,-0.0282906387001276,-0.006419327110052109,0.008606472983956337,-0.01561268512159586,-0.009773485362529755,-0.07209008187055588,-0.030417829751968384,-0.003029187209904194,-0.004457318689674139,-0.03212229534983635,0.011415529996156693,-0.1256866157054901,0.03868824988603592,0.0025067608803510666,0.02014300413429737,-0.026060808449983597,-0.012077120132744312,-0.09906172007322311,-0.073056660592556,0.00040578912012279034
-0.007878493517637253,-0.016561495140194893,0.33898603916168213,-0.120649054646492,-0.032154493033885956,0.01011589728295803,0.9921227097511292,0.001990175573155284,0.00944246631115675,-0.003665426280349493,-0.06277447193861008,-0.015553850680589676,-0.003975902684032917,-0.16146646440029144,0.1125984787940979,-0.1658497303724289,0.12808345258235931,0.8783280253410339,0.7692238092422485,0.9527413249015808,0.8423105478286743,-1.6171743869781494,-1.5960843563079834,-1.4389832019805908,-1.5034395456314087,0.039960622787475586,0.028521351516246796,0.0812070295214653,0.08197912573814392,0.016031431034207344,0.011389772407710552,0.00605649221688509,0.057136718183755875,0.00653645396232605,0.013944192789494991,-0.08952951431274414,-0.0039198268204927444,-0.1328435093164444,-0.15265968441963196,0.026691220700740814,-0.20905505120754242,0.03601442277431488,0.018163815140724182,0.29395565390586853,-0.04294751584529877,0.03539169579744339,0.20367313921451569,0.13133737444877625,0.030895330011844635,0.014579752460122108,-0.019670207053422928,0.004890427924692631,-0.09593085199594498,-0.046812303364276886,-0.009427917189896107,0.01474730484187603,-0.017037544399499893,-0.013536610640585423,-0.08458498865365982,-0.04680081084370613,-0.0021853377111256123,-0.002186151687055826,-0.040894024074077606,0.015203057788312435,-0.16201776266098022,0.04503629729151726,0.0024991293903440237,0.03015490621328354,-0.03150661662220955,-0.010311339981853962,-0.13004648685455322,-0.08638264983892441,-0.0007551891030743718
-0.007862063124775887,-0.016481922939419746,0.338955283164978,-0.12087175995111465,-0.03203994035720825,0.010018052533268929,0.9921002984046936,0.003510543145239353,0.011626438237726688,-0.006377314683049917,-0.08443565666675568,-0.02096022106707096,-0.005330086685717106,-0.16113288700580597,0.11283604055643082,-0.1651725172996521,0.1287674456834793,0.8784616589546204,0.7693194150924683,0.952791690826416,0.8427878022193909,-1.6171194314956665,-1.595967411994934,-1.4397295713424683,-1.5034724473953247,0.04502281919121742,0.03363225609064102,0.10267071425914764,0.10645481199026108,0.035812895745038986,0.030883733183145523,0.042784739285707474,0.12185871601104736,0.013295656070113182,0.016588855534791946,-0.13207882642745972,-0.0608055479824543,-0.1327752321958542,-0.1526753455400467,0.02668781578540802,-0.20907990634441376,0.03598959371447563,0.018163368105888367,0.29383450746536255,-0.04293938726186752,0.03538479655981064,0.20373544096946716,0.13138321042060852,0.030828051269054413,0.02460247278213501,-0.023722214624285698,0.004602283239364624,-0.11593631654977798,-0.07892902195453644,-0.014605402015149593,0.024479033425450325,-0.021516021341085434,-0.01893617771565914,-0.10608605295419693,-0.07476601749658585,-0.0007505429093725979,0.0056756893172860146,-0.05248764157295227,0.022922100499272346,-0.20593219995498657,0.04001554846763611,0.0006072410033084452,0.044750526547431946,-0.03997785598039627,-0.0064133345149457455,-0.17359620332717896,-0.10523126274347305,-0.002345223678275943
-0.007833205163478851,-0.016385698691010475,0.3389021158218384,-0.12114608287811279,-0.03182215616106987,0.00992646161466837,0.9920747876167297,0.002803848357871175,0.01563703455030918,-0.006825678516179323,-0.10762836039066315,-0.026779109612107277,-0.00674854451790452,-0.16075730323791504,0.11311628669500351,-0.16431574523448944,0.12965472042560577,0.8787606954574585,0.7695770859718323,0.9531491994857788,0.843803882598877,-1.617008924484253,-1.5958293676376343,-1.4408310651779175,-1.5039795637130737,0.04992785304784775,0.03743445500731468,0.13266758620738983,0.13781021535396576,0.03889350965619087,0.029585208743810654,0.02954975515604019,0.13869698345661163,0.011335502378642559,0.016895925626158714,-0.1453939974308014,-0.06110966205596924,-0.13268578052520752,-0.15269765257835388,0.026694394648075104,-0.20910948514938354,0.03594723343849182,0.018175765872001648,0.2937062680721283,-0.042954184114933014,0.03536376357078552,0.20382586121559143,0.13142289221286774,0.03076135367155075,0.026404259726405144,-0.02799306996166706,0.0072477348148822784,-0.14357595145702362,-0.08702452480792999,-0.016444165259599686,0.02565051056444645,-0.025740347802639008,-0.02202085591852665,-0.13315990567207336,-0.08055742084980011,-0.0025215046480298042,0.002497117966413498,-0.06682591885328293,0.026396730914711952,-0.26477354764938354,0.05238143354654312,0.0009692736202850938,0.05347812920808792,-0.05168677866458893,-0.009633817709982395,-0.22332718968391418,-0.1345343142747879,-0.0030008358880877495
-0.007809357717633247,-0.01625479944050312,0.33884501457214355,-0.12154435366392136,-0.03161425143480301,0.009819145314395428,0.9920337796211243,0.002239594468846917,0.018604790791869164,-0.007136727217584848,-0.12874560058116913,-0.032141104340553284,-0.00802126806229353,-0.16034089028835297,0.11342902481555939,-0.1632094383239746,0.1308048516511917,0.8790844678878784,0.7698234915733337,0.9533951878547668,0.8449608683586121,-1.6169136762619019,-1.5956887006759644,-1.4420440196990967,-1.504489541053772,0.05730268359184265,0.04271281510591507,0.16589152812957764,0.17040708661079407,0.04433324933052063,0.033790960907936096,0.018065836280584335,0.17388001084327698,0.012032615952193737,0.015661992132663727,-0.14894723892211914,-0.08336371928453445,-0.1325550526380539,-0.15271981060504913,0.026697054505348206,-0.20915280282497406,0.03588676452636719,0.018180467188358307,0.2935490608215332,-0.042942870408296585,0.03535553812980652,0.20394110679626465,0.13148793578147888,0.030692771077156067,0.029489781707525253,-0.03309372812509537,0.009694220498204231,-0.1702708750963211,-0.10008960962295532,-0.01894650235772133,0.028281180188059807,-0.030450627207756042,-0.02455420419573784,-0.15865695476531982,-0.09007582068443298,-0.0036785162519663572,0.001926446333527565,-0.08184056729078293,0.029337864369153976,-0.3218514919281006,0.053303223103284836,-0.00031941034831106663,0.06389617174863815,-0.06318961083889008,-0.00905937235802412,-0.2729599177837372,-0.16027584671974182,-0.004084898624569178
-0.007790312170982361,-0.016100037842988968,0.33878588676452637,-0.12203281372785568,-0.03138480708003044,0.009704970754683018,0.9919822216033936,0.002405770355835557,0.02075689472258091,-0.007440987508744001,-0.14186546206474304,-0.03556254506111145,-0.008776089176535606,-0.15986321866512299,0.11378530412912369,-0.16182571649551392,0.13222579658031464,0.8794546127319336,0.7701048851013184,0.953545868396759,0.8464110493659973,-1.6168138980865479,-1.5955584049224854,-1.443285584449768,-1.5051839351654053,0.05860863998532295,0.04281735047698021,0.1791040003299713,0.181013286113739,0.04398493841290474,0.03449267894029617,0.009588793851435184,0.18153351545333862,0.014046762138605118,0.01982893794775009,-0.15197308361530304,-0.07980816066265106,-0.13240006566047668,-0.15275435149669647,0.026707477867603302,-0.20921273529529572,0.03580383211374283,0.018192067742347717,0.2933657467365265,-0.04294673725962639,0.03534063696861267,0.20408731698989868,0.1315515786409378,0.03063693642616272,0.030921541154384613,-0.03513692691922188,0.010580196976661682,-0.18418005108833313,-0.10546958446502686,-0.019962389022111893,0.030423833057284355,-0.03217272460460663,-0.026809176430106163,-0.17068803310394287,-0.09823630005121231,-0.0037338361144065857,0.0010482524521648884,-0.08863824605941772,0.03071984276175499,-0.3507014513015747,0.05754385143518448,-0.00039459357503801584,0.06895960867404938,-0.06769779324531555,-0.011015486903488636,-0.2936455309391022,-0.17715728282928467,-0.003521829145029187
-0.007770298048853874,-0.015926461666822433,0.3387238681316376,-0.12258001416921616,-0.031146695837378502,0.009587779641151428,0.9919233918190002,0.0023840086068958044,0.022392133250832558,-0.007254517171531916,-0.15353037416934967,-0.03866414353251457,-0.009427405893802643,-0.15937510132789612,0.11414247751235962,-0.1603318154811859,0.13373465836048126,0.8798208236694336,0.7703931927680969,0.953625500202179,0.8479241728782654,-1.6166964769363403,-1.5953923463821411,-1.4445528984069824,-1.5058495998382568,0.06109918653964996,0.04278562590479851,0.1959766298532486,0.19738426804542542,0.04344289377331734,0.037911366671323776,-0.0026256954297423363,0.1916242092847824,0.01543494127690792,0.022670209407806396,-0.15318663418293,-0.08041294664144516,-0.1322309374809265,-0.15278694033622742,0.02671540528535843,-0.2092760056257248,0.03571659326553345,0.01819925755262375,0.29316383600234985,-0.042936597019433975,0.03531978279352188,0.20424218475818634,0.13163824379444122,0.03057026118040085,0.032014232128858566,-0.03765929117798805,0.011948375031352043,-0.1979738026857376,-0.1100391298532486,-0.02083366923034191,0.03284173086285591,-0.03375528007745743,-0.02819737233221531,-0.18078935146331787,-0.10738331079483032,-0.0034809266217052937,-0.0006002048030495644,-0.09676329791545868,0.03218173235654831,-0.38214540481567383,0.06300769001245499,-0.0003543962666299194,0.07418840378522873,-0.07393557578325272,-0.01196281984448433,-0.3188140392303467,-0.1934988647699356,-0.003424856113269925
-0.007750282064080238,-0.015739545226097107,0.3386630713939667,-0.12318217009305954,-0.030911261215806007,0.009467377327382565,0.9918574094772339,0.002454472007229924,0.02509242482483387,-0.006461306940764189,-0.1684926450252533,-0.04264692962169647,-0.010270127095282078,-0.1588647961616516,0.11449858546257019,-0.15869812667369843,0.13538146018981934,0.8801832795143127,0.7707093358039856,0.9536036849021912,0.849522054195404,-1.6165677309036255,-1.5952037572860718,-1.4458308219909668,-1.5065202713012695,0.06450550258159637,0.045615751296281815,0.21471405029296875,0.21669147908687592,0.03757285699248314,0.030817274004220963,-0.02929159812629223,0.1942758560180664,0.014438105747103691,0.020529814064502716,-0.1528480052947998,-0.07403668016195297,-0.13204288482666016,-0.15282468497753143,0.026723042130470276,-0.20933175086975098,0.03562421724200249,0.01820400357246399,0.2929452061653137,-0.04292943701148033,0.03530160337686539,0.20441746711730957,0.1317276954650879,0.030505582690238953,0.031627751886844635,-0.04087807983160019,0.014438588172197342,-0.21787436306476593,-0.10832726210355759,-0.02093030884861946,0.03206261992454529,-0.03695586696267128,-0.028841355815529823,-0.20057521760463715,-0.10320839285850525,-0.0057603055611252785,-0.005773022770881653,-0.10630132257938385,0.033298030495643616,-0.4219551980495453,0.07944212853908539,0.001041160780005157,0.07907094806432724,-0.08147277683019638,-0.013878821395337582,-0.35018405318260193,-0.21104493737220764,-0.0037127425894141197
-0.007730232551693916,-0.015530562028288841,0.33860939741134644,-0.12385959178209305,-0.03069682978093624,0.009337850846350193,0.9917809367179871,0.002502461662515998,0.027832169085741043,-0.005142967216670513,-0.1841481775045395,-0.04687422886490822,-0.011149758473038673,-0.15832725167274475,0.11487890779972076,-0.15690743923187256,0.13718868792057037,0.8804962635040283,0.7709658145904541,0.9533590078353882,0.8511428833007812,-1.6164472103118896,-1.5950323343276978,-1.4471052885055542,-1.5071380138397217,0.06817514449357986,0.048956651240587234,0.23894935846328735,0.2395356446504593,0.029882987961173058,0.018708527088165283,-0.07066595554351807,0.1895206719636917,0.012654717080295086,0.015051411464810371,-0.1378798484802246,-0.058432452380657196,-0.13183441758155823,-0.15286515653133392,0.026731185615062714,-0.20940056443214417,0.03551730886101723,0.018209904432296753,0.2926896810531616,-0.042912229895591736,0.035290926694869995,0.2046113908290863,0.13183164596557617,0.030447550117969513,0.03067370504140854,-0.04451626539230347,0.017582295462489128,-0.23938317596912384,-0.10444552451372147,-0.020738685503602028,0.02942255511879921,-0.04090030863881111,-0.028618499636650085,-0.2235346883535385,-0.09139042347669601,-0.00927942618727684,-0.01215149462223053,-0.1178397536277771,0.03276137262582779,-0.4678640067577362,0.0942666307091713,0.00199313391931355,0.08374687284231186,-0.09065096080303192,-0.01687900349497795,-0.3851868212223053,-0.2315153181552887,-0.003897573333233595
-0.007709290832281113,-0.015298732556402683,0.33856597542762756,-0.12461733818054199,-0.030529683455824852,0.009196566417813301,0.9916923642158508,0.0022417306900024414,0.029955726116895676,-0.003260452300310135,-0.19562304019927979,-0.05011064186692238,-0.011784997768700123,-0.1577584594488144,0.11528751999139786,-0.15491464734077454,0.13918550312519073,0.8807461261749268,0.7711222171783447,0.9527691602706909,0.8527228236198425,-1.6163420677185059,-1.5949068069458008,-1.448254942893982,-1.5076247453689575,0.06946352124214172,0.049960702657699585,0.2562442421913147,0.2564489245414734,0.016067173331975937,0.0064369626343250275,-0.11722683161497116,0.17277759313583374,0.009410399943590164,0.010316543281078339,-0.11165829747915268,-0.03999033570289612,-0.1315920054912567,-0.1529078334569931,0.026735611259937286,-0.20948085188865662,0.03539322316646576,0.018213555216789246,0.29240313172340393,-0.042892348021268845,0.03528737276792526,0.20483677089214325,0.13194489479064941,0.030398882925510406,0.027011672034859657,-0.04733624309301376,0.020681580528616905,-0.256343275308609,-0.0917365550994873,-0.019176051020622253,0.02603755332529545,-0.0435079000890255,-0.027388790622353554,-0.23995596170425415,-0.0785892903804779,-0.012342240661382675,-0.019102182239294052,-0.12622173130512238,0.030605003237724304,-0.5014180541038513,0.10586864501237869,0.002684718696400523,0.08427771925926208,-0.09818309545516968,-0.019511032849550247,-0.4123576283454895,-0.24084031581878662,-0.0049415226094424725
-0.007690317928791046,-0.015049143694341183,0.33853960037231445,-0.12543439865112305,-0.030415769666433334,0.009050542488694191,0.9915942549705505,0.002145098987966776,0.031190229579806328,-0.0010865430813282728,-0.2030840963125229,-0.05237608030438423,-0.012195292860269547,-0.1571795642375946,0.11570466309785843,-0.15277773141860962,0.1413240283727646,0.8808795809745789,0.7711756825447083,0.9517917633056641,0.8541638851165771,-1.6162631511688232,-1.5948210954666138,-1.4491862058639526,-1.507958173751831,0.06775058060884476,0.04944402724504471,0.2667863667011261,0.25959470868110657,0.0014218082651495934,-0.010901417583227158,-0.16082113981246948,0.1537816822528839,0.0060815708711743355,0.006086764391511679,-0.08183929324150085,-0.015341721475124359,-0.13133801519870758,-0.1529538333415985,0.02674098312854767,-0.20957037806510925,0.035257890820503235,0.01821862906217575,0.29208648204803467,-0.04287089407444,0.035287126898765564,0.20507244765758514,0.1320570409297943,0.030362434685230255,0.022786982357501984,-0.04903635010123253,0.023463958874344826,-0.26666441559791565,-0.07645560801029205,-0.01711079105734825,0.021000385284423828,-0.045709893107414246,-0.02549723908305168,-0.252032995223999,-0.06007755175232887,-0.015742549672722816,-0.025120750069618225,-0.13177412748336792,0.027972904965281487,-0.5228221416473389,0.11374000459909439,0.0030377102084457874,0.08397670835256577,-0.10112479329109192,-0.021679185330867767,-0.421230673789978,-0.24961896240711212,-0.00429826695472002
-0.0076723843812942505,-0.014788811095058918,0.33853018283843994,-0.12628939747810364,-0.030359502881765366,0.0089067118242383,0.9914887547492981,0.002008983865380287,0.031640104949474335,0.000606779009103775,-0.20473311841487885,-0.05317607522010803,-0.012279124930500984,-0.15661443769931793,0.11611689627170563,-0.15055270493030548,0.14348942041397095,0.8808918595314026,0.7710840702056885,0.9504502415657043,0.8554458618164062,-1.6162129640579224,-1.5947704315185547,-1.449868083000183,-1.50808584690094,0.06391359865665436,0.046267472207546234,0.2681572139263153,0.259220153093338,-0.010457941330969334,-0.021839546039700508,-0.20550158619880676,0.12940585613250732,0.0033004756551235914,0.00127974443603307,-0.05191784352064133,0.010551339946687222,-0.13107773661613464,-0.15300217270851135,0.026746496558189392,-0.20967485010623932,0.03511001169681549,0.01822175830602646,0.2917512059211731,-0.0428507998585701,0.03529045730829239,0.20532332360744476,0.13218392431735992,0.03033706545829773,0.01883537322282791,-0.04894541949033737,0.025066807866096497,-0.2683265805244446,-0.062362074851989746,-0.015048010274767876,0.016992850229144096,-0.04570101946592331,-0.02320343628525734,-0.25439372658729553,-0.045044902712106705,-0.017854921519756317,-0.03261313587427139,-0.13356930017471313,0.023690801113843918,-0.5298519134521484,0.12625934183597565,0.004265429452061653,0.08151297271251678,-0.10236364603042603,-0.024032143875956535,-0.421842485666275,-0.25211089849472046,-0.0038194702938199043
-0.0076564885675907135,-0.014524629339575768,0.33853572607040405,-0.12715500593185425,-0.03037456050515175,0.008769855834543705,0.9913788437843323,0.0015119926538318396,0.0316748172044754,0.0022193877957761288,-0.20486392080783844,-0.05359077453613281,-0.012301603332161903,-0.1560816466808319,0.1165022999048233,-0.1483161449432373,0.14565055072307587,0.880804181098938,0.7709022164344788,0.9487363696098328,0.8565247058868408,-1.6161847114562988,-1.5947591066360474,-1.450301170349121,-1.5079975128173828,0.062136467546224594,0.043595340102910995,0.2654714584350586,0.2549550533294678,-0.024003751575946808,-0.030186180025339127,-0.23529312014579773,0.10810550302267075,0.0005677016451954842,-0.0034872957039624453,-0.024066533893346786,0.03286508843302727,-0.13080468773841858,-0.15304672718048096,0.02674604207277298,-0.20976991951465607,0.034962911158800125,0.018217377364635468,0.2913951277732849,-0.042834386229515076,0.03529897332191467,0.20559166371822357,0.13231158256530762,0.030324332416057587,0.014101539738476276,-0.04955272004008293,0.02647387981414795,-0.27092844247817993,-0.04685540124773979,-0.01285079400986433,0.013295081444084644,-0.04561655968427658,-0.020841877907514572,-0.25513893365859985,-0.03228442370891571,-0.019576165825128555,-0.036839112639427185,-0.13322390615940094,0.020473148673772812,-0.5281892418861389,0.12788614630699158,0.004110198933631182,0.07854187488555908,-0.10219906270503998,-0.0255876574665308,-0.41729143261909485,-0.25275376439094543,-0.003166049486026168
-0.007643800228834152,-0.014260407537221909,0.33855417370796204,-0.12802067399024963,-0.0304415225982666,0.008638845756649971,0.9912666082382202,0.0005334366578608751,0.03186899796128273,0.0035406434908509254,-0.20654931664466858,-0.054416485130786896,-0.01243946235626936,-0.15556347370147705,0.1168663501739502,-0.1461031436920166,0.14777742326259613,0.8806033730506897,0.7706507444381714,0.9467740654945374,0.8574262857437134,-1.6161805391311646,-1.5947890281677246,-1.4505010843276978,-1.507723331451416,0.061589859426021576,0.043167538940906525,0.2669333517551422,0.2505350410938263,-0.03223395347595215,-0.039962731301784515,-0.26258277893066406,0.08424229174852371,-0.0020716143772006035,-0.009385309182107449,0.0047867922112345695,0.053349725902080536,-0.13053825497627258,-0.15309566259384155,0.026743389666080475,-0.20986200869083405,0.03481626510620117,0.018211334943771362,0.2910360097885132,-0.04281439259648323,0.03531002253293991,0.20586735010147095,0.13244158029556274,0.030319534242153168,0.010608240962028503,-0.050456903874874115,0.02801595628261566,-0.2749226987361908,-0.03725576028227806,-0.01156032457947731,0.008848641067743301,-0.046646103262901306,-0.018896503373980522,-0.2602754533290863,-0.01805143803358078,-0.021913081407546997,-0.04019104689359665,-0.13432280719280243,0.01750049740076065,-0.53118497133255,0.12469547986984253,0.0031408662907779217,0.07415620982646942,-0.10260696709156036,-0.02748754434287548,-0.4152059555053711,-0.24955745041370392,-0.003395427018404007
-0.00763944536447525,-0.013995306566357613,0.33858364820480347,-0.12888802587985992,-0.030556967481970787,0.008509757928550243,0.9911516904830933,-0.0014245803467929363,0.03154326230287552,0.004932315554469824,-0.20698629319667816,-0.05491884425282478,-0.012523232027888298,-0.1550498902797699,0.11722584068775177,-0.143876314163208,0.14986652135849,0.8803349137306213,0.7703169584274292,0.944584310054779,0.8581287860870361,-1.6161974668502808,-1.5948669910430908,-1.450461506843567,-1.507278323173523,0.062151938676834106,0.04377179220318794,0.2730183005332947,0.25180643796920776,-0.04190743342041969,-0.04774307832121849,-0.2976204752922058,0.06590232998132706,-0.0044503724202513695,-0.017830917611718178,0.054974380880594254,0.07128804177045822,-0.13027122616767883,-0.1531459242105484,0.026738762855529785,-0.20996208488941193,0.03466634079813957,0.018203459680080414,0.2906765341758728,-0.04279721900820732,0.03532227873802185,0.20613354444503784,0.13257615268230438,0.030321046710014343,0.005761727690696716,-0.051932256668806076,0.02947024255990982,-0.27908486127853394,-0.026492983102798462,-0.01014043390750885,0.0035888708662241697,-0.04802975058555603,-0.016414137557148933,-0.26534566283226013,-0.0032432209700345993,-0.024344073608517647,-0.04268984496593475,-0.1362830102443695,0.012120321393013,-0.533837080001831,0.1076229140162468,0.00031631774618290365,0.07036164402961731,-0.10453315079212189,-0.028870277106761932,-0.4166540801525116,-0.250326931476593,-0.003424618626013398
-0.0076511576771736145,-0.013732414692640305,0.33862417936325073,-0.1297479271888733,-0.03073006123304367,0.00838091503828764,0.9910352826118469,-0.003522291546687484,0.03062034398317337,0.006457285024225712,-0.20566223561763763,-0.054949890822172165,-0.01252478826791048,-0.15453165769577026,0.11759043484926224,-0.14160040020942688,0.1519658863544464,0.8799852728843689,0.7699193358421326,0.9421021342277527,0.8586783409118652,-1.616234540939331,-1.595015525817871,-1.4500027894973755,-1.5066839456558228,0.0589456632733345,0.041737403720617294,0.2595236897468567,0.23713037371635437,-0.05188867077231407,-0.057389065623283386,-0.3109883964061737,0.0376105010509491,-0.010449503548443317,-0.024936798959970474,0.07160986959934235,0.10023443400859833,-0.13001123070716858,-0.15320025384426117,0.026728838682174683,-0.21006882190704346,0.03451373800635338,0.018193647265434265,0.29032984375953674,-0.042794354259967804,0.03532100468873978,0.206404447555542,0.1326989233493805,0.030336566269397736,-0.00028646684950217605,-0.05262361466884613,0.03112599067389965,-0.27892592549324036,-0.010543583892285824,-0.0079258494079113,-0.0025063585489988327,-0.04881884157657623,-0.013691229745745659,-0.266289621591568,0.013204765506088734,-0.02662510983645916,-0.04669414460659027,-0.13278645277023315,0.010502096265554428,-0.518911600112915,0.10743703693151474,0.000120163218525704,0.06394542753696442,-0.10217276215553284,-0.03110303357243538,-0.40070641040802,-0.24752406775951385,-0.0022776818368583918
-0.0076798927038908005,-0.013476785272359848,0.3386778235435486,-0.13059118390083313,-0.030952204018831253,0.008258000947535038,0.9909185767173767,-0.005361376795917749,0.02903929352760315,0.008000388741493225,-0.20276498794555664,-0.05454633757472038,-0.012449195608496666,-0.15404029190540314,0.11793866753578186,-0.1394357681274414,0.1539434939622879,0.8795530796051025,0.7694401144981384,0.9395087957382202,0.8589916229248047,-1.61632239818573,-1.5952237844467163,-1.4494049549102783,-1.5058479309082031,0.05602212995290756,0.038821153342723846,0.2481490969657898,0.22622203826904297,-0.06282393634319305,-0.0684700682759285,-0.332454115152359,0.009403541684150696,-0.012803811579942703,-0.028037289157509804,0.10693889111280441,0.12670505046844482,-0.1297743171453476,-0.15325810015201569,0.02672189474105835,-0.21019215881824493,0.03435841202735901,0.01818561553955078,0.28997981548309326,-0.04277524724602699,0.03533576428890228,0.2066577970981598,0.13283225893974304,0.030353255569934845,-0.005879277363419533,-0.053446028381586075,0.03212842345237732,-0.27680906653404236,0.003195100696757436,-0.006012228317558765,-0.008350827731192112,-0.049573346972465515,-0.01134023629128933,-0.2642211616039276,0.027847513556480408,-0.028422337025403976,-0.04944019019603729,-0.12957319617271423,0.006404156796634197,-0.5016499757766724,0.09704159945249557,-0.00131767347920686,0.05756045877933502,-0.10123108327388763,-0.03306477516889572,-0.3874218463897705,-0.24293090403079987,-0.0017221729503944516
-0.007725264877080917,-0.013234259560704231,0.3387453258037567,-0.13140179216861725,-0.03124401718378067,0.008139428682625294,0.9908033013343811,-0.006371756084263325,0.027320679277181625,0.00934610702097416,-0.1959129124879837,-0.053048230707645416,-0.012153995223343372,-0.15357327461242676,0.11826247721910477,-0.13736630976200104,0.15582938492298126,0.8790291547775269,0.7688695192337036,0.9367368221282959,0.8590694665908813,-1.6164292097091675,-1.595457673072815,-1.4485138654708862,-1.5047913789749146,0.04964645951986313,0.03488824889063835,0.2290543019771576,0.20833835005760193,-0.06729553639888763,-0.07431475818157196,-0.3460575044155121,-0.016192881390452385,-0.01762140356004238,-0.03276894614100456,0.13010050356388092,0.14517901837825775,-0.1295493245124817,-0.15331804752349854,0.02670779824256897,-0.2103157341480255,0.034206196665763855,0.018167778849601746,0.2896471917629242,-0.04275265708565712,0.035359904170036316,0.20691034197807312,0.1329565942287445,0.030383050441741943,-0.009767523966729641,-0.05189619958400726,0.03288470208644867,-0.2663883566856384,0.01511059794574976,-0.0042014713399112225,-0.012551786378026009,-0.04860617220401764,-0.008441496640443802,-0.2563532888889313,0.04039912670850754,-0.02943575195968151,-0.05220114812254906,-0.1230626031756401,0.002971033100038767,-0.4740980267524719,0.09393373131752014,-0.0015421994030475616,0.05039551481604576,-0.09702391177415848,-0.03357134386897087,-0.3648177683353424,-0.2302502542734146,-0.0015288935974240303
-0.007778126746416092,-0.013006450608372688,0.3388233482837677,-0.13216795027256012,-0.03157322481274605,0.008032698184251785,0.9906918406486511,-0.005804011598229408,0.026408709585666656,0.009392987936735153,-0.19172397255897522,-0.05223407223820686,-0.012031222693622112,-0.1531592756509781,0.11855354905128479,-0.1354566365480423,0.1575673371553421,0.8784677386283875,0.7682494521141052,0.933850884437561,0.8589348196983337,-1.6165757179260254,-1.5957309007644653,-1.447428584098816,-1.503580927848816,0.0458638034760952,0.03180370479822159,0.21869897842407227,0.19666403532028198,-0.07267381995916367,-0.07626430690288544,-0.3488428592681885,-0.03156648948788643,-0.01850958913564682,-0.03309439495205879,0.1399392932653427,0.1525259166955948,-0.1293400377035141,-0.15337452292442322,0.026697129011154175,-0.21043963730335236,0.03405872732400894,0.01815124601125717,0.28931745886802673,-0.04272390156984329,0.03538276255130768,0.20714563131332397,0.13307569921016693,0.030417293310165405,-0.011344066821038723,-0.050929389894008636,0.032214634120464325,-0.26034724712371826,0.022793393582105637,-0.003107877681031823,-0.013085450977087021,-0.04751206934452057,-0.007766757160425186,-0.249898761510849,0.044106531888246536,-0.029494915157556534,-0.05170726031064987,-0.11933980882167816,0.0011592742521315813,-0.4582715630531311,0.09032835811376572,-0.002119355136528611,0.0466037318110466,-0.09419068694114685,-0.034083910286426544,-0.35112956166267395,-0.2189635932445526,-0.0020781534258276224
-0.007826898247003555,-0.012786604464054108,0.3389008045196533,-0.13290460407733917,-0.03192533552646637,0.00793412234634161,0.9905827641487122,-0.0052621029317379,0.02547529898583889,0.010389300994575024,-0.18818438053131104,-0.05157245695590973,-0.011952276341617107,-0.15277621150016785,0.11881845444440842,-0.13363279402256012,0.15920701622962952,0.8778612613677979,0.7676132917404175,0.9309412837028503,0.8586719036102295,-1.6167303323745728,-1.5960063934326172,-1.4462614059448242,-1.5023088455200195,0.03988899663090706,0.028141582384705544,0.2034120261669159,0.18423666059970856,-0.07575887441635132,-0.08153083175420761,-0.3559577167034149,-0.04788998141884804,-0.020239485427737236,-0.03672375530004501,0.1494780331850052,0.16148433089256287,-0.12913568317890167,-0.15342897176742554,0.02667897939682007,-0.210547536611557,0.033918701112270355,0.018125459551811218,0.28900617361068726,-0.04269585758447647,0.03540650010108948,0.20737434923648834,0.13319271802902222,0.03045138716697693,-0.012559883296489716,-0.04942099750041962,0.03263479471206665,-0.2524721920490265,0.029526395723223686,-0.002110016532242298,-0.015106079168617725,-0.046785496175289154,-0.005727728828787804,-0.24521636962890625,0.05415993183851242,-0.030502447858452797,-0.05296284705400467,-0.11464963853359222,-0.0002994523383677006,-0.4395727217197418,0.09234758466482162,-0.0018914365209639072,0.04276760667562485,-0.09140920639038086,-0.033941954374313354,-0.33723896741867065,-0.20822755992412567,-0.0025320970453321934
