Huisouan/isaac-rl-lab/source/vqvae/data/idle_004.csv
rootstate0,rootstate1,rootstate2,rootstate3,rootstate4,rootstate5,rootstate6,rootstate7,rootstate8,rootstate9,rootstate10,rootstate11,rootstate12,joint_pos_0,joint_pos_1,joint_pos_2,joint_pos_3,joint_pos_4,joint_pos_5,joint_pos_6,joint_pos_7,joint_pos_8,joint_pos_9,joint_pos_10,joint_pos_11,joint_vel_0,joint_vel_1,joint_vel_2,joint_vel_3,joint_vel_4,joint_vel_5,joint_vel_6,joint_vel_7,joint_vel_8,joint_vel_9,joint_vel_10,joint_vel_11,foot_pos_0_x,foot_pos_0_y,foot_pos_0_z,foot_pos_1_x,foot_pos_1_y,foot_pos_1_z,foot_pos_2_x,foot_pos_2_y,foot_pos_2_z,foot_pos_3_x,foot_pos_3_y,foot_pos_3_z,foot_vel_0_x,foot_vel_0_y,foot_vel_0_z,foot_vel_0_rx,foot_vel_0_ry,foot_vel_0_rz,foot_vel_1_x,foot_vel_1_y,foot_vel_1_z,foot_vel_1_rx,foot_vel_1_ry,foot_vel_1_rz,foot_vel_2_x,foot_vel_2_y,foot_vel_2_z,foot_vel_2_rx,foot_vel_2_ry,foot_vel_2_rz,foot_vel_3_x,foot_vel_3_y,foot_vel_3_z,foot_vel_3_rx,foot_vel_3_ry,foot_vel_3_rz
0.0,0.0,0.35130101442337036,-0.055229008197784424,0.06873801350593567,0.026542004197835922,0.995751142501831,0.0,0.0,0.0,0.0,0.0,0.0,-0.09235599637031555,0.19827400147914886,-0.09505300223827362,-0.010673999786376953,0.48857301473617554,0.6845269799232483,0.9120460152626038,0.6200550198554993,-1.69964599609375,-1.7255829572677612,-1.5854140520095825,-1.5252360105514526,-0.0014390000142157078,-0.003601999953389168,-0.002317999955266714,-0.004875000100582838,-0.00355600006878376,-0.0075240000151097775,0.00469799991697073,-0.012187999673187733,0.0030129998922348022,0.008984999731183052,-0.006074999924749136,0.016755999997258186,-0.3111743927001953,-0.1639537364244461,0.12974603474140167,-0.2869022786617279,0.04268895089626312,0.09829099476337433,0.197517991065979,-0.1066020280122757,0.023107193410396576,0.0901012271642685,0.14170250296592712,0.023253455758094788,-0.0007919920026324689,0.0003128130338154733,-0.0002638084115460515,0.00136188929900527,0.0006926761125214398,-0.00017614687385503203,-0.001304974895901978,0.0005896571092307568,-0.0009844827000051737,0.0037473102565854788,-0.0010211868211627007,-0.00015414896188303828,0.000416712777223438,0.000699036056175828,0.0007245356682687998,0.0021436891984194517,0.0016148858703672886,-0.0002568892959970981,-0.0018995886202901602,0.0012251079315319657,-0.001629550475627184,0.005311727058142424,-0.004017980303615332,-0.0005231067189015448
1.6577541828155518e-06,-1.684785820543766e-05,0.3512846827507019,-0.05523297190666199,0.06865793466567993,0.02652071788907051,0.9957570433616638,0.25636860728263855,-2.5998096466064453,-2.5219645500183105,-10.50296401977539,23.382205963134766,1.3294697999954224,-0.09241469204425812,0.19819408655166626,-0.09512142091989517,-0.010766475461423397,0.4885721206665039,0.6844653487205505,0.91208416223526,0.619965672492981,-1.6996265649795532,-1.7254637479782104,-1.5853861570358276,-1.525018334388733,-7.205475807189941,-7.704844951629639,-7.626558303833008,-7.943762302398682,4.493012428283691,0.21799978613853455,-0.2847854793071747,1.8103268146514893,-0.8669196367263794,6.817403793334961,12.020212173461914,11.978531837463379,-0.3111381530761719,-0.16394585371017456,0.12966331839561462,-0.28686922788619995,0.042700476944446564,0.09821628034114838,0.19758456945419312,-0.10657791048288345,0.023106463253498077,0.09014838188886642,0.14173050224781036,0.023234166204929352,-3.8856587409973145,-3.254937171936035,4.925431251525879,-3.043850898742676,20.54482650756836,0.1554473340511322,-5.231869697570801,-3.6165988445281982,2.0868802070617676,-1.948572039604187,17.43943977355957,1.9356390237808228,-5.900096893310547,-3.1969072818756104,-9.01870346069336,-1.8164077997207642,12.531346321105957,-0.30979058146476746,-5.9069905281066895,-3.306314706802368,-8.342633247375488,-1.1355674266815186,10.533565521240234,0.6968364119529724
0.002135569229722023,-0.021682467311620712,0.3302692770957947,-0.060003336519002914,-0.03452092781662941,-0.0009514549747109413,0.9976006150245667,0.12124709784984589,0.041168391704559326,-0.05539032071828842,0.2538314163684845,-0.11718539148569107,0.21613048017024994,-0.1524609923362732,0.13398636877536774,-0.15867675840854645,-0.07696515321731567,0.5260106325149536,0.6862818002700806,0.9097106456756592,0.6350585222244263,-1.7068543434143066,-1.668653130531311,-1.4852224588394165,-1.4252095222473145,-0.15426898002624512,-0.20383182168006897,-0.05875799432396889,-0.08897773921489716,-0.4158332347869873,-0.16802403330802917,-0.029421307146549225,1.123563289642334,-0.4858076572418213,-0.08326776325702667,-0.6536430716514587,-1.8972879648208618,-0.24753999710083008,-0.15382377803325653,0.03499402850866318,-0.22342808544635773,0.05449240654706955,0.021256983280181885,0.27843785285949707,-0.08159801363945007,0.02751687914133072,0.17054249346256256,0.16559021174907684,0.029187709093093872,0.02373507246375084,0.06850816309452057,-0.002548888325691223,0.29045647382736206,0.7852094173431396,0.3613797128200531,0.0730181336402893,0.1287320852279663,-0.03039267659187317,0.42818692326545715,0.15465228259563446,0.19614511728286743,0.03793201595544815,0.1720130741596222,0.02658895216882229,0.22381217777729034,0.5588182806968689,0.3263450562953949,0.17121945321559906,0.17213258147239685,0.28851112723350525,0.24546000361442566,0.6589793562889099,0.27988672256469727
0.0031463410705327988,-0.021339204162359238,0.3298068642616272,-0.06087599694728851,-0.033837225288152695,4.342191823525354e-05,0.997571587562561,0.12039566040039062,0.040948640555143356,-0.05831489711999893,0.26535332202911377,-0.13016925752162933,0.2129296362400055,-0.1537473052740097,0.132285937666893,-0.15916737914085388,-0.07770661264657974,0.5225427746772766,0.6848804354667664,0.9094651937484741,0.6444302797317505,-1.7109065055847168,-1.6693470478057861,-1.490673303604126,-1.4410345554351807,-0.16985099017620087,-0.20957553386688232,-0.07160548120737076,0.07172530144453049,-0.42416805028915405,-0.13202334940433502,0.008320755325257778,1.3006591796875,-0.4903130829334259,-0.10241559892892838,-0.6864790320396423,-2.189629554748535,-0.24799568951129913,-0.15449807047843933,0.036068253219127655,-0.22348365187644958,0.0542592853307724,0.021156735718250275,0.27808836102485657,-0.08150705695152283,0.02735888957977295,0.17133662104606628,0.165705606341362,0.030410170555114746,0.024452999234199524,0.07499577105045319,-0.00871703028678894,0.3143446743488312,0.7868919372558594,0.3603191077709198,0.0838787630200386,0.13508100807666779,-0.032474301755428314,0.44675877690315247,0.1260785609483719,0.1952478140592575,0.046281881630420685,0.17753617465496063,0.03300190344452858,0.2476838082075119,0.5427175760269165,0.32218632102012634,0.19216644763946533,0.12304157018661499,0.31439363956451416,0.08202219754457474,0.740559458732605,0.2732110023498535
0.004151066765189171,-0.020997898653149605,0.32932043075561523,-0.06174202635884285,-0.0330796018242836,0.0010834533022716641,0.997543215751648,0.11839225143194199,0.04248465597629547,-0.06173360347747803,0.29014885425567627,-0.13387493789196014,0.24394480884075165,-0.15516433119773865,0.1305377185344696,-0.1597638577222824,-0.07710599154233932,0.5190059542655945,0.6837790608406067,0.9095345139503479,0.6552799344062805,-1.714996099472046,-1.6702009439468384,-1.4963992834091187,-1.4592970609664917,-0.24452674388885498,-0.24333485960960388,-0.07226376980543137,0.3100433349609375,-0.349326491355896,-0.11289333552122116,0.022318139672279358,1.660314679145813,-0.5848615169525146,-0.11424842476844788,-0.7044184803962708,-2.4720938205718994,-0.24851195514202118,-0.15517008304595947,0.03718537837266922,-0.22352418303489685,0.05401935428380966,0.021083839237689972,0.27773579955101013,-0.08142416924238205,0.027199380099773407,0.17223429679870605,0.16536623239517212,0.031773149967193604,0.03833051025867462,0.09534918516874313,-0.00726250559091568,0.409103661775589,0.8119116425514221,0.3983403444290161,0.0831841379404068,0.1476917266845703,-0.031443893909454346,0.5053259134292603,0.11966521292924881,0.2290632724761963,0.04867004230618477,0.19484974443912506,0.03271403908729553,0.2716243863105774,0.543100893497467,0.35277217626571655,0.26511332392692566,0.07119868695735931,0.3309425115585327,-0.12062755227088928,0.6309855580329895,0.2808627486228943
0.005137721076607704,-0.020643599331378937,0.32880595326423645,-0.06271008402109146,-0.03230401501059532,0.0021957424469292164,0.9975063800811768,0.11493586748838425,0.04313766211271286,-0.06297235190868378,0.3130421042442322,-0.1240830048918724,0.2646227180957794,-0.15720407664775848,0.1285085827112198,-0.16036657989025116,-0.07451922446489334,0.5160936713218689,0.6828376054763794,0.9097204804420471,0.6691302061080933,-1.7198745012283325,-1.6711539030075073,-1.502273440361023,-1.4799152612686157,-0.3109036982059479,-0.2908853590488434,-0.07995671033859253,0.5191614627838135,-0.22661153972148895,-0.10437712073326111,0.015165837481617928,2.232732057571411,-0.6989502310752869,-0.12052895128726959,-0.6896641254425049,-2.6672840118408203,-0.24893292784690857,-0.15575961768627167,0.03838455304503441,-0.22358308732509613,0.053784895688295364,0.02100994437932968,0.2773829698562622,-0.08132360130548477,0.02704712748527527,0.17373311519622803,0.16448859870433807,0.03320714831352234,0.056937552988529205,0.11553928256034851,0.000180169939994812,0.4972361922264099,0.8218548893928528,0.42146530747413635,0.07492265105247498,0.16452379524707794,-0.025521937757730484,0.5750242471694946,0.1336357444524765,0.25264617800712585,0.044289346784353256,0.21050117909908295,0.025515468791127205,0.30202481150627136,0.5465672016143799,0.37161746621131897,0.41109228134155273,0.03818768635392189,0.33957600593566895,-0.2571996748447418,0.24083659052848816,0.25993794202804565
0.006096437573432922,-0.020283343270421028,0.32828059792518616,-0.06377103924751282,-0.03153877705335617,0.0034180996008217335,0.9974601864814758,0.1142091453075409,0.042613137513399124,-0.06199217587709427,0.32639768719673157,-0.10072792321443558,0.2650865614414215,-0.15979774296283722,0.12608247995376587,-0.16103379428386688,-0.07018834352493286,0.5142046809196472,0.6819676160812378,0.9098471403121948,0.6877540946006775,-1.7257035970687866,-1.6721590757369995,-1.5080252885818481,-1.502160668373108,-0.3280586004257202,-0.32226163148880005,-0.09774451702833176,0.7380763292312622,-0.1358240246772766,-0.11397890001535416,-0.021347597241401672,2.8093862533569336,-0.7918638586997986,-0.13343985378742218,-0.6503602266311646,-2.821336030960083,-0.24915891885757446,-0.15629640221595764,0.03967998921871185,-0.22367380559444427,0.05356181412935257,0.020933866500854492,0.27703070640563965,-0.08121594041585922,0.02689669281244278,0.176474928855896,0.16322769224643707,0.03467174619436264,0.06676267832517624,0.12240777909755707,0.01519785076379776,0.5254661440849304,0.8498886227607727,0.4229702055454254,0.06150473281741142,0.17624908685684204,-0.014589312486350536,0.6161949038505554,0.18370471894741058,0.25151097774505615,0.032616764307022095,0.21945209801197052,0.012033795937895775,0.3321247696876526,0.5696383118629456,0.3714897632598877,0.5628863573074341,-0.002178989350795746,0.3433046042919159,-0.40577420592308044,-0.1829582154750824,0.21967768669128418
0.007049049250781536,-0.01992810145020485,0.32776331901550293,-0.06484591215848923,-0.03084387816488743,0.00472802622243762,0.9974073171615601,0.11135321855545044,0.041885070502758026,-0.058920085430145264,0.36060023307800293,-0.06308594346046448,0.27056318521499634,-0.16253338754177094,0.1233939453959465,-0.16184908151626587,-0.06403179466724396,0.5130742788314819,0.6810170412063599,0.9096689224243164,0.7111857533454895,-1.7323086261749268,-1.6732720136642456,-1.5134481191635132,-1.5256904363632202,-0.33963266015052795,-0.3767239451408386,-0.13434012234210968,0.8656463623046875,0.22841036319732666,-0.13184763491153717,-0.08966194093227386,3.1287267208099365,-0.9641311764717102,-0.15532302856445312,-0.5736170411109924,-2.8562419414520264,-0.24919670820236206,-0.1568513959646225,0.041060470044612885,-0.22377195954322815,0.053349077701568604,0.020858172327280045,0.2766864001750946,-0.08111005276441574,0.026752285659313202,0.18056729435920715,0.16156785190105438,0.03620050102472305,0.13617290556430817,0.14223921298980713,0.026944251731038094,0.5956288576126099,0.7014791369438171,0.40032151341438293,0.03684235364198685,0.19941367208957672,0.006137817166745663,0.6988539695739746,0.2681410312652588,0.25440701842308044,0.011252861469984055,0.24215619266033173,-0.011769717559218407,0.40242666006088257,0.6039873957633972,0.3766287565231323,0.63723224401474,-0.013753119856119156,0.3486509621143341,-0.45993971824645996,-0.44503650069236755,0.20408327877521515
0.007977711968123913,-0.019578903913497925,0.3272721469402313,-0.06593895703554153,-0.03027256950736046,0.0062062847428023815,0.9973450899124146,0.11021263152360916,0.040514346212148666,-0.05485330522060394,0.40346312522888184,-0.012269738130271435,0.2830251157283783,-0.16536584496498108,0.12025246769189835,-0.16296976804733276,-0.056811753660440445,0.5149821639060974,0.6799166202545166,0.9089205861091614,0.737281858921051,-1.7403509616851807,-1.6745684146881104,-1.5182313919067383,-1.5495121479034424,-0.3248256742954254,-0.4351605176925659,-0.16937996447086334,0.9901719093322754,0.7003368735313416,-0.16308873891830444,-0.18314360082149506,3.4922120571136475,-1.1595019102096558,-0.18045181035995483,-0.4710991382598877,-2.9557089805603027,-0.24849188327789307,-0.15739691257476807,0.0424838624894619,-0.2238970696926117,0.053150348365306854,0.020787689834833145,0.2763362526893616,-0.08099900186061859,0.026613280177116394,0.1854437291622162,0.15964795649051666,0.03778862953186035,0.23064380884170532,0.159798264503479,0.03869016841053963,0.6608439683914185,0.48013782501220703,0.37039914727211,0.005071235820651054,0.22368699312210083,0.03256729990243912,0.7918336391448975,0.38285136222839355,0.262228786945343,-0.014887828379869461,0.26837778091430664,-0.043241750448942184,0.47989481687545776,0.6508726477622986,0.38849297165870667,0.7079834938049316,-0.019993586465716362,0.3680928945541382,-0.5041691660881042,-0.6740708947181702,0.20240896940231323
0.008897279389202595,-0.019241705536842346,0.32681509852409363,-0.0670541301369667,-0.029879426583647728,0.007862221449613571,0.9972708225250244,0.10777132213115692,0.03929150849580765,-0.049215614795684814,0.41528427600860596,0.03366059064865112,0.29252687096595764,-0.16807414591312408,0.11662289500236511,-0.1643827110528946,-0.04855339229106903,0.520824134349823,0.6785564422607422,0.9073917865753174,0.7664068341255188,-1.7500219345092773,-1.6760730743408203,-1.5221590995788574,-1.5741608142852783,-0.27691546082496643,-0.48250386118888855,-0.1838756650686264,1.126637578010559,0.9474097490310669,-0.19888482987880707,-0.27938130497932434,3.6166718006134033,-1.2526458501815796,-0.19186308979988098,-0.36260002851486206,-2.8073506355285645,-0.24678394198417664,-0.15796248614788055,0.04390888661146164,-0.22403749823570251,0.05296042189002037,0.02071395516395569,0.27600353956222534,-0.08089301735162735,0.02648000419139862,0.1911410093307495,0.15748198330402374,0.03958998620510101,0.2747035026550293,0.15439502894878387,0.05524216592311859,0.646012008190155,0.3696135878562927,0.3537764549255371,-0.025341084226965904,0.23582299053668976,0.054557718336582184,0.843623161315918,0.48244336247444153,0.2677522897720337,-0.040163539350032806,0.27830445766448975,-0.06966161727905273,0.506401538848877,0.6871190071105957,0.39567723870277405,0.7423629760742188,-0.04081206023693085,0.349717915058136,-0.5890949964523315,-0.9190045595169067,0.20328259468078613
0.009795754216611385,-0.01891348883509636,0.3264042139053345,-0.06821370124816895,-0.02965385653078556,0.009610888548195362,0.9971835613250732,0.10433267056941986,0.03880689665675163,-0.0427253358066082,0.4111708998680115,0.08658955991268158,0.31067365407943726,-0.17038346827030182,0.11259840428829193,-0.16591645777225494,-0.03915682062506676,0.5287262797355652,0.6768979430198669,0.9050610065460205,0.7965682148933411,-1.76046884059906,-1.6776732206344604,-1.5251829624176025,-1.597571611404419,-0.2228231132030487,-0.5189930200576782,-0.1768614947795868,1.2544314861297607,1.1649097204208374,-0.2482864409685135,-0.402214914560318,3.5544800758361816,-1.3123087882995605,-0.2049795687198639,-0.22982294857501984,-2.4637694358825684,-0.24450570344924927,-0.15863555669784546,0.045336272567510605,-0.22421149909496307,0.052791573107242584,0.020645473152399063,0.2756763994693756,-0.08077900111675262,0.026346392929553986,0.19732534885406494,0.15508604049682617,0.041354723274707794,0.3115510046482086,0.14202050864696503,0.07320671528577805,0.6103382110595703,0.26129406690597534,0.3451317548751831,-0.06306203454732895,0.23838363587856293,0.07800187170505524,0.8664835691452026,0.6028416752815247,0.2794014513492584,-0.07097411155700684,0.2799808382987976,-0.09944914281368256,0.49531692266464233,0.7297716736793518,0.4106135070323944,0.7459388375282288,-0.06284521520137787,0.30028772354125977,-0.6791505217552185,-1.1649585962295532,0.22081558406352997
0.010665299370884895,-0.018590325489640236,0.32604852318763733,-0.06946034729480743,-0.02963588945567608,0.011398959904909134,0.9970792531967163,0.10241859406232834,0.037435904145240784,-0.03487711027264595,0.3853456676006317,0.14162401854991913,0.325068861246109,-0.1722412258386612,0.10826955735683441,-0.16739121079444885,-0.028693756088614464,0.5384432077407837,0.6748263239860535,0.901706337928772,0.8262120485305786,-1.771412968635559,-1.6793830394744873,-1.5270990133285522,-1.6181169748306274,-0.142550989985466,-0.5398866534233093,-0.15729086101055145,1.351784110069275,1.3667969703674316,-0.30477526783943176,-0.5444679856300354,3.5237276554107666,-1.317105770111084,-0.2102876752614975,-0.08133678883314133,-2.20127010345459,-0.24167996644973755,-0.15941491723060608,0.04671800509095192,-0.224442258477211,0.0526290237903595,0.02058330923318863,0.27534911036491394,-0.08065331727266312,0.026205584406852722,0.2037799209356308,0.15251654386520386,0.042898669838905334,0.3493044376373291,0.11880413442850113,0.08881665766239166,0.5335355997085571,0.11283647269010544,0.32608264684677124,-0.09990087151527405,0.22941625118255615,0.09991796314716339,0.8518716096878052,0.7227081060409546,0.28682848811149597,-0.10384782403707504,0.26916345953941345,-0.12930041551589966,0.4494606852531433,0.7764012813568115,0.4216039776802063,0.7479216456413269,-0.08387184143066406,0.26388975977897644,-0.7665062546730042,-1.3560515642166138,0.24494785070419312
0.011519776657223701,-0.018277276307344437,0.3257578909397125,-0.07078680396080017,-0.029858073219656944,0.013149663805961609,0.9969577789306641,0.10000045597553253,0.03511729836463928,-0.027167145162820816,0.3584887683391571,0.19162435829639435,0.3357138931751251,-0.17342938482761383,0.10376739501953125,-0.16870221495628357,-0.017420616000890732,0.549843430519104,0.6722848415374756,0.897164523601532,0.8555980324745178,-1.782397747039795,-1.6811364889144897,-1.5277762413024902,-1.6364725828170776,-0.04261142387986183,-0.548372745513916,-0.13136598467826843,1.3949131965637207,1.563897967338562,-0.36281776428222656,-0.6638316512107849,3.3569343090057373,-1.2838104963302612,-0.2101314812898636,0.06283077597618103,-1.8428146839141846,-0.23827850818634033,-0.1603010892868042,0.0479736253619194,-0.22470049560070038,0.05247605964541435,0.020519286394119263,0.27502742409706116,-0.08051130920648575,0.026052266359329224,0.21050408482551575,0.14988330006599426,0.044413551688194275,0.38916242122650146,0.09205838292837143,0.09839173406362534,0.44228726625442505,-0.07641652971506119,0.2983418107032776,-0.13463608920574188,0.21620208024978638,0.11924398690462112,0.8240466713905334,0.8321080207824707,0.2907692492008209,-0.12985779345035553,0.25446367263793945,-0.15537291765213013,0.39895114302635193,0.7988145351409912,0.4259466230869293,0.726384699344635,-0.09453774243593216,0.21699932217597961,-0.8058528900146484,-1.5051279067993164,0.27503839135169983
0.012354112230241299,-0.017985252663493156,0.32553133368492126,-0.07216107845306396,-0.030296996235847473,0.014830200001597404,0.9968224167823792,0.09630102664232254,0.03260453790426254,-0.02003173530101776,0.33540868759155273,0.2279520183801651,0.3430328667163849,-0.1737847477197647,0.09919434040784836,-0.16979767382144928,-0.0057868752628564835,0.5628873705863953,0.6692582964897156,0.891627848148346,0.883592426776886,-1.7931040525436401,-1.6828886270523071,-1.52725088596344,-1.651838779449463,0.06325604766607285,-0.5542587041854858,-0.11439111828804016,1.4033660888671875,1.7524597644805908,-0.400563508272171,-0.7501901984214783,3.115509271621704,-1.2113497257232666,-0.19758544862270355,0.18147970736026764,-1.4313538074493408,-0.23431649804115295,-0.16130000352859497,0.04907067492604256,-0.2249969244003296,0.052324339747428894,0.02045596018433571,0.27473825216293335,-0.08037392795085907,0.025885753333568573,0.2172827571630478,0.14727939665317535,0.04580790549516678,0.43154177069664,0.0671386867761612,0.09843623638153076,0.3549736738204956,-0.31073692440986633,0.26408448815345764,-0.1589474380016327,0.20439790189266205,0.1326688528060913,0.8014883995056152,0.8954433798789978,0.29602324962615967,-0.14853636920452118,0.24250292778015137,-0.1738351285457611,0.36225178837776184,0.8013803362846375,0.4265572726726532,0.6968642473220825,-0.09788340330123901,0.16544800996780396,-0.8093852996826172,-1.6412948369979858,0.30870482325553894
0.013156896457076073,-0.017713095992803574,0.325364351272583,-0.07355821132659912,-0.030891623347997665,0.016434745863080025,0.9966768622398376,0.08703053742647171,0.032009609043598175,-0.017960142344236374,0.3209860920906067,0.23357361555099487,0.37035202980041504,-0.17325593531131744,0.09457110613584518,-0.17075182497501373,0.005916649010032415,0.5775027871131897,0.6659181118011475,0.8853708505630493,0.9095737934112549,-1.8032050132751465,-1.6845364570617676,-1.525736927986145,-1.6637743711471558,0.15586523711681366,-0.5617110729217529,-0.07484722137451172,1.4088308811187744,1.9070885181427002,-0.39542046189308167,-0.7515186667442322,2.9102535247802734,-1.0793402194976807,-0.18095917999744415,0.23306038975715637,-1.0704576969146729,-0.2298426330089569,-0.1623976081609726,0.049996547400951385,-0.22531436383724213,0.052186399698257446,0.02039368823170662,0.27447012066841125,-0.08022945374250412,0.025705136358737946,0.22398824989795685,0.14475373923778534,0.046992912888526917,0.47486114501953125,0.04662659764289856,0.07695819437503815,0.2949625253677368,-0.5995569229125977,0.24920161068439484,-0.16873225569725037,0.19460740685462952,0.13313882052898407,0.7954768538475037,0.8822551965713501,0.3278830349445343,-0.1479765772819519,0.2339334338903427,-0.17539474368095398,0.3148467540740967,0.752223551273346,0.443602591753006,0.6728800535202026,-0.09209663420915604,0.12417597323656082,-0.8027151226997375,-1.7929835319519043,0.36649638414382935
0.013882668688893318,-0.017445912584662437,0.32521432638168335,-0.0750541239976883,-0.031501758843660355,0.0179750919342041,0.9965196251869202,0.07896972447633743,0.03180409595370293,-0.01703733019530773,0.2985571324825287,0.22244682908058167,0.40034082531929016,-0.17195582389831543,0.08988725394010544,-0.17137524485588074,0.017666645348072052,0.5934086441993713,0.6626204252243042,0.8791034817695618,0.9338454008102417,-1.8122061491012573,-1.6860458850860596,-1.52379310131073,-1.672698736190796,0.21850886940956116,-0.5739070773124695,-0.03281097486615181,1.4707144498825073,2.0253093242645264,-0.3872130215167999,-0.7377845644950867,2.9387030601501465,-0.9375810027122498,-0.15264323353767395,0.2577417194843292,-0.7032269239425659,-0.22499504685401917,-0.1635911762714386,0.050718437880277634,-0.22569163143634796,0.052041858434677124,0.020336303859949112,0.2742260694503784,-0.08009546995162964,0.025511421263217926,0.23052284121513367,0.14233864843845367,0.04792003333568573,0.5151285529136658,0.030636869370937347,0.052212193608284,0.25422656536102295,-0.8751941919326782,0.2450413852930069,-0.1704971194267273,0.18355919420719147,0.12636184692382812,0.7882128953933716,0.8387098908424377,0.36468666791915894,-0.14115823805332184,0.2227848768234253,-0.16890642046928406,0.25535261631011963,0.6973137259483337,0.46477997303009033,0.7268031239509583,-0.09386666119098663,0.08868676424026489,-0.8234430551528931,-2.2064900398254395,0.4420017600059509
0.014541205018758774,-0.017180632799863815,0.3250720798969269,-0.07669994980096817,-0.032084349542856216,0.019441409036517143,0.9963482618331909,0.07922977954149246,0.032553061842918396,-0.008708525449037552,0.2568014860153198,0.23775921761989594,0.4264829456806183,-0.1701328307390213,0.08510050922632217,-0.17164841294288635,0.02993345633149147,0.6102995276451111,0.6593906283378601,0.8729500770568848,0.9583536982536316,-1.820024013519287,-1.6873183250427246,-1.5216436386108398,-1.678560495376587,0.26204967498779297,-0.574397087097168,0.02545025572180748,1.6479432582855225,2.099808931350708,-0.4286666214466095,-0.8104929327964783,2.9376556873321533,-0.818459153175354,-0.10868360847234726,0.3515929579734802,-0.24099217355251312,-0.21984857320785522,-0.16484434902668,0.05125124379992485,-0.22613617777824402,0.051883988082408905,0.02028099074959755,0.2739948630332947,-0.07995110750198364,0.02530529350042343,0.2374570071697235,0.14000971615314484,0.04861075431108475,0.5432263016700745,0.013696764595806599,0.05087004601955414,0.20432999730110168,-1.0569932460784912,0.24931108951568604,-0.18300911784172058,0.1632394790649414,0.12969160079956055,0.7451508045196533,0.8534232974052429,0.3925715684890747,-0.1472797989845276,0.20005756616592407,-0.17308653891086578,0.1579146683216095,0.6829829812049866,0.4833519458770752,0.7984400987625122,-0.13306324183940887,0.033026471734046936,-0.9651508331298828,-2.6751420497894287,0.524208128452301
0.015202325768768787,-0.016909541562199593,0.3249991238117218,-0.07846345752477646,-0.032755814492702484,0.02075961045920849,0.9961624145507812,0.08483462035655975,0.03136272355914116,0.0013245419831946492,0.2209969162940979,0.2504059374332428,0.4306207001209259,-0.1679479479789734,0.08031048625707626,-0.17143623530864716,0.04367867857217789,0.6278123259544373,0.6558147668838501,0.8661902546882629,0.9828512072563171,-1.8268489837646484,-1.6882240772247314,-1.5187104940414429,-1.6805680990219116,0.24517546594142914,-0.5866222381591797,0.05227717384696007,1.86460280418396,2.1325602531433105,-0.4745708405971527,-0.8696718811988831,2.6665353775024414,-0.6705812811851501,-0.036444131284952164,0.43275701999664307,0.21384400129318237,-0.21438688039779663,-0.1660710871219635,0.051641661673784256,-0.2266024351119995,0.05173958092927933,0.02023320272564888,0.2737990915775299,-0.07980133593082428,0.02509722113609314,0.2450682520866394,0.13753829896450043,0.04905837029218674,0.5646060109138489,0.01608286239206791,0.04401087760925293,0.21947833895683289,-1.2195240259170532,0.2387964278459549,-0.18623872101306915,0.15056650340557098,0.13062886893749237,0.7230122089385986,0.8440793752670288,0.40243467688560486,-0.14824488759040833,0.18059581518173218,-0.174545019865036,0.09765473008155823,0.6697003245353699,0.48167312145233154,0.8103482127189636,-0.20182782411575317,-0.029590047895908356,-1.1793323755264282,-2.878777503967285,0.5742130279541016
0.01590965874493122,-0.016647839918732643,0.32501083612442017,-0.08024051040410995,-0.03349904343485832,0.02194240130484104,0.9959707260131836,0.09162680059671402,0.027118168771266937,0.007114024832844734,0.2177053987979889,0.24409319460391998,0.42272254824638367,-0.16590331494808197,0.07541795074939728,-0.1710006594657898,0.05923103168606758,0.6455991864204407,0.6518571376800537,0.8589382767677307,1.005086898803711,-1.832440733909607,-1.688527226448059,-1.515101671218872,-1.6787816286087036,0.20339763164520264,-0.6269251704216003,0.037342824041843414,2.2417514324188232,2.424097776412964,-0.48798343539237976,-0.8633816838264465,2.16031813621521,-0.5265072584152222,0.023985205218195915,0.44872617721557617,0.6359285712242126,-0.20868420600891113,-0.1671212911605835,0.05186634883284569,-0.2270280122756958,0.05166277661919594,0.0201803557574749,0.2736630141735077,-0.079642154276371,0.024901285767555237,0.2528526484966278,0.13465024530887604,0.04917530715465546,0.654417097568512,0.04558699205517769,0.010434597730636597,0.3357819616794586,-1.6463617086410522,0.18935926258563995,-0.17577354609966278,0.1564658284187317,0.1281663179397583,0.7643346786499023,0.8001547455787659,0.40478989481925964,-0.1367415487766266,0.17730854451656342,-0.16814592480659485,0.1112615317106247,0.6437270641326904,0.47064101696014404,0.7743139266967773,-0.3275770843029022,-0.10468113422393799,-1.5597270727157593,-2.8638768196105957,0.5830356478691101
0.016673296689987183,-0.016422061249613762,0.32507050037384033,-0.0819915160536766,-0.0342152900993824,0.023113740608096123,0.9957773089408875,0.10007171332836151,0.023836774751544,0.012118970975279808,0.19494059681892395,0.2172773778438568,0.4137546420097351,-0.16420681774616241,0.07018940150737762,-0.1706891655921936,0.07792780548334122,0.6658164858818054,0.647787868976593,0.8517377376556396,1.0230987071990967,-1.8368300199508667,-1.6883269548416138,-1.5113592147827148,-1.6734747886657715,0.22119145095348358,-0.6385819911956787,0.04772183671593666,2.388739824295044,2.6300888061523438,-0.4969152808189392,-0.8306824564933777,1.4880719184875488,-0.29772937297821045,0.09827063232660294,0.41976016759872437,1.1535893678665161,-0.2022583782672882,-0.1679142266511917,0.05186197906732559,-0.22740012407302856,0.05164699628949165,0.02013203874230385,0.273592084646225,-0.07949239760637283,0.02472361922264099,0.2603204548358917,0.13071922957897186,0.04869156330823898,0.7407416701316833,0.05490593612194061,-0.02865779399871826,0.37675589323043823,-2.1021921634674072,0.13837973773479462,-0.15330274403095245,0.14988045394420624,0.1146947517991066,0.7611470222473145,0.7133232355117798,0.4064493775367737,-0.11616048216819763,0.16035479307174683,-0.14765506982803345,0.07746722549200058,0.6113042235374451,0.459332674741745,0.7116338610649109,-0.4042433500289917,-0.1850489377975464,-1.7449989318847656,-2.763667106628418,0.6009945869445801
0.0175083726644516,-0.016223248094320297,0.3251706063747406,-0.08372044563293457,-0.03484326973557472,0.02417781762778759,0.9955862760543823,0.1111706867814064,0.021120447665452957,0.012557150796055794,0.15963073074817657,0.18700815737247467,0.40858766436576843,-0.16236206889152527,0.06486361473798752,-0.1702907383441925,0.09784587472677231,0.687751293182373,0.6436430811882019,0.844810426235199,1.0355032682418823,-1.8393117189407349,-1.687507152557373,-1.507859468460083,-1.6638485193252563,0.23887263238430023,-0.6205175518989563,0.06382833421230316,1.873656153678894,2.6824848651885986,-0.49313944578170776,-0.7755788564682007,0.6146776676177979,-0.05479566007852554,0.13859954476356506,0.3429946005344391,2.0862271785736084,-0.1952124387025833,-0.16852959990501404,0.051593929529190063,-0.22771207988262177,0.051687873899936676,0.020091399550437927,0.27357354760169983,-0.07935821264982224,0.02457747608423233,0.26716551184654236,0.12624740600585938,0.047523289918899536,0.7965027689933777,0.05384724959731102,-0.0626322478055954,0.38378632068634033,-2.4249331951141357,0.10971254110336304,-0.12660767138004303,0.13160236179828644,0.09861685335636139,0.7132484316825867,0.6389439105987549,0.40713194012641907,-0.09267175942659378,0.13858675956726074,-0.12299986928701401,0.02111804112792015,0.5992142558097839,0.4544519782066345,0.642951250076294,-0.30541691184043884,-0.2992708384990692,-1.259021520614624,-2.7644903659820557,0.6941694021224976
0.018435252830386162,-0.016046471893787384,0.32527536153793335,-0.08542219549417496,-0.035374898463487625,0.025064993649721146,0.99540114402771,0.11963226646184921,0.018537404015660286,0.009911303408443928,0.12718769907951355,0.16839253902435303,0.40255600214004517,-0.16037039458751678,0.05968870595097542,-0.16975846886634827,0.11346866935491562,0.7101234197616577,0.6395307183265686,0.8383426666259766,1.0406252145767212,-1.8397661447525024,-1.6863516569137573,-1.5049993991851807,-1.6464437246322632,0.23193103075027466,-0.604850172996521,0.07016760110855103,1.2634577751159668,2.7161335945129395,-0.4723566174507141,-0.7145398855209351,-0.1827535778284073,0.28932109475135803,0.15035119652748108,0.2679440975189209,2.9018890857696533,-0.18782232701778412,-0.16898104548454285,0.05107131600379944,-0.2279438078403473,0.051769908517599106,0.020069535821676254,0.2736106812953949,-0.07921706885099411,0.024470165371894836,0.27332520484924316,0.12275493144989014,0.04537980258464813,0.8533041477203369,0.06321530044078827,-0.11492227762937546,0.4343588054180145,-2.812370777130127,0.07507361471652985,-0.10483613610267639,0.11603042483329773,0.08672882616519928,0.6690397262573242,0.5878199338912964,0.4054437577724457,-0.07349079102277756,0.12113239616155624,-0.10539510846138,-0.021492023020982742,0.5928436517715454,0.44845637679100037,0.5666937828063965,-0.18013456463813782,-0.40399736166000366,-0.6830219030380249,-2.694035053253174,0.7768438458442688
0.019433563575148582,-0.01589186303317547,0.32535818219184875,-0.08708885312080383,-0.03585761785507202,0.025797802954912186,0.9952207207679749,0.13053716719150543,0.015001426450908184,0.008254507556557655,0.0951554924249649,0.13632051646709442,0.3786117434501648,-0.15843641757965088,0.05464402586221695,-0.16917315125465393,0.12400306761264801,0.7327746748924255,0.6355910897254944,0.8323841691017151,1.0390974283218384,-1.8373521566390991,-1.6850972175598145,-1.502765417098999,-1.6222420930862427,0.20038583874702454,-0.5820009708404541,0.0691673755645752,0.8649889230728149,2.6423044204711914,-0.46329885721206665,-0.6436614394187927,-0.630835235118866,0.5079113841056824,0.18155823647975922,0.18543469905853271,3.0541393756866455,-0.18002238869667053,-0.16919757425785065,0.05010811612010002,-0.22807586193084717,0.05189836397767067,0.02005048096179962,0.27372637391090393,-0.0790538638830185,0.02439805120229721,0.2787787914276123,0.12045460939407349,0.04237295687198639,0.876667320728302,0.0716012567281723,-0.14077231287956238,0.469511479139328,-2.98063588142395,0.049288973212242126,-0.07583679258823395,0.10128546506166458,0.06928575038909912,0.6197539567947388,0.5142686367034912,0.3860051929950714,-0.04744686186313629,0.10057300329208374,-0.0823436751961708,-0.05609966069459915,0.5719149112701416,0.4248206317424774,0.48239022493362427,-0.1094694435596466,-0.42131537199020386,-0.364833801984787,-2.3667218685150146,0.7578168511390686
0.020521927624940872,-0.015767337754368782,0.32542720437049866,-0.08866119384765625,-0.036244504153728485,0.02636869065463543,0.9950528740882874,0.14064516127109528,0.011062157340347767,0.008054601028561592,0.054511722177267075,0.10633061081171036,0.35519474744796753,-0.15676535665988922,0.04979103058576584,-0.1685962975025177,0.13121479749679565,0.7548103332519531,0.6317272782325745,0.8270161747932434,1.0338363647460938,-1.833114743232727,-1.6835825443267822,-1.501218557357788,-1.5967738628387451,0.18675795197486877,-0.5496683716773987,0.07229195535182953,0.5177060961723328,2.504751682281494,-0.48906680941581726,-0.5890653133392334,-0.7562562823295593,0.7040811777114868,0.23274055123329163,0.10956130176782608,2.6706061363220215,-0.1721494197845459,-0.16918867826461792,0.048949867486953735,-0.22811371088027954,0.052078742533922195,0.020037617534399033,0.27391642332077026,-0.07888126373291016,0.024351850152015686,0.28338584303855896,0.11890964210033417,0.039167650043964386,0.8832041025161743,0.06839175522327423,-0.15574368834495544,0.46283993124961853,-3.065295934677124,0.030327169224619865,-0.05502421036362648,0.07946591079235077,0.05028708279132843,0.5503920316696167,0.4554077982902527,0.36448654532432556,-0.02621517702937126,0.07560127973556519,-0.05932512879371643,-0.10513648390769958,0.5617582201957703,0.4026111364364624,0.38381335139274597,-0.041899897158145905,-0.3657872676849365,-0.1416865885257721,-1.8398879766464233,0.6815288662910461
0.021695459261536598,-0.01567491702735424,0.3254946172237396,-0.09012885391712189,-0.03655247390270233,0.026739642024040222,0.9948999285697937,0.15122319757938385,0.006813839077949524,0.010416841134428978,0.004428701475262642,0.07387718558311462,0.33046427369117737,-0.155207559466362,0.04520661383867264,-0.16799381375312805,0.13553044199943542,0.7756991386413574,0.6276480555534363,0.8221033215522766,1.0275288820266724,-1.8272416591644287,-1.6816414594650269,-1.500305414199829,-1.5745047330856323,0.24942877888679504,-0.5098753571510315,0.09164595603942871,0.24972371757030487,2.403794765472412,-0.5478950142860413,-0.5443976521492004,-0.7282764315605164,0.9266021847724915,0.2995670735836029,0.054012615233659744,2.1439034938812256,-0.1643359661102295,-0.16900359094142914,0.04764629155397415,-0.2281094342470169,0.05230460315942764,0.02001899480819702,0.27415356040000916,-0.07869509607553482,0.02433495968580246,0.2870400547981262,0.11813749372959137,0.0363922193646431,0.9080254435539246,0.04517751187086105,-0.16730999946594238,0.38330063223838806,-3.2275443077087402,-0.002444208599627018,-0.03979416564106941,0.051431190222501755,0.030616458505392075,0.46152397990226746,0.4094800651073456,0.3390811085700989,-0.002430461347103119,0.042646706104278564,-0.03451899439096451,-0.17760388553142548,0.536020040512085,0.37698885798454285,0.30244338512420654,0.008004242554306984,-0.2906802296638489,-0.006598342210054398,-1.3403310775756836,0.5878651738166809
0.022956086322665215,-0.015617610886693,0.3255809545516968,-0.09151231497526169,-0.03679090365767479,0.026875363662838936,0.994761049747467,0.16136623919010162,0.002340317238122225,0.012246145866811275,-0.05698418617248535,0.046772606670856476,0.31111860275268555,-0.15312667191028595,0.040955543518066406,-0.16722886264324188,0.1376117616891861,0.7957444190979004,0.623079240322113,0.8175640106201172,1.02145516872406,-1.8195124864578247,-1.6791431903839111,-1.4998550415039062,-1.5566269159317017,0.3606831431388855,-0.4528777301311493,0.11893662810325623,0.032774679362773895,2.193474531173706,-0.6117692589759827,-0.512248158454895,-0.7539729475975037,1.1354825496673584,0.3453058898448944,-0.007649729028344154,1.7531089782714844,-0.15642428398132324,-0.16877734661102295,0.04620099440217018,-0.22811812162399292,0.05255475640296936,0.02000197395682335,0.27445799112319946,-0.07850450277328491,0.024350427091121674,0.2898748517036438,0.118050716817379,0.03422636538743973,0.906800389289856,-0.0016643283888697624,-0.1687869131565094,0.22150477766990662,-3.273487091064453,-0.02109481208026409,-0.02992221713066101,0.01352718286216259,0.013577936217188835,0.3399878740310669,0.3910078704357147,0.315146803855896,0.015393685549497604,0.004280027002096176,-0.010436208918690681,-0.2726879119873047,0.5322458148002625,0.3583132028579712,0.22945964336395264,0.03941761702299118,-0.24357715249061584,0.07840391248464584,-0.9245383739471436,0.5049526691436768
0.02430197037756443,-0.015598606318235397,0.32568368315696716,-0.09281806647777557,-0.03699219971895218,0.0267333947122097,0.9946364760398865,0.1723141074180603,-0.003774114418774843,0.015933047980070114,-0.13224387168884277,0.014436781406402588,0.29540345072746277,-0.15011799335479736,0.03717855364084244,-0.16623687744140625,0.13788378238677979,0.8140349984169006,0.6179760694503784,0.8132918477058411,1.0151668787002563,-1.8100425004959106,-1.6762627363204956,-1.4999195337295532,-1.5420092344284058,0.37722575664520264,-0.4061080515384674,0.15522709488868713,-0.11598770320415497,1.7325193881988525,-0.6837393641471863,-0.5006893873214722,-0.7921069264411926,1.2261383533477783,0.4127611815929413,-0.05108790844678879,1.3762462139129639,-0.14860978722572327,-0.1686515063047409,0.04464489221572876,-0.22815079987049103,0.0528075248003006,0.0200001560151577,0.2748095691204071,-0.07830839604139328,0.024409979581832886,0.2919943034648895,0.11854135245084763,0.03249488025903702,0.8267245292663574,-0.04783250391483307,-0.15329259634017944,0.06717721372842789,-2.947249174118042,0.004539778921753168,-0.01819850131869316,-0.028390798717737198,-0.006686219945549965,0.2170831561088562,0.35549551248550415,0.29698213934898376,0.033222027122974396,-0.04185397922992706,0.015149668790400028,-0.3909429609775543,0.5237137675285339,0.34299853444099426,0.1596997082233429,0.044870056211948395,-0.2025562822818756,0.08080883324146271,-0.5279982089996338,0.41805970668792725
0.02573901228606701,-0.015629678964614868,0.32581645250320435,-0.09406053274869919,-0.03715227171778679,0.02625333145260811,0.9945265650749207,0.18355228006839752,-0.00962722860276699,0.020123910158872604,-0.1857970505952835,0.010065312497317791,0.28639981150627136,-0.1469726860523224,0.0337919145822525,-0.16494233906269073,0.13691580295562744,0.8284798264503479,0.6122741103172302,0.8091163635253906,1.008560299873352,-1.7998164892196655,-1.6728203296661377,-1.5003458261489868,-1.5305336713790894,0.23150625824928284,-0.3842272460460663,0.15682515501976013,-0.20609495043754578,1.058403730392456,-0.7280908823013306,-0.5328172445297241,-0.8697690367698669,1.2244949340820312,0.45047417283058167,-0.04836670681834221,1.0400248765945435,-0.1415782868862152,-0.16854988038539886,0.04307348281145096,-0.22821204364299774,0.05310060828924179,0.020018577575683594,0.27518901228904724,-0.07809993624687195,0.02449434995651245,0.29340648651123047,0.11946512758731842,0.031162284314632416,0.6641250848770142,-0.06099855527281761,-0.13859374821186066,0.03188891336321831,-2.2640340328216553,0.07121121883392334,-0.01239099632948637,-0.05694590508937836,-0.01258166879415512,0.13994134962558746,0.35444241762161255,0.28712737560272217,0.036103505641222,-0.06888282299041748,0.022791722789406776,-0.4530778229236603,0.547096312046051,0.3366742432117462,0.08023196458816528,0.03824051469564438,-0.17706109583377838,0.04547640308737755,-0.1153685674071312,0.33373984694480896
0.027269987389445305,-0.01571056619286537,0.32598456740379333,-0.0952773168683052,-0.03736167401075363,0.0255527812987566,0.994421124458313,0.20437559485435486,-0.014266357757151127,0.030857183039188385,-0.21025049686431885,0.0601373091340065,0.2582443058490753,-0.1450440138578415,0.030587313696742058,-0.16363470256328583,0.1351979523897171,0.8373018503189087,0.6062009334564209,0.8046715259552002,1.0013028383255005,-1.7896052598953247,-1.6690630912780762,-1.5007487535476685,-1.521862506866455,-0.004187032114714384,-0.4072192907333374,0.09406866878271103,-0.16243590414524078,0.2899559736251831,-0.8293905258178711,-0.6774407625198364,-1.4854204654693604,1.1257473230361938,0.47407233715057373,0.04122389853000641,0.6108238101005554,-0.1359015703201294,-0.16831034421920776,0.04146315157413483,-0.22822175920009613,0.053416766226291656,0.02004622295498848,0.27560123801231384,-0.07783897966146469,0.02459365874528885,0.2941538095474243,0.12060724198818207,0.030171073973178864,0.44767242670059204,-0.047382839024066925,-0.1132233738899231,0.07282169908285141,-1.321578860282898,0.13591785728931427,-0.032120056450366974,-0.06136379390954971,0.011244695633649826,0.12267888337373734,0.48584482073783875,0.2551211416721344,0.008018940687179565,-0.07347461581230164,0.0015886276960372925,-0.4283033013343811,0.6621635556221008,0.31856101751327515,-0.16667425632476807,-0.04523884132504463,-0.20333510637283325,-0.20444519817829132,0.9358262419700623,0.1019115075469017
0.028974322602152824,-0.015829334035515785,0.32624179124832153,-0.09639263153076172,-0.03780904784798622,0.024808106943964958,0.9943155646324158,0.22042742371559143,-0.017921237275004387,0.03640195354819298,-0.20025280117988586,0.0953935831785202,0.24086588621139526,-0.14507943391799927,0.02719070017337799,-0.1628503054380417,0.13384006917476654,0.8397158980369568,0.5992835760116577,0.7990208268165588,0.9889127612113953,-1.7802172899246216,-1.6651091575622559,-1.5004044771194458,-1.516769289970398,-0.18614742159843445,-0.4434114396572113,0.034349724650382996,-0.5189288854598999,-0.2708989679813385,-0.8929101824760437,-0.7647451162338257,-1.7484030723571777,0.9795067310333252,0.4727599024772644,0.09943238645792007,0.42893192172050476,-0.13178634643554688,-0.1678594946861267,0.03985968232154846,-0.22813186049461365,0.05379360169172287,0.020079974085092545,0.27604493498802185,-0.07749652862548828,0.024725303053855896,0.2930893898010254,0.12117267400026321,0.02926473319530487,0.27819502353668213,-0.03106035478413105,-0.09417944401502609,0.1231859102845192,-0.5601525902748108,0.19164882600307465,-0.0463196262717247,-0.05173492431640625,0.033049263060092926,0.15484380722045898,0.5924155712127686,0.23692722618579865,-0.007772587239742279,-0.06332308053970337,-0.016198664903640747,-0.3671065866947174,0.7367820143699646,0.308700829744339,-0.2943355441093445,0.03604743257164955,-0.19759501516819,0.07341640442609787,1.4701979160308838,0.028006384149193764
0.030813012272119522,-0.015979314222931862,0.32654523849487305,-0.09743738919496536,-0.03839191794395447,0.024145564064383507,0.9942077398300171,0.23719476163387299,-0.02770303003489971,0.04246645048260689,-0.22404979169368744,0.12596525251865387,0.19104239344596863,-0.14663326740264893,0.023493293672800064,-0.1625649780035019,0.12951180338859558,0.8374543190002441,0.591836154460907,0.7926425933837891,0.9743320345878601,-1.7720494270324707,-1.6611669063568115,-1.4995743036270142,-1.5131927728652954,-0.3120096027851105,-0.4299255311489105,-0.026560595259070396,-0.6296448707580566,-0.6789886951446533,-0.9527561068534851,-0.8638961911201477,-1.7521476745605469,0.7971701622009277,0.46387162804603577,0.13798752427101135,0.37861597537994385,-0.12892498075962067,-0.16732819378376007,0.038357146084308624,-0.22798463702201843,0.05418587848544121,0.02013658732175827,0.27653074264526367,-0.07712989300489426,0.024871662259101868,0.29112833738327026,0.12236149609088898,0.02854575216770172,0.1410633623600006,-0.035275816917419434,-0.06171558424830437,0.10494966059923172,0.07173753529787064,0.2026844173669815,-0.052893638610839844,-0.0644606202840805,0.04975331574678421,0.10358855873346329,0.6884924173355103,0.18328021466732025,-0.030464570969343185,-0.07922695577144623,-0.027989961206912994,-0.3450529873371124,0.8378229737281799,0.2701982855796814,-0.3012623190879822,0.03816055878996849,-0.1893886774778366,0.14479759335517883,1.5765122175216675,-0.01609824411571026
0.03279119357466698,-0.016210239380598068,0.3268996477127075,-0.09826371818780899,-0.039120882749557495,0.023436566814780235,0.9941149353981018,0.2501927316188812,-0.04142511263489723,0.04827338457107544,-0.26328131556510925,0.1368706226348877,0.12526662647724152,-0.14923585951328278,0.019908202812075615,-0.16278688609600067,0.12426195293664932,0.8317896723747253,0.5838901996612549,0.7854369878768921,0.9597207307815552,-1.7654026746749878,-1.6572984457015991,-1.4984235763549805,-1.5100363492965698,-0.3889821469783783,-0.3861989974975586,-0.06485877186059952,-0.42784416675567627,-0.9567815065383911,-1.0013313293457031,-0.9528109431266785,-1.4076842069625854,0.629773736000061,0.4604986310005188,0.1515112668275833,0.2163730412721634,-0.12705709040164948,-0.16672265529632568,0.03699678182601929,-0.22772715985774994,0.05458677560091019,0.020220112055540085,0.2769867777824402,-0.07678914815187454,0.02503979206085205,0.289272278547287,0.12367723882198334,0.028089210391044617,0.04059900715947151,-0.05213103070855141,-0.02814570441842079,0.050408028066158295,0.5322444438934326,0.18459409475326538,-0.050426408648490906,-0.08961561322212219,0.05677010864019394,0.010514077730476856,0.7423011660575867,0.11345182359218597,-0.05187373235821724,-0.11547136306762695,-0.028626248240470886,-0.36360371112823486,0.9292815923690796,0.21641424298286438,-0.2034793645143509,-0.04602452367544174,-0.14971300959587097,-0.06162926182150841,1.3734967708587646,-0.05463749170303345
0.03487813472747803,-0.01655588299036026,0.32730185985565186,-0.0988294705748558,-0.03995004668831825,0.022583287209272385,0.9940456748008728,0.25669774413108826,-0.057885099202394485,0.052341729402542114,-0.3064851760864258,0.14276644587516785,0.06598911434412003,-0.1524798423051834,0.01668727397918701,-0.163327157497406,0.12069593369960785,0.8238098621368408,0.5755394101142883,0.7774906158447266,0.9479840397834778,-1.7601511478424072,-1.6534581184387207,-1.4971600770950317,-1.5082335472106934,-0.4315585196018219,-0.331880122423172,-0.08902029693126678,-0.18865258991718292,-1.1040464639663696,-1.036505937576294,-0.9910610914230347,-1.0555120706558228,0.4530677795410156,0.4544600248336792,0.15826112031936646,-0.04600946232676506,-0.1259419173002243,-0.1660616099834442,0.035781390964984894,-0.2273704707622528,0.05497809499502182,0.02033890038728714,0.277346670627594,-0.07653334736824036,0.02523147314786911,0.28831371665000916,0.12450692802667618,0.028115972876548767,-0.029367510229349136,-0.07704926282167435,0.009049177169799805,-0.01828956790268421,0.8621975779533386,0.1628303825855255,-0.049205899238586426,-0.12229105830192566,0.05955524742603302,-0.094628244638443,0.7782172560691833,0.0504714660346508,-0.06284762918949127,-0.15541689097881317,-0.025654245167970657,-0.39081740379333496,0.9702552556991577,0.16412490606307983,-0.12329588830471039,-0.14535829424858093,-0.10513807833194733,-0.3238755166530609,1.2462979555130005,-0.10966777801513672
0.037018973380327225,-0.017038000747561455,0.327738881111145,-0.09916558861732483,-0.04087803512811661,0.02154797874391079,0.9939974546432495,0.2669002115726471,-0.07514700293540955,0.05567478388547897,-0.29897540807724,0.1364356130361557,0.01627512276172638,-0.15607954561710358,0.013919252902269363,-0.16407041251659393,0.11912184208631516,0.8146016001701355,0.5668947696685791,0.7692258954048157,0.9391810297966003,-1.7563738822937012,-1.6496670246124268,-1.4958406686782837,-1.5086177587509155,-0.544206440448761,-0.34073537588119507,-0.14340980350971222,-0.1994553506374359,-1.2163615226745605,-1.073017954826355,-0.9712494015693665,-1.0104273557662964,0.25832512974739075,0.49289026856422424,0.1387537121772766,-0.20783913135528564,-0.12533706426620483,-0.16538108885288239,0.03473509103059769,-0.22694212198257446,0.05532652512192726,0.020479712635278702,0.2776818871498108,-0.0763578861951828,0.025456920266151428,0.2880844175815582,0.12475796043872833,0.0286710262298584,-0.08715816587209702,-0.0695890560746193,0.03581453859806061,0.03506558761000633,1.1767503023147583,0.15824827551841736,-0.04045631363987923,-0.12461412698030472,0.059363216161727905,-0.0787232294678688,0.7720523476600647,0.004917277488857508,-0.054360974580049515,-0.1665956974029541,-0.01952424645423889,-0.3309643864631653,0.974082350730896,0.12087024748325348,-0.12259446084499359,-0.17009510099887848,-0.0764155462384224,-0.32806193828582764,1.3557988405227661,-0.1741534173488617
0.039244864135980606,-0.017665576189756393,0.3282032608985901,-0.09930022805929184,-0.04181262105703354,0.02049381099641323,0.9939673542976379,0.27666833996772766,-0.08934542536735535,0.05564062297344208,-0.2982739806175232,0.11576370149850845,-0.022917915135622025,-0.1606195718050003,0.01107749342918396,-0.16526658833026886,0.11745841801166534,0.8044561743736267,0.5579457879066467,0.761125922203064,0.9307535886764526,-1.7542206048965454,-1.645556092262268,-1.4946836233139038,-1.5103516578674316,-0.6812598705291748,-0.3516981303691864,-0.18493971228599548,-0.2824563682079315,-1.3144735097885132,-1.082324504852295,-0.8743577599525452,-1.1790896654129028,0.09531079977750778,0.5464755892753601,0.038324467837810516,-0.14553648233413696,-0.12521937489509583,-0.16462881863117218,0.0339222177863121,-0.22645393013954163,0.05565926432609558,0.02062610536813736,0.2780766487121582,-0.07626628875732422,0.025721706449985504,0.28784751892089844,0.12481043487787247,0.029451772570610046,-0.13239529728889465,-0.05365578085184097,0.05302786827087402,0.11466294527053833,1.4364633560180664,0.16604766249656677,-0.019451245665550232,-0.12603235244750977,0.04786763712763786,-0.05907692760229111,0.7103989720344543,-0.02730460651218891,-0.030233394354581833,-0.17699521780014038,0.0007578618824481964,-0.29099327325820923,0.9647358655929565,0.0882016196846962,-0.1445343792438507,-0.17873886227607727,-0.08365713059902191,-0.2662688195705414,1.4554213285446167,-0.21966472268104553
0.04155205935239792,-0.018410084769129753,0.3286667764186859,-0.09926752001047134,-0.042627062648534775,0.019462041556835175,0.9939567446708679,0.28280922770500183,-0.10227223485708237,0.051726095378398895,-0.29254767298698425,0.06237905099987984,-0.06453529745340347,-0.16630078852176666,0.008145054802298546,-0.16680908203125,0.11510215699672699,0.7934932708740234,0.5489192008972168,0.753835141658783,0.9209184646606445,-1.7534267902374268,-1.6409988403320312,-1.4943650960922241,-1.5115634202957153,-0.744956374168396,-0.33378535509109497,-0.20359651744365692,-0.38537338376045227,-1.3976101875305176,-1.0881751775741577,-0.770465612411499,-1.3871303796768188,0.04026448354125023,0.6044125556945801,-0.12542694807052612,0.11421217024326324,-0.1255946308374405,-0.16374626755714417,0.033329978585243225,-0.2259126901626587,0.05597587674856186,0.020775221288204193,0.27855145931243896,-0.07627423107624054,0.02605750411748886,0.287307471036911,0.12477663159370422,0.030059732496738434,-0.14959317445755005,-0.04907539114356041,0.04974324256181717,0.1531762182712555,1.5286364555358887,0.15629656612873077,0.011228702962398529,-0.1315588802099228,0.02151201292872429,-0.06086202710866928,0.6025277376174927,-0.06427279114723206,-0.0065441131591796875,-0.19499054551124573,0.034839630126953125,-0.2797545790672302,0.9727664589881897,0.05837155133485794,-0.1368684023618698,-0.17761452496051788,-0.10635089874267578,-0.15064795315265656,1.3732640743255615,-0.23854170739650726
0.043910883367061615,-0.019263047724962234,0.32909783720970154,-0.09905587136745453,-0.04324627295136452,0.018358075991272926,0.9939722418785095,0.2868363857269287,-0.1163104847073555,0.0417930893599987,-0.2788028419017792,-0.009039686992764473,-0.13493061065673828,-0.17251372337341309,0.005361004266887903,-0.16850745677947998,0.11188788712024689,0.7818376421928406,0.5398442149162292,0.7474104762077332,0.9093501567840576,-1.7530906200408936,-1.635957956314087,-1.4954123497009277,-1.5106099843978882,-0.7489722967147827,-0.2867397665977478,-0.2104279100894928,-0.4603866636753082,-1.3887684345245361,-1.0483251810073853,-0.5681723356246948,-1.3463962078094482,0.035248495638370514,0.5716829895973206,-0.34103065729141235,0.14862468838691711,-0.1263590008020401,-0.16279013454914093,0.03283734619617462,-0.22537168860435486,0.05628184229135513,0.02092796191573143,0.2789710462093353,-0.07640647143125534,0.026464231312274933,0.286580353975296,0.12477823346853256,0.030272670090198517,-0.13315021991729736,-0.047621939331293106,0.03282468020915985,0.1713920682668686,1.4524867534637451,0.0979665219783783,0.05204468593001366,-0.13511206209659576,-0.0034725815057754517,-0.09163463115692139,0.5147688984870911,-0.13534435629844666,0.041771791875362396,-0.21917018294334412,0.07692234963178635,-0.26203399896621704,0.9151212573051453,-0.006185558158904314,-0.08977736532688141,-0.17812246084213257,-0.08844846487045288,-0.04968626797199249,1.2447360754013062,-0.2838081419467926
0.04630347713828087,-0.02023312821984291,0.3294464945793152,-0.09854619204998016,-0.04356938973069191,0.01721731573343277,0.99402916431427,0.2857765555381775,-0.12571360170841217,0.026582427322864532,-0.2479403167963028,-0.0797911211848259,-0.17608115077018738,-0.17876049876213074,0.00297007174231112,-0.17026163637638092,0.10804758965969086,0.7702564001083374,0.5311017632484436,0.7426741123199463,0.8981223702430725,-1.7527968883514404,-1.6311907768249512,-1.4982584714889526,-1.5093715190887451,-0.7313910722732544,-0.2625356912612915,-0.14433987438678741,-0.4929690659046173,-1.291669487953186,-0.9851765036582947,-0.2521059215068817,-1.1995865106582642,0.01641399785876274,0.46459153294563293,-0.5226137638092041,0.08788827806711197,-0.1273363083600998,-0.16182206571102142,0.0324094295501709,-0.22485095262527466,0.05655553191900253,0.021176766604185104,0.279437780380249,-0.07675490528345108,0.026936180889606476,0.2858973443508148,0.12476350367069244,0.0303259938955307,-0.09456279873847961,-0.04192880541086197,0.011134512722492218,0.20207974314689636,1.3002272844314575,0.05681505799293518,0.08234995603561401,-0.12923197448253632,-0.01862800121307373,-0.09257045388221741,0.48216086626052856,-0.17806029319763184,0.13136282563209534,-0.2402694672346115,0.11447286605834961,-0.26720696687698364,0.700305163860321,-0.06606703251600266,-0.035486310720443726,-0.16867701709270477,-0.058431100100278854,0.02950270287692547,1.097548484802246,-0.3017313778400421
0.04868614673614502,-0.021282296627759933,0.3296688199043274,-0.09786026179790497,-0.04357655718922615,0.01611538790166378,0.9941151142120361,0.281024694442749,-0.12708720564842224,0.011255772784352303,-0.22479109466075897,-0.13016846776008606,-0.1519119143486023,-0.1848594844341278,0.0007806672947481275,-0.17146456241607666,0.10393725335597992,0.7594847083091736,0.5228860378265381,0.740573525428772,0.8881193399429321,-1.7526596784591675,-1.6273173093795776,-1.5026177167892456,-1.5086383819580078,-0.6869967579841614,-0.25809645652770996,0.011280463077127934,-0.4439537823200226,-1.1250412464141846,-0.9513193368911743,0.10169664025306702,-1.0230565071105957,-0.002858977997675538,0.34776949882507324,-0.6364481449127197,0.022347742691636086,-0.12835176289081573,-0.1609034687280655,0.03205893188714981,-0.22444462776184082,0.05677670240402222,0.021590296179056168,0.28028708696365356,-0.07739385962486267,0.02744891494512558,0.28531384468078613,0.12471561133861542,0.03027600795030594,-0.03652667626738548,-0.04365548491477966,-0.006508752703666687,0.2136646956205368,1.096211314201355,0.06688573211431503,0.08728998154401779,-0.13019146025180817,-0.024535227566957474,-0.0891600251197815,0.5120765566825867,-0.1553194373846054,0.24216033518314362,-0.2616838812828064,0.14287857711315155,-0.3457857072353363,0.3863103687763214,-0.08338207006454468,0.01347438246011734,-0.16021883487701416,-0.03737478703260422,0.026038452982902527,0.9301214218139648,-0.25860273838043213
0.05102962628006935,-0.022341996431350708,0.32976242899894714,-0.09726613759994507,-0.04335073381662369,0.015043732710182667,0.9942000508308411,0.27965739369392395,-0.12246190756559372,0.0012257210910320282,-0.2105463147163391,-0.17659027874469757,-0.07335854321718216,-0.1905883103609085,-0.0013717508409172297,-0.17136888206005096,0.10023494809865952,0.7501040697097778,0.5149518251419067,0.7414236664772034,0.8795881867408752,-1.7526837587356567,-1.6244170665740967,-1.5079259872436523,-1.5084528923034668,-0.6245245337486267,-0.27997395396232605,0.20077283680438995,-0.3725365102291107,-0.9167132377624512,-0.9748562574386597,0.3045653998851776,-0.8934295773506165,0.0008069963078014553,0.3228584825992584,-0.7576753497123718,0.011078798212110996,-0.12914560735225677,-0.16008608043193817,0.03175780922174454,-0.22426100075244904,0.056899167597293854,0.022168651223182678,0.2817961275577545,-0.07831501960754395,0.02800188958644867,0.2848845422267914,0.12463641166687012,0.030142538249492645,0.045752737671136856,-0.05224163830280304,-0.02195313200354576,0.2115909606218338,0.8306350708007812,0.11693666875362396,0.08239136636257172,-0.13632450997829437,-0.03587126359343529,-0.062250152230262756,0.5173075199127197,-0.07415559142827988,0.31230345368385315,-0.2865762710571289,0.17472964525222778,-0.4994194805622101,0.22380030155181885,-0.030253740027546883,0.05444944649934769,-0.1442376971244812,-0.02481171488761902,-0.007238082587718964,0.754962146282196,-0.163923978805542
0.05336207151412964,-0.023363400250673294,0.32977256178855896,-0.09698756039142609,-0.04290565848350525,0.013974549248814583,0.994262158870697,0.2782149910926819,-0.11340512335300446,-0.009613178670406342,-0.22266000509262085,-0.228400319814682,0.03903196007013321,-0.19579675793647766,-0.0037066410295665264,-0.16969308257102966,0.09712829440832138,0.7424596548080444,0.5068219304084778,0.7439631223678589,0.8721386790275574,-1.7526772022247314,-1.6217249631881714,-1.514245629310608,-1.5083599090576172,-0.5457553863525391,-0.27254560589790344,0.4069547653198242,-0.24648617208003998,-0.7273853421211243,-0.9683389067649841,0.3347820043563843,-0.7379164695739746,-0.008006295189261436,0.2811368703842163,-0.9265254735946655,-0.024692710489034653,-0.12950152158737183,-0.1594059020280838,0.03150468319654465,-0.22436444461345673,0.05690257251262665,0.022867519408464432,0.2836430072784424,-0.07952382415533066,0.028633378446102142,0.2845587432384491,0.1246107965707779,0.029889680445194244,0.12781140208244324,-0.07632844150066376,-0.03419705480337143,0.1599702388048172,0.5877826809883118,0.20055344700813293,0.08447345346212387,-0.1619560420513153,-0.052832577377557755,-0.08817968517541885,0.49854037165641785,0.03926766291260719,0.32642441987991333,-0.32430508732795715,0.21208737790584564,-0.7410436272621155,0.2666144073009491,0.08387897163629532,0.09879710525274277,-0.13975156843662262,-0.01559613086283207,-0.1206832155585289,0.5624323487281799,-0.041668444871902466
0.05568268895149231,-0.02430879883468151,0.3296918272972107,-0.09717947989702225,-0.042243119329214096,0.012797062285244465,0.9942876100540161,0.27749329805374146,-0.10843823105096817,-0.01987336575984955,-0.2375134825706482,-0.2852293848991394,0.14208251237869263,-0.20034819841384888,-0.005979498382657766,-0.16629843413829803,0.09507369250059128,0.7363947033882141,0.498746395111084,0.7467557191848755,0.8659848570823669,-1.752744197845459,-1.6193803548812866,-1.5219736099243164,-1.5085668563842773,-0.4975675940513611,-0.2659294009208679,0.5862842798233032,-0.13876454532146454,-0.602962851524353,-0.9341543912887573,0.4130101799964905,-0.5844115614891052,-0.004895707126706839,0.23752973973751068,-1.0754833221435547,-0.0728493258357048,-0.12943364679813385,-0.1588788628578186,0.03128277137875557,-0.22471675276756287,0.05673646926879883,0.023694902658462524,0.2853487730026245,-0.08099492639303207,0.029350534081459045,0.28433912992477417,0.12467268109321594,0.02954035997390747,0.1929611712694168,-0.09902139008045197,-0.05036246404051781,0.1239435151219368,0.39780133962631226,0.2830910384654999,0.09694145619869232,-0.1892230212688446,-0.07232724130153656,-0.11178236454725266,0.4497470259666443,0.14446261525154114,0.35857823491096497,-0.35625433921813965,0.24900011718273163,-0.9456658959388733,0.2435082346200943,0.18153460323810577,0.14284944534301758,-0.13816185295581818,-0.0041743312031030655,-0.22220230102539062,0.3823814392089844,0.06922094523906708
0.05799707770347595,-0.025212682783603668,0.3295261263847351,-0.09780336916446686,-0.04136165976524353,0.01151192281395197,0.9942792057991028,0.27619728446006775,-0.1053256168961525,-0.029179647564888,-0.22229915857315063,-0.3236587345600128,0.22573967278003693,-0.20449766516685486,-0.0081979651004076,-0.16140851378440857,0.09391679614782333,0.731366753578186,0.4909563660621643,0.7502012848854065,0.8611118197441101,-1.7527843713760376,-1.6173994541168213,-1.5309442281723022,-1.5091739892959595,-0.48426318168640137,-0.2798646092414856,0.7108304500579834,-0.08482551574707031,-0.4606764316558838,-0.8603993058204651,0.5275055170059204,-0.460917204618454,-0.019990412518382072,0.15722286701202393,-1.1871540546417236,-0.12641461193561554,-0.1290963590145111,-0.1584850251674652,0.031068414449691772,-0.2252427041530609,0.05639463663101196,0.024648286402225494,0.2870526909828186,-0.08267223089933395,0.030139319598674774,0.284210205078125,0.12480834871530533,0.02911275625228882,0.2500840425491333,-0.10217200219631195,-0.06618498265743256,0.15170669555664062,0.23395292460918427,0.3471493422985077,0.11086741089820862,-0.19789187610149384,-0.07796744257211685,-0.0853181704878807,0.42063766717910767,0.2320861667394638,0.3975602984428406,-0.3641161322593689,0.274177223443985,-1.0520625114440918,0.1774318516254425,0.2543228566646576,0.17054839432239532,-0.1204211562871933,0.00897873193025589,-0.2479008585214615,0.2655060589313507,0.1595325618982315
0.060300394892692566,-0.026091227307915688,0.3292827904224396,-0.0987720936536789,-0.040303539484739304,0.010255047120153904,0.9942407011985779,0.27816224098205566,-0.10124736279249191,-0.03693085536360741,-0.19601842761039734,-0.35069769620895386,0.2880420982837677,-0.20853595435619354,-0.01053194236010313,-0.1554793268442154,0.09320972859859467,0.7275257706642151,0.4837808907032013,0.7546015381813049,0.8572685718536377,-1.7529515027999878,-1.616089105606079,-1.5408450365066528,-1.5102287530899048,-0.4843745231628418,-0.2940652668476105,0.8026735782623291,-0.06862812489271164,-0.3461982011795044,-0.7869160175323486,0.6645400524139404,-0.3685840964317322,-0.01957079954445362,0.06359583139419556,-1.2589709758758545,-0.17371810972690582,-0.12848082184791565,-0.1582031548023224,0.03088628128170967,-0.22584538161754608,0.055887430906295776,0.025732561945915222,0.28889018297195435,-0.08450784534215927,0.03099234402179718,0.28411588072776794,0.12500059604644775,0.028613217175006866,0.2978191077709198,-0.09472990781068802,-0.0832705870270729,0.20112212002277374,0.09656543284654617,0.39119604229927063,0.1251121312379837,-0.19753193855285645,-0.07594014704227448,-0.0507311075925827,0.41641175746917725,0.29809749126434326,0.44641757011413574,-0.3587977886199951,0.2913167476654053,-1.1028424501419067,0.06781118363142014,0.30042004585266113,0.19083856046199799,-0.09431304782629013,0.021645279601216316,-0.23040775954723358,0.19150981307029724,0.22779366374015808
0.0626196563243866,-0.026935521513223648,0.32897451519966125,-0.09998030960559845,-0.039117224514484406,0.009091456420719624,0.9941785931587219,0.27955231070518494,-0.09641564637422562,-0.04416074603796005,-0.16445641219615936,-0.3734447658061981,0.33188045024871826,-0.21257546544075012,-0.012983955442905426,-0.14878469705581665,0.09263681620359421,0.7246391177177429,0.4772193431854248,0.760144829750061,0.8541955947875977,-1.7531152963638306,-1.6155598163604736,-1.5513449907302856,-1.5116784572601318,-0.4716090261936188,-0.28327828645706177,0.8852647542953491,-0.053181882947683334,-0.2571927309036255,-0.6720213890075684,0.8254255652427673,-0.27954134345054626,-0.007868830114603043,-0.06286337226629257,-1.3003525733947754,-0.23512493073940277,-0.12760961055755615,-0.1579931080341339,0.030714884400367737,-0.22645483911037445,0.055244747549295425,0.02694014459848404,0.2910025417804718,-0.08645524084568024,0.03190226852893829,0.2840602397918701,0.12525592744350433,0.028057441115379333,0.3363317549228668,-0.0862894132733345,-0.10096027702093124,0.24050672352313995,-0.02490905299782753,0.41673582792282104,0.14908000826835632,-0.19559019804000854,-0.07133176177740097,-0.034025344997644424,0.40317994356155396,0.3438780605792999,0.5034536123275757,-0.3491871953010559,0.30389270186424255,-1.1279540061950684,-0.08912748098373413,0.32264482975006104,0.20866143703460693,-0.07094675302505493,0.03575608879327774,-0.21022158861160278,0.13880684971809387,0.27519291639328003
0.06495112180709839,-0.027740169316530228,0.32860684394836426,-0.10136684030294418,-0.037800997495651245,0.0080240024253726,0.9940983057022095,0.27831003069877625,-0.09321918338537216,-0.052252210676670074,-0.1357118934392929,-0.3988438546657562,0.3445335030555725,-0.216508150100708,-0.015346630476415157,-0.14140069484710693,0.09219345450401306,0.7224946022033691,0.47161567211151123,0.7670301198959351,0.8518640995025635,-1.753180742263794,-1.6160842180252075,-1.562190055847168,-1.5136396884918213,-0.4581308960914612,-0.25661399960517883,0.9786246418952942,-0.048982638865709305,-0.1892547905445099,-0.546481728553772,1.070172667503357,-0.20275411009788513,-0.005810996517539024,-0.17516906559467316,-1.3459722995758057,-0.30114641785621643,-0.126543790102005,-0.15786345303058624,0.03054935857653618,-0.22697941958904266,0.054461535066366196,0.028281763195991516,0.29347124695777893,-0.08848154544830322,0.032842643558979034,0.28402823209762573,0.1255471408367157,0.027461424469947815,0.36224332451820374,-0.07691629976034164,-0.11774664372205734,0.27019786834716797,-0.11931609362363815,0.41549912095069885,0.17956040799617767,-0.19139906764030457,-0.07399009168148041,-0.03093963861465454,0.35976526141166687,0.3574024438858032,0.5811538696289062,-0.34733355045318604,0.3197541832923889,-1.1492764949798584,-0.3289439082145691,0.3048798441886902,0.22436517477035522,-0.05510754883289337,0.04951555281877518,-0.18513283133506775,0.10205763578414917,0.29003337025642395
0.06727208942174911,-0.028516985476017,0.3281703293323517,-0.10281899571418762,-0.036336541175842285,0.0070221908390522,0.9940113425254822,0.2754872739315033,-0.09052518755197525,-0.05953831970691681,-0.12477023154497147,-0.4260375499725342,0.3309183418750763,-0.22032862901687622,-0.017486464232206345,-0.13323910534381866,0.09178542345762253,0.7209155559539795,0.46705949306488037,0.7759562134742737,0.8501736521720886,-1.753228783607483,-1.6175470352172852,-1.5734150409698486,-1.5161521434783936,-0.392721563577652,-0.17310363054275513,1.0606333017349243,-0.020991554483771324,-0.168930783867836,-0.34136176109313965,1.3493238687515259,-0.1201828271150589,0.0006651523290202022,-0.3659270405769348,-1.3550090789794922,-0.41027697920799255,-0.12540419399738312,-0.15777985751628876,0.030394017696380615,-0.22738629579544067,0.053581319749355316,0.029721494764089584,0.2964503765106201,-0.0906078964471817,0.03381732851266861,0.28397631645202637,0.12585344910621643,0.02682076394557953,0.3745294511318207,-0.08573403209447861,-0.1296216994524002,0.22242183983325958,-0.1846136748790741,0.39187514781951904,0.229374498128891,-0.19797059893608093,-0.0753612145781517,-0.100886270403862,0.30167317390441895,0.3403496742248535,0.6701706051826477,-0.3492956757545471,0.3336929976940155,-1.161381721496582,-0.637859046459198,0.2564644515514374,0.23909978568553925,-0.059182070195674896,0.06548751145601273,-0.20839887857437134,0.09495479613542557,0.2725963890552521
0.06956974416971207,-0.02927202358841896,0.32767391204833984,-0.10421417653560638,-0.03475336730480194,0.006018751300871372,0.9939292073249817,0.27166736125946045,-0.08877058327198029,-0.06617053598165512,-0.12181447446346283,-0.4408591687679291,0.30651170015335083,-0.22360365092754364,-0.01892913319170475,-0.12439330667257309,0.09161041676998138,0.7195068597793579,0.4642137587070465,0.7872138619422913,0.8491722345352173,-1.753223180770874,-1.6205999851226807,-1.5847140550613403,-1.5195742845535278,-0.3328712284564972,-0.08645568788051605,1.1610743999481201,0.00777788832783699,-0.1582610011100769,-0.1691209375858307,2.063979148864746,-0.06809994578361511,-0.007892247289419174,-0.5558652877807617,-1.2030667066574097,-0.5149387717247009,-0.12429613620042801,-0.1577998548746109,0.030248109251260757,-0.2275005280971527,0.05261310189962387,0.03128795698285103,0.3000434637069702,-0.09278193861246109,0.03479868918657303,0.28390929102897644,0.1260957568883896,0.02621055394411087,0.3765069544315338,-0.09584824740886688,-0.13546107709407806,0.16693466901779175,-0.21310150623321533,0.36273032426834106,0.26694750785827637,-0.20698067545890808,-0.07197034358978271,-0.18827085196971893,0.2862112820148468,0.31214141845703125,0.9051414132118225,-0.3270529806613922,0.33373481035232544,-1.0707372426986694,-1.5180236101150513,0.13761450350284576,0.24294240772724152,-0.07111646234989166,0.07576298713684082,-0.24568752944469452,0.1252150535583496,0.24162709712982178
0.07183565199375153,-0.03001263551414013,0.32712221145629883,-0.10550277680158615,-0.03312111645936966,0.004999152850359678,0.9938547015190125,0.2657593786716461,-0.08886179327964783,-0.07013816386461258,-0.11587050557136536,-0.4289820194244385,0.27979832887649536,-0.22637994587421417,-0.01965014636516571,-0.11470780521631241,0.0916753038764,0.7181878089904785,0.4628038704395294,0.8044300079345703,0.8486043810844421,-1.7532894611358643,-1.6252368688583374,-1.594746470451355,-1.5238685607910156,-0.3014450669288635,-0.01424451731145382,1.4858083724975586,0.0032321009784936905,-0.15567556023597717,-0.01435713842511177,2.5197458267211914,-0.06743961572647095,-0.030917294323444366,-0.7497230768203735,-0.9345223307609558,-0.5511804223060608,-0.12323623150587082,-0.1578977406024933,0.03010333701968193,-0.22735142707824707,0.05157419294118881,0.03296136111021042,0.3055293560028076,-0.09477046877145767,0.03572480380535126,0.2838082015514374,0.12624257802963257,0.025655597448349,0.36320868134498596,-0.10002172738313675,-0.1329771876335144,0.1373295783996582,-0.18776801228523254,0.33803534507751465,0.2890746593475342,-0.2129639834165573,-0.055078137665987015,-0.26292890310287476,0.320942223072052,0.28277063369750977,1.0827311277389526,-0.3837759494781494,0.3288716971874237,-1.2234770059585571,-2.2812652587890625,0.029170002788305283,0.2317243218421936,-0.0760158821940422,0.07439516484737396,-0.24421662092208862,0.1724499613046646,0.21265685558319092
0.07405142486095428,-0.030753793194890022,0.32653701305389404,-0.10667304694652557,-0.0315454937517643,0.004013241734355688,0.9937854409217834,0.25949588418006897,-0.08740393817424774,-0.07262195646762848,-0.10570651292800903,-0.3958282172679901,0.2565856873989105,-0.2288932204246521,-0.019768569618463516,-0.10231515765190125,0.09170261025428772,0.716888964176178,0.4626849293708801,0.8254443407058716,0.8480417728424072,-1.7535477876663208,-1.631490707397461,-1.6025382280349731,-1.5284651517868042,-0.27728068828582764,0.04845445975661278,1.70615553855896,-0.020652106031775475,-0.16765400767326355,0.1323731243610382,2.5308077335357666,-0.09387475252151489,-0.05197737738490105,-0.9304035305976868,-0.6758652329444885,-0.523333728313446,-0.12222354114055634,-0.158052459359169,0.02996014803647995,-0.22693800926208496,0.05046214163303375,0.034716442227363586,0.31256285309791565,-0.09725888073444366,0.03666561096906662,0.2836798131465912,0.1263212114572525,0.02514125406742096,0.33995765447616577,-0.100840725004673,-0.12607109546661377,0.11624708026647568,-0.12787874042987823,0.32032108306884766,0.30319666862487793,-0.21428216993808746,-0.031354572623968124,-0.32292771339416504,0.37359631061553955,0.2575978934764862,1.1168453693389893,-0.43287134170532227,0.31265050172805786,-1.366835117340088,-2.5614237785339355,-0.010864359326660633,0.21508772671222687,-0.07159543037414551,0.06263972073793411,-0.21212849020957947,0.20909297466278076,0.19241799414157867
0.07621581107378006,-0.03148280456662178,0.3259318768978119,-0.10774903744459152,-0.030092978850007057,0.0031006622593849897,0.9937177896499634,0.25238505005836487,-0.08274023979902267,-0.07743306457996368,-0.11183791607618332,-0.3649294674396515,0.24442839622497559,-0.23120540380477905,-0.01936371810734272,-0.08808490633964539,0.09152938425540924,0.715490460395813,0.4637903869152069,0.8465509414672852,0.8472580909729004,-1.7539812326431274,-1.6392508745193481,-1.608173131942749,-1.5328289270401,-0.2566162049770355,0.12700748443603516,1.824981689453125,-0.03564964234828949,-0.17885208129882812,0.3053096532821655,2.490779399871826,-0.14191000163555145,-0.1107340157032013,-1.1403212547302246,-0.44737428426742554,-0.4403091371059418,-0.1212436780333519,-0.15826979279518127,0.02980949729681015,-0.22623547911643982,0.04928077012300491,0.03650784119963646,0.32004839181900024,-0.10021062195301056,0.03759228438138962,0.28357258439064026,0.12638235092163086,0.02463420480489731,0.3140069544315338,-0.10652842372655869,-0.11348725855350494,0.07403139770030975,-0.034620217978954315,0.32227692008018494,0.32191652059555054,-0.2228468358516693,-0.010014541447162628,-0.4152674973011017,0.42329758405685425,0.24249674379825592,1.1272006034851074,-0.4545423984527588,0.295060932636261,-1.4447606801986694,-2.74420166015625,-0.017187919467687607,0.2001430094242096,-0.0690465047955513,0.03831694647669792,-0.19791102409362793,0.20903700590133667,0.18608585000038147
0.07832102477550507,-0.03217222914099693,0.3252854645252228,-0.10875459015369415,-0.028804196044802666,0.002216645982116461,0.9936487674713135,0.24524497985839844,-0.07920720428228378,-0.07426789402961731,-0.10615690052509308,-0.355526864528656,0.2445354461669922,-0.23334600031375885,-0.018304316326975822,-0.07286544144153595,0.09123241156339645,0.7139989733695984,0.4663371741771698,0.8673225045204163,0.8460744619369507,-1.7549045085906982,-1.6487619876861572,-1.6119029521942139,-1.5365008115768433,-0.2320081889629364,0.19272008538246155,1.8708504438400269,-0.028720617294311523,-0.2080843597650528,0.49737662076950073,2.352299451828003,-0.14532655477523804,-0.08688930422067642,-1.2434883117675781,-0.1718805730342865,-0.40646040439605713,-0.12030898034572601,-0.15851537883281708,0.029655758291482925,-0.22519031167030334,0.048048216849565506,0.03831365332007408,0.3277975618839264,-0.10334248095750809,0.038486331701278687,0.28352290391921997,0.12646883726119995,0.024071581661701202,0.3002510666847229,-0.10913727432489395,-0.11176302284002304,0.05405334383249283,-0.025292737409472466,0.3227361738681793,0.3596377372741699,-0.22523239254951477,-0.006384614855051041,-0.45591962337493896,0.33110398054122925,0.23927004635334015,1.1206334829330444,-0.45326656103134155,0.27747684717178345,-1.4507642984390259,-2.882983446121216,0.0030779431108385324,0.19573631882667542,-0.06611526012420654,0.0354183167219162,-0.19395168125629425,0.18726611137390137,0.19011546671390533
0.08036572486162186,-0.03283349424600601,0.32466697692871094,-0.10977807641029358,-0.0275266133248806,0.0013475543819367886,0.9935739636421204,0.23954631388187408,-0.07560909539461136,-0.07114741206169128,-0.12178455293178558,-0.3271516263484955,0.22884215414524078,-0.23528067767620087,-0.01669643074274063,-0.05726243555545807,0.09099309146404266,0.712262749671936,0.4704863131046295,0.886938750743866,0.8448624014854431,-1.755629301071167,-1.6591331958770752,-1.613334059715271,-1.5398911237716675,-0.20378968119621277,0.26400065422058105,1.8045775890350342,-0.021465573459863663,-0.2650480568408966,0.6546980142593384,2.141014575958252,-0.17946670949459076,-0.0991663932800293,-1.3641343116760254,0.1490163505077362,-0.3663656413555145,-0.11945266276597977,-0.15881462395191193,0.029515933245420456,-0.22379228472709656,0.046758003532886505,0.04011921212077141,0.33553779125213623,-0.1064814031124115,0.03923088312149048,0.28346073627471924,0.12656305730342865,0.023511119186878204,0.26974567770957947,-0.12028805911540985,-0.09689288586378098,-0.005121204070746899,0.0626755952835083,0.321615070104599,0.38386663794517517,-0.23247511684894562,0.006803400814533234,-0.5343592762947083,0.3074365556240082,0.2201196402311325,1.0911813974380493,-0.43251124024391174,0.23853056132793427,-1.374354362487793,-2.9516687393188477,0.019744643941521645,0.1817198097705841,-0.07494626939296722,0.022676346823573112,-0.2166789472103119,0.2081703096628189,0.17574630677700043
0.08236346393823624,-0.03346395492553711,0.324072927236557,-0.11074160039424896,-0.026384597644209862,0.00044654420344159007,0.9934988617897034,0.23426468670368195,-0.07264213263988495,-0.06716465204954147,-0.12544919550418854,-0.29238924384117126,0.20834246277809143,-0.23698027431964874,-0.014494703151285648,-0.04221418499946594,0.09081392735242844,0.7100523710250854,0.47594743967056274,0.9047936201095581,0.8433656692504883,-1.756455898284912,-1.670510172843933,-1.6120895147323608,-1.542945384979248,-0.19934344291687012,0.28722187876701355,1.5862596035003662,-0.045165617018938065,-0.3343825340270996,0.8127641081809998,2.0077009201049805,-0.2351941168308258,-0.10136352479457855,-1.525519609451294,0.4526514410972595,-0.3121020495891571,-0.11870008707046509,-0.15914112329483032,0.029383163899183273,-0.2220408022403717,0.04546621814370155,0.04190729185938835,0.34318819642066956,-0.10938188433647156,0.03972423076629639,0.28342875838279724,0.12665747106075287,0.022998623549938202,0.2338000386953354,-0.12142818421125412,-0.08344738185405731,-0.029839100316166878,0.16415096819400787,0.31807929277420044,0.4004667103290558,-0.22348064184188843,0.03663581982254982,-0.5625726580619812,0.339551717042923,0.19883230328559875,1.0727770328521729,-0.3635751008987427,0.18907807767391205,-1.1242964267730713,-3.0388247966766357,0.03819796070456505,0.16077351570129395,-0.07356786727905273,0.010842063464224339,-0.19876691699028015,0.24946846067905426,0.15747258067131042
0.0843171626329422,-0.03406954184174538,0.32351335883140564,-0.11160418391227722,-0.025407910346984863,-0.00041117865475825965,0.9934277534484863,0.2290390431880951,-0.0700998306274414,-0.06462011486291885,-0.11170481145381927,-0.2575017511844635,0.19038206338882446,-0.23864300549030304,-0.012098429724574089,-0.02898663841187954,0.09043727815151215,0.7072629332542419,0.48272648453712463,0.9215372204780579,0.8414042592048645,-1.7573014497756958,-1.6832342147827148,-1.6083134412765503,-1.5455485582351685,-0.20925171673297882,0.3093053996562958,1.3463373184204102,-0.07474707812070847,-0.41085442900657654,0.9843662977218628,1.9643566608428955,-0.25896719098091125,-0.09563595801591873,-1.6892834901809692,0.6537508368492126,-0.2896205186843872,-0.1180667132139206,-0.1594725102186203,0.029252909123897552,-0.21996308863162994,0.04425365477800369,0.04375993087887764,0.35086920857429504,-0.11172318458557129,0.0399397537112236,0.2834135591983795,0.12675617635250092,0.02253119647502899,0.19641032814979553,-0.11450923979282379,-0.07486984133720398,-0.023106105625629425,0.26799333095550537,0.3181474208831787,0.4199243485927582,-0.20950442552566528,0.06652212142944336,-0.5696479678153992,0.36116987466812134,0.1798347532749176,1.0639864206314087,-0.28356772661209106,0.1505790799856186,-0.8385885953903198,-3.1073343753814697,0.059215862303972244,0.1430187225341797,-0.06363242864608765,0.006279371678829193,-0.1575784832239151,0.2921282649040222,0.14202915132045746
0.08622757345438004,-0.03465444594621658,0.32297375798225403,-0.11239539831876755,-0.02454986795783043,-0.0011749302502721548,0.9933596253395081,0.22311028838157654,-0.06873223930597305,-0.06231670826673508,-0.09389558434486389,-0.23384878039360046,0.179958313703537,-0.24038811028003693,-0.00951923057436943,-0.01775934547185898,0.08981376141309738,0.7038366794586182,0.49093693494796753,0.9379196763038635,0.8392443656921387,-1.758098840713501,-1.697322130203247,-1.6028592586517334,-1.5479638576507568,-0.220005601644516,0.3483598232269287,1.2373690605163574,-0.10339478403329849,-0.4480403661727905,1.098687767982483,1.9253125190734863,-0.24894404411315918,-0.08924835175275803,-1.7126363515853882,0.8676530122756958,-0.2737496495246887,-0.1175837367773056,-0.15982453525066376,0.02912847325205803,-0.2175631821155548,0.043079763650894165,0.04567760229110718,0.35863661766052246,-0.11347416788339615,0.03997422754764557,0.28341251611709595,0.12685970962047577,0.02210547775030136,0.17281396687030792,-0.10599929094314575,-0.0701868087053299,-0.002474661450833082,0.3229142427444458,0.3168479800224304,0.43849796056747437,-0.20248113572597504,0.0699053406715393,-0.5704401135444641,0.2867453992366791,0.16675786674022675,1.0708422660827637,-0.23943692445755005,0.12432792782783508,-0.6723784804344177,-3.2316527366638184,0.0786343663930893,0.1355089247226715,-0.05007223039865494,0.006781222298741341,-0.10723953694105148,0.2970339059829712,0.13654567301273346
0.08808870613574982,-0.03522719442844391,0.32245439291000366,-0.11315044015645981,-0.023752929642796516,-0.0018491060473024845,0.9932920932769775,0.2169860452413559,-0.06955629587173462,-0.05937424302101135,-0.08734463155269623,-0.20557430386543274,0.15722671151161194,-0.2422226369380951,-0.006613058503717184,-0.007439755834639072,0.08895143866539001,0.700099766254425,0.5001007318496704,0.9539753198623657,0.8371676206588745,-1.758843183517456,-1.7116048336029053,-1.5956225395202637,-1.5502464771270752,-0.23363597691059113,0.43522828817367554,1.2362889051437378,-0.14151184260845184,-0.46004846692085266,1.1860519647598267,1.7861655950546265,-0.2527194321155548,-0.08303451538085938,-1.6263988018035889,1.152664065361023,-0.24523121118545532,-0.11719653010368347,-0.1601967215538025,0.02902408316731453,-0.21490900218486786,0.04187361150979996,0.04749825596809387,0.3665612041950226,-0.11494071781635284,0.039888396859169006,0.2834479808807373,0.1269880086183548,0.02171362191438675,0.1526091992855072,-0.0980912297964096,-0.06337332725524902,0.015394672751426697,0.35946884751319885,0.29756829142570496,0.461086243391037,-0.20867358148097992,0.05097797513008118,-0.6100924015045166,0.1256646066904068,0.13866674900054932,1.067204236984253,-0.2393944263458252,0.09455965459346771,-0.6287214756011963,-3.3466427326202393,0.08153467625379562,0.125799298286438,-0.04240923002362251,0.0036500049754977226,-0.059078969061374664,0.3099013864994049,0.11893463134765625
0.08989782631397247,-0.03580770269036293,0.3219594359397888,-0.11384662240743637,-0.02301735430955887,-0.0024472237564623356,0.9932286143302917,0.21350708603858948,-0.07257633656263351,-0.055455245077610016,-0.24876898527145386,-0.05779073387384415,-0.011832336895167828,-0.24417103826999664,-0.002982928417623043,0.002870222320780158,0.08777091652154922,0.6962636113166809,0.5099921226501465,0.9688709378242493,0.8350604772567749,-1.759535551071167,-1.725168228149414,-1.5860071182250977,-1.5522911548614502,-0.23813635110855103,0.5533978939056396,1.2337024211883545,-0.18890516459941864,-0.43051934242248535,1.2684364318847656,1.6153538227081299,-0.27034687995910645,-0.0774078518152237,-1.5628713369369507,1.4312878847122192,-0.20748572051525116,-0.1168612390756607,-0.1605696976184845,0.028933260589838028,-0.21196657419204712,0.04054294526576996,0.04903441295027733,0.37457042932510376,-0.11643917858600616,0.03965827822685242,0.2835012674331665,0.1271400898694992,0.021350301802158356,0.09452420473098755,-0.11273743212223053,-0.014130305498838425,-0.1341206580400467,0.4748760163784027,0.12166235595941544,0.4645102024078369,-0.2291700839996338,0.0553189292550087,-0.8538945913314819,0.10390869528055191,-0.036678217351436615,1.0139987468719482,-0.3350527584552765,0.04159219563007355,-0.7602367401123047,-3.30436110496521,-0.059036437422037125,0.10482671111822128,-0.1155272126197815,-0.05314245447516441,-0.1707690954208374,0.44898107647895813,-0.045111317187547684
0.09167885780334473,-0.036412838846445084,0.3214966654777527,-0.1144428476691246,-0.022326264530420303,-0.002994289854541421,0.9931743741035461,0.21255570650100708,-0.0769750103354454,-0.05129912868142128,-0.22899653017520905,-0.05347983539104462,-0.010600668378174305,-0.24615752696990967,0.0016335974214598536,0.013159239664673805,0.08619514852762222,0.692672848701477,0.5205718278884888,0.9823412299156189,0.8328052759170532,-1.760181188583374,-1.7382025718688965,-1.5740689039230347,-1.554022192955017,-0.22969211637973785,0.6869406700134277,1.1752930879592896,-0.22609840333461761,-0.40207985043525696,1.3907158374786377,1.4374667406082153,-0.2836005687713623,-0.06950763612985611,-1.5914925336837769,1.6366734504699707,-0.17503948509693146,-0.11648228019475937,-0.16092489659786224,0.028856400400400162,-0.20873312652111053,0.03903892636299133,0.050328463315963745,0.38260096311569214,-0.11801698803901672,0.039275869727134705,0.2835693359375,0.1273147612810135,0.021014444530010223,0.10134153068065643,-0.11167281121015549,-0.013098645955324173,-0.11459995061159134,0.44281628727912903,0.11492545157670975,0.4981817603111267,-0.2536795735359192,0.04813884571194649,-0.9429121017456055,-0.01402842253446579,-0.04169514402747154,0.9990960359573364,-0.31903642416000366,0.021021485328674316,-0.6749241948127747,-3.314242362976074,-0.025691237300634384,0.10127322375774384,-0.10288581252098083,-0.04828851670026779,-0.11125566065311432,0.44328397512435913,-0.03947948291897774
0.09345103800296783,-0.03705485910177231,0.3210691809654236,-0.11492607742547989,-0.02166629768908024,-0.003535407828167081,0.9931313991546631,0.20959779620170593,-0.08099895715713501,-0.046369317919015884,-0.22916345298290253,-0.05374705791473389,-0.010330863296985626,-0.24807287752628326,0.0073634423315525055,0.022960297763347626,0.08430934697389603,0.6893200874328613,0.5321705341339111,0.994327962398529,0.8304403424263,-1.760761022567749,-1.7514756917953491,-1.560418963432312,-1.5554816722869873,-0.21371282637119293,0.8273091912269592,1.0622526407241821,-0.22976329922676086,-0.3896283209323883,1.4759180545806885,1.233809471130371,-0.26882684230804443,-0.05681943893432617,-1.5369489192962646,1.7210115194320679,-0.15212447941303253,-0.1160479336977005,-0.16127188503742218,0.028791874647140503,-0.20517316460609436,0.037355344742536545,0.05151841416954994,0.3905175030231476,-0.11956969648599625,0.03874802589416504,0.2836746573448181,0.1274982988834381,0.020717114210128784,0.10411424934864044,-0.11860331892967224,-0.009929794818162918,-0.12478365749120712,0.4150271415710449,0.10943712294101715,0.5281044840812683,-0.28503915667533875,0.025961484760046005,-1.047763466835022,-0.1830522119998932,-0.04693068191409111,0.951839804649353,-0.2998312711715698,0.008885309100151062,-0.5904412269592285,-3.172816753387451,0.004831249825656414,0.10630638897418976,-0.10431274771690369,-0.04524296522140503,-0.10000346601009369,0.4074573516845703,-0.03481343388557434
0.09519900381565094,-0.03772981837391853,0.3206821084022522,-0.11538463085889816,-0.02101811207830906,-0.004112830851227045,0.9930899143218994,0.21148750185966492,-0.08463605493307114,-0.040706880390644073,-0.22885936498641968,-0.05389179289340973,-0.010047534480690956,-0.2498551905155182,0.01426363829523325,0.03181837126612663,0.08239292353391647,0.686069905757904,0.5444796085357666,1.0046164989471436,0.8281989097595215,-1.7612344026565552,-1.7642929553985596,-1.5460662841796875,-1.5567502975463867,-0.2008315622806549,0.9756332039833069,0.9208647608757019,-0.23869211971759796,-0.3895634412765503,1.5520087480545044,1.0270495414733887,-0.27503669261932373,-0.03826577588915825,-1.4538722038269043,1.6916002035140991,-0.12248885631561279,-0.1155925840139389,-0.16164523363113403,0.02874382957816124,-0.2013535052537918,0.03544437885284424,0.05252096801996231,0.3980395197868347,-0.12094829976558685,0.03809398412704468,0.2838335931301117,0.12768203020095825,0.0204649418592453,0.10883171856403351,-0.12463032454252243,-0.006779830902814865,-0.13294324278831482,0.3942139148712158,0.10559210181236267,0.5627999901771545,-0.31793278455734253,4.506576806306839e-05,-1.155204176902771,-0.3728421628475189,-0.05062923580408096,0.8858385682106018,-0.27706843614578247,0.002800479531288147,-0.5047193169593811,-2.9107255935668945,0.028026986867189407,0.11064544320106506,-0.10490712523460388,-0.042622968554496765,-0.08626128733158112,0.3868095874786377,-0.031227996572852135
0.09696254134178162,-0.03843650221824646,0.32034334540367126,-0.11582468450069427,-0.020377948880195618,-0.0047101047821342945,0.9930494427680969,0.21936146914958954,-0.09022335708141327,-0.03416106477379799,-0.21756279468536377,-0.05142880603671074,-0.00929996557533741,-0.25152963399887085,0.02240131050348282,0.03949752822518349,0.08040246367454529,0.68282151222229,0.5574234127998352,1.0131804943084717,0.825904369354248,-1.7615536451339722,-1.7764170169830322,-1.5319597721099854,-1.5577707290649414,-0.19142639636993408,1.1066590547561646,0.7764577269554138,-0.2741113603115082,-0.401000052690506,1.6284340620040894,0.834983766078949,-0.3181082308292389,-0.010674888268113136,-1.328217625617981,1.6027568578720093,-0.08264800161123276,-0.11509936302900314,-0.16205278038978577,0.028719227761030197,-0.19723650813102722,0.03327770531177521,0.05330374836921692,0.40500712394714355,-0.12213325500488281,0.03736560791730881,0.28403711318969727,0.12786197662353516,0.020249225199222565,0.11647183448076248,-0.1287975013256073,-0.004821639508008957,-0.12726441025733948,0.3791329264640808,0.10287449508905411,0.6048181653022766,-0.34528225660324097,-0.028992677107453346,-1.2247731685638428,-0.5979608297348022,-0.04996899887919426,0.8171998858451843,-0.2538822293281555,-0.0017410963773727417,-0.41552770137786865,-2.601626396179199,0.043314192444086075,0.10894038528203964,-0.09847899526357651,-0.03825739026069641,-0.04173457622528076,0.4007539749145508,-0.028214475139975548
0.09879261255264282,-0.03918863460421562,0.3200584948062897,-0.11619684845209122,-0.01976013369858265,-0.005300723481923342,0.993015468120575,0.22599779069423676,-0.0964471846818924,-0.025908157229423523,-0.2205028533935547,-0.05229227617383003,-0.009180158376693726,-0.2531256377696991,0.03163103386759758,0.04597146809101105,0.07811550796031952,0.6794773936271667,0.571005642414093,1.020143985748291,0.8232514262199402,-1.7616419792175293,-1.7874932289123535,-1.5185941457748413,-1.558459997177124,-0.18750058114528656,1.2011303901672363,0.6201103925704956,-0.31498706340789795,-0.3953877091407776,1.7770180702209473,0.6949685215950012,-0.31787118315696716,0.05719876289367676,-1.1429808139801025,1.428377628326416,-0.06995172053575516,-0.11454031616449356,-0.16249413788318634,0.028711896389722824,-0.19273798167705536,0.030897965654730797,0.05381209775805473,0.41140609979629517,-0.12319008260965347,0.03660447895526886,0.2842697501182556,0.12803906202316284,0.020070940256118774,0.1314866840839386,-0.1318487823009491,-0.00811292976140976,-0.11705688387155533,0.30821025371551514,0.08497457951307297,0.6669329404830933,-0.36343058943748474,-0.07076418399810791,-1.2426462173461914,-0.946101188659668,-0.04152359440922737,0.745166003704071,-0.23215509951114655,0.004787378013134003,-0.3371610641479492,-2.2604475021362305,0.050627563148736954,0.11493882536888123,-0.09304948151111603,-0.028578221797943115,-0.002423203084617853,0.39696696400642395,-0.02437470853328705
0.10067683458328247,-0.03999321162700653,0.31984227895736694,-0.11654049158096313,-0.019059522077441216,-0.005834352690726519,0.9929859042167664,0.2301287055015564,-0.10126126557588577,-0.021021297201514244,-0.19853049516677856,-0.04722197726368904,-0.00800803117454052,-0.2546895444393158,0.041648879647254944,0.05114256963133812,0.07548896223306656,0.6761800050735474,0.5858263373374939,1.0259380340576172,0.8206005692481995,-1.7611650228500366,-1.7970235347747803,-1.5066825151443481,-1.5590431690216064,-0.16891750693321228,1.3089573383331299,0.4385693669319153,-0.3614423871040344,-0.4005565643310547,1.9117612838745117,0.5363122820854187,-0.36974912881851196,0.05979187786579132,-0.9651802182197571,1.200620174407959,-0.017805315554142,-0.11391106247901917,-0.1629813015460968,0.028726939111948013,-0.18775784969329834,0.028352558612823486,0.05400586500763893,0.417147696018219,-0.12411143630743027,0.03583616018295288,0.2845132350921631,0.12821564078330994,0.019931741058826447,0.1344079226255417,-0.1360516995191574,-0.004218727350234985,-0.11385481804609299,0.31125155091285706,0.08675728738307953,0.7218562960624695,-0.37934452295303345,-0.10919913649559021,-1.2533166408538818,-1.2705214023590088,-0.026710262522101402,0.6506929993629456,-0.198247492313385,0.00012690946459770203,-0.2262422740459442,-1.8374768495559692,0.0511230044066906,0.1071179062128067,-0.07960523664951324,-0.02532321587204933,0.06436948478221893,0.41274768114089966,-0.020279306918382645
0.10259677469730377,-0.040837764739990234,0.3196669816970825,-0.11675135791301727,-0.018421204760670662,-0.00635554688051343,0.9929699897766113,0.23368103802204132,-0.10579190403223038,-0.011454323306679726,-0.1853000372648239,-0.04415418207645416,-0.007256652228534222,-0.2560979425907135,0.05256587639451027,0.054798707365989685,0.0724736675620079,0.6728387475013733,0.6017704010009766,1.030409812927246,0.8175161480903625,-1.7606661319732666,-1.8050713539123535,-1.4966708421707153,-1.5591912269592285,-0.13513940572738647,1.3605870008468628,0.2532755434513092,-0.38340938091278076,-0.42125844955444336,1.9840972423553467,0.31539472937583923,-0.4426718056201935,0.08253465592861176,-0.6737081408500671,0.9693288207054138,0.07986868917942047,-0.11324191093444824,-0.16349925100803375,0.028765268623828888,-0.18225249648094177,0.025703296065330505,0.05381397530436516,0.4221217632293701,-0.12488730251789093,0.035079486668109894,0.2847881019115448,0.12839701771736145,0.01982516050338745,0.13611897826194763,-0.14624826610088348,0.002422315999865532,-0.1330002099275589,0.3044127821922302,0.08635027706623077,0.7677953243255615,-0.38672542572021484,-0.15502811968326569,-1.206573247909546,-1.6332674026489258,-0.001140921376645565,0.5360237956047058,-0.17055238783359528,-0.008765418082475662,-0.1362382471561432,-1.3517305850982666,0.04274095594882965,0.10221496969461441,-0.07599372416734695,-0.026837056502699852,0.10433498024940491,0.3970552384853363,-0.015901194885373116
0.10454545170068741,-0.041719961911439896,0.3195713460445404,-0.11687219887971878,-0.017892779782414436,-0.006933826487511396,0.992961585521698,0.2360960692167282,-0.10939350724220276,0.0014304369688034058,-0.1689019352197647,-0.04028644412755966,-0.006455953698605299,-0.2572246193885803,0.06391247361898422,0.05691029503941536,0.06927672773599625,0.6693258285522461,0.6183174848556519,1.0330383777618408,0.8138234615325928,-1.7599776983261108,-1.8106881380081177,-1.4885882139205933,-1.5585238933563232,-0.0892937034368515,1.4045610427856445,0.07463859766721725,-0.40846648812294006,-0.4835609495639801,2.0210673809051514,0.017276398837566376,-0.5700409412384033,0.10436587780714035,-0.4208599328994751,0.7973675727844238,0.2386959195137024,-0.11251537501811981,-0.164052814245224,0.02880830317735672,-0.1762869656085968,0.023052750155329704,0.05317109450697899,0.42618319392204285,-0.1254802942276001,0.03430440276861191,0.2851206660270691,0.12858399748802185,0.019758418202400208,0.1264706254005432,-0.16117742657661438,0.014445517212152481,-0.17058241367340088,0.3353506326675415,0.09677296131849289,0.8016033172607422,-0.3943440318107605,-0.18476997315883636,-1.1666148900985718,-1.920931339263916,0.028175653889775276,0.4083970785140991,-0.1464434415102005,-0.030469251796603203,-0.05405138432979584,-0.8494516015052795,0.02927537076175213,0.08924820274114609,-0.07153180986642838,-0.03386710211634636,0.15211987495422363,0.3763171136379242,-0.011029686778783798
0.10651449859142303,-0.042632512748241425,0.3195836842060089,-0.11686873435974121,-0.01758251152932644,-0.007586540188640356,0.9929627180099487,0.232723206281662,-0.11378214508295059,0.01374884881079197,-0.16882425546646118,-0.04026255011558533,-0.006372309289872646,-0.25796955823898315,0.07562697678804398,0.05753166601061821,0.06586954742670059,0.6652918457984924,0.635172963142395,1.0331802368164062,0.8090691566467285,-1.7591078281402588,-1.8141971826553345,-1.4819393157958984,-1.556532621383667,-0.04095468297600746,1.4380135536193848,-0.06172720342874527,-0.4402967393398285,-0.5487222671508789,2.0272655487060547,-0.3165937066078186,-0.679585874080658,0.13523615896701813,-0.1861843317747116,0.5979477763175964,0.3954487144947052,-0.11177137494087219,-0.16465619206428528,0.028849802911281586,-0.16989925503730774,0.020427845418453217,0.052154868841171265,0.4292824864387512,-0.1259332299232483,0.03347849100828171,0.28552138805389404,0.12878310680389404,0.019731290638446808,0.11227280646562576,-0.18167370557785034,0.02570313587784767,-0.22540803253650665,0.3560454845428467,0.10492116957902908,0.8227478861808777,-0.4072670042514801,-0.20919299125671387,-1.1447080373764038,-2.1617579460144043,0.05975194647908211,0.2623112201690674,-0.14396558701992035,-0.04899105429649353,-0.044090572744607925,-0.299446165561676,0.008980841375887394,0.07579098641872406,-0.0693235918879509,-0.04210106283426285,0.19391398131847382,0.33791181445121765,-0.005799788516014814
