Huisouan/isaac-rl-lab/source/vqvae/data/idle_003.csv
rootstate0,rootstate1,rootstate2,rootstate3,rootstate4,rootstate5,rootstate6,rootstate7,rootstate8,rootstate9,rootstate10,rootstate11,rootstate12,joint_pos_0,joint_pos_1,joint_pos_2,joint_pos_3,joint_pos_4,joint_pos_5,joint_pos_6,joint_pos_7,joint_pos_8,joint_pos_9,joint_pos_10,joint_pos_11,joint_vel_0,joint_vel_1,joint_vel_2,joint_vel_3,joint_vel_4,joint_vel_5,joint_vel_6,joint_vel_7,joint_vel_8,joint_vel_9,joint_vel_10,joint_vel_11,foot_pos_0_x,foot_pos_0_y,foot_pos_0_z,foot_pos_1_x,foot_pos_1_y,foot_pos_1_z,foot_pos_2_x,foot_pos_2_y,foot_pos_2_z,foot_pos_3_x,foot_pos_3_y,foot_pos_3_z,foot_vel_0_x,foot_vel_0_y,foot_vel_0_z,foot_vel_0_rx,foot_vel_0_ry,foot_vel_0_rz,foot_vel_1_x,foot_vel_1_y,foot_vel_1_z,foot_vel_1_rx,foot_vel_1_ry,foot_vel_1_rz,foot_vel_2_x,foot_vel_2_y,foot_vel_2_z,foot_vel_2_rx,foot_vel_2_ry,foot_vel_2_rz,foot_vel_3_x,foot_vel_3_y,foot_vel_3_z,foot_vel_3_rx,foot_vel_3_ry,foot_vel_3_rz
-1.862645149230957e-09,0.0,0.35667699575424194,-0.14287802577018738,0.061283014714717865,0.04229801148176193,0.9869351983070374,0.0,0.0,0.0,0.0,0.0,0.0,-0.09746800363063812,0.16357100009918213,0.02865700051188469,0.22488200664520264,0.667277991771698,0.6989790201187134,0.7425220012664795,1.1831779479980469,-1.7555880546569824,-1.8214010000228882,-1.5215109586715698,-1.6082329750061035,-0.0018530000234022737,-0.002073999959975481,0.0010969999711960554,0.006984999869018793,0.001366000040434301,-0.0031109999399632215,-0.002428000094369054,0.01019699964672327,-0.002099999925121665,0.0036589999217540026,0.0033360000234097242,-0.012569000013172626,-0.23480826616287231,-0.20748844742774963,0.12647448480129242,-0.2938922345638275,-0.001023419201374054,0.11860907077789307,0.18873023986816406,-0.12299169600009918,0.039388507604599,0.2341594696044922,0.1295241117477417,0.025487840175628662,3.202737570973113e-05,0.0005181275773793459,0.0001345846540061757,0.0015613946598023176,0.0012182724894955754,-0.00022410729434341192,-0.0006142921047285199,0.000279136816971004,-0.00038082365063019097,0.0021387480664998293,6.650062277913094e-05,-0.00015202732174657285,-0.00017172540538012981,-0.000438544899225235,-0.000311402342049405,-0.0007804622291587293,-0.001168386428616941,0.0002315701131010428,0.0009920758893713355,-0.001159873092547059,0.0019716701935976744,-0.007369038183242083,0.0002224556083092466,0.0002537367108743638
0.000756742477417e-07,-1.731887459754944e-05,0.35666075348854065,-0.14290812611579895,0.061223339289426804,0.04227267578244209,0.9869356155395508,0.09088695049285889,-3.2043070793151855,-3.0056943893432617,-16.974727630615234,16.62224769592285,11.627660751342773,-0.09752605855464935,0.16350513696670532,0.028617333620786667,0.22488178312778473,0.6673175096511841,0.6989706754684448,0.7425190210342407,1.1832377910614014,-1.755601406097412,-1.8213376998901367,-1.5214406251907349,-1.6082429885864258,-7.965640068054199,-9.041254043579102,-9.004741668701172,-10.771797180175781,5.0942912101745605,3.2705187797546387,3.1570076942443848,-4.6524553298950195,0.6645568609237671,5.977278709411621,7.834109306335449,17.560895919799805,-0.23476645350456238,-0.20748652517795563,0.12641221284866333,-0.2938677966594696,-0.0010266266763210297,0.11855136603116989,0.1887769103050232,-0.12296240776777267,0.03936734050512314,0.23420192301273346,0.12955088913440704,0.02551110088825226,-0.7477302551269531,-7.137732028961182,2.6775693893432617,-7.808736801147461,13.294486999511719,10.392202377319336,-3.2912120819091797,-7.975201606750488,0.290590763092041,-5.585743427276611,10.558619499206543,12.516169548034668,-2.741731643676758,-3.1311421394348145,-7.080328464508057,-5.215091228485107,8.648862838745117,11.46615982055664,-5.868251800537109,-2.8596878051757812,-11.646240234375,-2.7958974838256836,7.8711090087890625,13.872148513793945
0.0007532984018325806,-0.026721451431512833,0.33161500096321106,-0.18835973739624023,-0.03097304329276085,0.003032880835235119,0.9816068410873413,0.02762165293097496,-0.04170992970466614,0.0007947060512378812,-0.20739151537418365,-0.08276183903217316,-0.013346499763429165,-0.16390658915042877,0.0881604477763176,-0.04642361029982567,0.13511504232883453,0.7097693085670471,0.7262248992919922,0.7688286304473877,1.144465684890747,-1.750064492225647,-1.7715266942977905,-1.4561567306518555,-1.4619016647338867,-0.055779825896024704,-0.05085156857967377,-0.24160349369049072,-0.3673200309276581,-0.06652448326349258,-0.01265158411115408,0.14389833807945251,-0.21231137216091156,-0.038823168724775314,0.033103298395872116,-0.06607482582330704,0.02473425678908825,-0.1670052409172058,-0.20319080352783203,0.03833905979990959,-0.2449948787689209,-0.002744371071457863,0.04248645529150963,0.25900137424468994,-0.06666338443756104,0.024975910782814026,0.27914461493492126,0.1884700208902359,0.04888521134853363,0.022970207035541534,-0.09435350447893143,0.029089074581861496,-0.19515657424926758,0.0343359112739563,0.00530663039535284,0.046742722392082214,-0.0847386047244072,-0.026650600135326385,-0.15282778441905975,-0.08288447558879852,-0.008156278170645237,0.05631269887089729,-0.022927667945623398,0.022460738196969032,0.0455610454082489,-0.06557509303092957,-0.001166032743640244,-0.03797032684087753,-0.024855513125658035,-0.03411155939102173,0.06602737307548523,0.22595813870429993,-0.019924525171518326
0.0009843911975622177,-0.027069557458162308,0.3316209614276886,-0.187448650598526,-0.03101585991680622,0.0029417627956718206,0.9817802309989929,0.024203581735491753,-0.0344284251332283,-0.0014235214330255985,-0.16012869775295258,-0.06355587393045425,-0.01032060757279396,-0.16437165439128876,0.0877363458275795,-0.048437897115945816,0.13205257058143616,0.7092140913009644,0.7261191606521606,0.770028293132782,1.1426961421966553,-1.750387191772461,-1.7712513208389282,-1.4567086696624756,-1.4616960287094116,-0.04022321477532387,-0.04049484431743622,-0.1787356734275818,-0.2732265293598175,-0.053784336894750595,0.012337720021605492,0.13721169531345367,-0.12007994949817657,-0.018141737207770348,0.042591486126184464,-0.10219064354896545,0.00259596505202353,-0.1673046499490738,-0.20311389863491058,0.03833969682455063,-0.24474509060382843,-0.002460770308971405,0.04247014969587326,0.259208619594574,-0.06670531630516052,0.024917922914028168,0.27902403473854065,0.18833142518997192,0.048848956823349,0.021396340802311897,-0.07522532343864441,0.018549742177128792,-0.14964307844638824,0.01715640164911747,0.0025963522493839264,0.046296872198581696,-0.06480086594820023,-0.026133857667446136,-0.10272607952356339,-0.09954357892274857,-0.002143010962754488,0.04679761081933975,-0.02271573804318905,0.023225903511047363,0.018676333129405975,-0.030247891321778297,-0.0007160502718761563,-0.017327824607491493,-0.01987558603286743,-0.021589213982224464,0.051486365497112274,0.14542503654956818,-0.011447850614786148
0.0011855103075504303,-0.027356628328561783,0.33160898089408875,-0.1867566555738449,-0.030944714322686195,0.0028196226339787245,0.9819146394729614,0.02360559068620205,-0.029020065441727638,-0.002486076671630144,-0.12929141521453857,-0.05110393092036247,-0.008316979743540287,-0.1647077053785324,0.08739923685789108,-0.049927979707717896,0.1297743171453476,0.7087659239768982,0.7262223958969116,0.7711717486381531,1.1416951417922974,-1.7505391836166382,-1.7708959579467773,-1.457560658454895,-1.4616738557815552,-0.03210238739848137,-0.03526582196354866,-0.1378726363182068,-0.21680901944637299,-0.047750324010849,0.020436594262719154,0.12826813757419586,-0.08498313277959824,-0.011834651231765747,0.04953235015273094,-0.12206711620092392,0.005612196866422892,-0.16756649315357208,-0.2030593454837799,0.03833547607064247,-0.24453195929527283,-0.002224653959274292,0.04246830567717552,0.2593284845352173,-0.06675372272729874,0.024863198399543762,0.2789621353149414,0.18824350833892822,0.048812806606292725,0.020529696717858315,-0.062302298843860626,0.01327367965131998,-0.12164109200239182,0.015294134616851807,0.002346148481592536,0.04552864283323288,-0.05151761695742607,-0.025223270058631897,-0.0713791623711586,-0.10303916037082672,0.0010762142483144999,0.04143472760915756,-0.022174786776304245,0.023477541282773018,0.0009892098605632782,-0.006273262202739716,-0.0002866384747903794,-0.005766451824456453,-0.016549477353692055,-0.017356252297759056,0.04376222938299179,0.10172444581985474,-0.006966833025217056
0.001382598653435707,-0.027598591521382332,0.33158889412879944,-0.18621689081192017,-0.030830390751361847,0.0026734715793281794,0.982021152973175,0.022044822573661804,-0.021876083686947823,-0.004064670763909817,-0.09471399337053299,-0.03731496259570122,-0.006073605269193649,-0.16497467458248138,0.08710521459579468,-0.05107725411653519,0.12796638906002045,0.708368182182312,0.7263928651809692,0.7722418308258057,1.140986442565918,-1.7506372928619385,-1.7704824209213257,-1.4585787057876587,-1.4616273641586304,-0.024549156427383423,-0.0290360227227211,-0.08330386877059937,-0.13347162306308746,-0.030161738395690918,0.03182996064424515,0.10282616317272186,-0.021812567487359047,-0.007071893196552992,0.056996237486600876,-0.13596326112747192,-0.012017179280519485,-0.16777977347373962,-0.20301420986652374,0.03832820802927017,-0.24432867765426636,-0.0020166561007499695,0.042466916143894196,0.25941938161849976,-0.06679226458072662,0.02482384443283081,0.27893659472465515,0.18819986283779144,0.04876513034105301,0.02102707512676716,-0.04535621777176857,0.006993809249252081,-0.08571722358465195,0.005809885449707508,0.0008769501582719386,0.044399961829185486,-0.03542950749397278,-0.02461232617497444,-0.035873185843229294,-0.10908988118171692,0.004849000833928585,0.03231408819556236,-0.024317681789398193,0.02255295030772686,-0.029548246413469315,0.02395383082330227,2.249065255455207e-05,0.01062414888292551,-0.01596621423959732,-0.009606199339032173,0.017246779054403305,0.04277519881725311,-0.002994926180690527
0.0015666540712118149,-0.02778146043419838,0.3315548598766327,-0.18587955832481384,-0.030643148347735405,0.002510312246158719,0.9820913076400757,0.020195305347442627,-0.014187328517436981,-0.00487565016373992,-0.06921012699604034,-0.027210796251893044,-0.004414418712258339,-0.16517971456050873,0.08686312288045883,-0.051771923899650574,0.12685418128967285,0.7081161737442017,0.7266581058502197,0.7730993032455444,1.140804648399353,-1.750696063041687,-1.7700070142745972,-1.4597123861312866,-1.4617273807525635,-0.022120768204331398,-0.02718469314277172,-0.028333574533462524,-0.056199513375759125,-0.025128016248345375,0.034275252372026443,0.07136987149715424,0.016880135983228683,-0.00332627072930336,0.06325045228004456,-0.1366834193468094,-0.014480864629149437,-0.16793060302734375,-0.20297910273075104,0.03832584246993065,-0.24415487051010132,-0.0018552616238594055,0.04247131571173668,0.25943833589553833,-0.06683643162250519,0.024778857827186584,0.27895334362983704,0.18818753957748413,0.04870837181806564,0.01843736506998539,-0.03044441156089306,0.002736112102866173,-0.05918845161795616,0.0069658393040299416,0.0011081199627369642,0.041190192103385925,-0.020986385643482208,-0.023593852296471596,-0.009014587849378586,-0.10777904838323593,0.007226987741887569,0.024328291416168213,-0.02870335429906845,0.021852118894457817,-0.06689833104610443,0.04383429139852524,-0.0004266533360350877,0.02384488843381405,-0.017836805433034897,-0.00612065801396966,-0.01614966057240963,-0.008901088498532772,-0.0007424723007716238
0.0017347205430269241,-0.02789924666285515,0.33151382207870483,-0.18575643002986908,-0.030421806499361992,0.002333124401047826,0.982122004032135,0.019066516309976578,-0.006464376579970121,-0.004943317733705044,-0.07572193443775177,-0.02974744513630867,-0.0047992803156375885,-0.16536368429660797,0.08663609623908997,-0.052008334547281265,0.1263863891363144,0.7079073786735535,0.7269442677497864,0.7736934423446655,1.1409456729888916,-1.7507238388061523,-1.7694803476333618,-1.4608523845672607,-1.4618480205535889,-0.01799003779888153,-0.0238284170627594,0.01781247742474079,0.010590777732431889,-0.01695018820464611,0.03333454579114914,0.037244610488414764,0.04558940604329109,0.0022590947337448597,0.07081792503595352,-0.14230605959892273,-0.0012768837623298168,-0.16802576184272766,-0.20295120775699615,0.038323018699884415,-0.24401584267616272,-0.0017360709607601166,0.04247552528977394,0.25941020250320435,-0.06687082350254059,0.024739757180213928,0.2789917588233948,0.18821939826011658,0.048638686537742615,0.020984848961234093,-0.024361658841371536,0.0023752772249281406,-0.06443847715854645,-0.009706586599349976,-0.0015562321059405804,0.041793935000896454,-0.015751179307699203,-0.026001036167144775,-0.016283435747027397,-0.11771033704280853,0.007247461471706629,0.01822803169488907,-0.04119621217250824,0.026166774332523346,-0.13087040185928345,0.06139174476265907,-0.0020634557586163282,0.04101875424385071,-0.0263736080378294,-0.007084199693053961,-0.06986770033836365,-0.07457569986581802,0.0008504997240379453
0.001893727108836174,-0.02795306220650673,0.331472784280777,-0.18584920465946198,-0.030158620327711105,0.002139952965080738,0.9821129441261292,0.016789676621556282,-0.001378605025820434,-0.005174973979592323,-0.09092938154935837,-0.03573937341570854,-0.005719699896872044,-0.1655140221118927,0.08643747121095657,-0.05185948312282562,0.12647448480129242,0.7077661156654358,0.727221667766571,0.7740043997764587,1.1413263082504272,-1.750705599784851,-1.7688896656036377,-1.4620383977890015,-1.4618594646453857,-0.02388753741979599,-0.03528055548667908,0.05848391354084015,0.08103916794061661,-0.02024569734930992,0.037587352097034454,0.03183715417981148,0.0984157919883728,0.006449695210903883,0.07606853544712067,-0.1724550724029541,-0.03428947180509567,-0.16805335879325867,-0.20293167233467102,0.03832648694515228,-0.24391400814056396,-0.0016665011644363403,0.04248843714594841,0.25931650400161743,-0.06687857210636139,0.024707280099391937,0.2790471911430359,0.18831822276115417,0.04854414612054825,0.019274815917015076,-0.022006815299391747,0.0028219870291650295,-0.07383754104375839,-0.014364739879965782,-0.002264514099806547,0.041730280965566635,-0.011280067265033722,-0.028371993452310562,-0.017418697476387024,-0.1283329278230667,0.00788139272481203,0.015954330563545227,-0.055776964873075485,0.03508979082107544,-0.1969498097896576,0.07357925176620483,-0.004026417620480061,0.055713675916194916,-0.04129181057214737,-0.0034138222690671682,-0.14349444210529327,-0.12460893392562866,-0.001401434070430696
0.0020337626338005066,-0.027964791283011436,0.33142974972724915,-0.18608032166957855,-0.029891446232795715,0.0019377757562324405,0.9820778965950012,0.01565994694828987,0.004305253736674786,-0.0049772136844694614,-0.11621268838644028,-0.045737240463495255,-0.0072545637376606464,-0.16571283340454102,0.08614374697208405,-0.05137136951088905,0.1271505504846573,0.7075973153114319,0.7275354266166687,0.7742699980735779,1.1421475410461426,-1.7506515979766846,-1.768255352973938,-1.4634770154953003,-1.4621447324752808,-0.017087500542402267,-0.025791293010115623,0.09552758932113647,0.13515566289424896,-0.013086206279695034,0.030509380623698235,-0.021149063482880592,0.1127307116985321,0.006582154426723719,0.07635332643985748,-0.14432647824287415,-0.016005780547857285,-0.16806195676326752,-0.20290356874465942,0.03832034766674042,-0.24383731186389923,-0.0015930309891700745,0.042499836534261703,0.2591966390609741,-0.06689311563968658,0.024729058146476746,0.27914631366729736,0.18841029703617096,0.048492707312107086,0.023229753598570824,-0.02435130998492241,0.00587180582806468,-0.10274668782949448,-0.033527132123708725,-0.005288480781018734,0.04271582514047623,-0.015433014370501041,-0.03180806338787079,-0.053899865597486496,-0.13546772301197052,0.005008334293961525,0.010877157561480999,-0.07337115705013275,0.03675565868616104,-0.26583993434906006,0.07308671623468399,-0.006779943127185106,0.07105002552270889,-0.055203020572662354,-0.007767662871629,-0.20744048058986664,-0.18453986942768097,-0.0014163207961246371
0.002164725214242935,-0.02792852371931076,0.33138877153396606,-0.1864694356918335,-0.029623307287693024,0.001727632712572813,0.9820125102996826,0.01342215295881033,0.008916190825402737,-0.004481397569179535,-0.14069165289402008,-0.05549672618508339,-0.008716369979083538,-0.16585595905780792,0.08592863380908966,-0.05057477951049805,0.12827764451503754,0.7074873447418213,0.7277891635894775,0.7740925550460815,1.1430875062942505,-1.7505967617034912,-1.76761794090271,-1.4646806716918945,-1.4622783660888672,-0.017700403928756714,-0.025332584977149963,0.13384608924388885,0.19726146757602692,-0.012592170387506485,0.022534864023327827,-0.06488307565450668,0.1394944041967392,0.006431026384234428,0.0745195597410202,-0.12164471298456192,-0.023331960663199425,-0.16800376772880554,-0.20288893580436707,0.03831704333424568,-0.2437857985496521,-0.0015744641423225403,0.042510271072387695,0.2590214014053345,-0.06690272688865662,0.024734489619731903,0.2792765200138092,0.18853993713855743,0.04842830449342728,0.02358519285917282,-0.02632949873805046,0.00897078774869442,-0.12653787434101105,-0.043366286903619766,-0.006770308129489422,0.041103463619947433,-0.01828891597688198,-0.033850833773612976,-0.08225192874670029,-0.13625165820121765,0.002452342538163066,0.006654395256191492,-0.09145398437976837,0.039750780910253525,-0.33375537395477295,0.06873216480016708,-0.009694678708910942,0.0843162015080452,-0.07233744859695435,-0.008939770050346851,-0.28258228302001953,-0.2350694239139557,-0.0035684581380337477
0.0022766925394535065,-0.02785416692495346,0.33135077357292175,-0.1869959682226181,-0.02936125546693802,0.0015164964133873582,0.9819206595420837,0.01160536427050829,0.014127659611403942,-0.0041315387934446335,-0.17066937685012817,-0.06752926856279373,-0.010496299713850021,-0.16600321233272552,0.08571746200323105,-0.04945816099643707,0.12992335855960846,0.7073824405670166,0.7279780507087708,0.7735518217086792,1.144250750541687,-1.7505427598953247,-1.7669967412948608,-1.4656943082809448,-1.4624731540679932,-0.020241593942046165,-0.025747280567884445,0.16580761969089508,0.24213537573814392,-0.009900281205773354,0.018168512731790543,-0.10496403276920319,0.14771047234535217,0.0053508346900343895,0.07243494689464569,-0.1067105233669281,-0.0023509706370532513,-0.16791123151779175,-0.20288357138633728,0.038315244019031525,-0.2437746524810791,-0.0015952587127685547,0.042524874210357666,0.2588023245334625,-0.06692831963300705,0.024738669395446777,0.27943480014801025,0.18866269290447235,0.048377625644207,0.02522059716284275,-0.028560247272253036,0.012504680082201958,-0.15356938540935516,-0.055927060544490814,-0.008652807213366032,0.04134637862443924,-0.021466165781021118,-0.036725468933582306,-0.1140766590833664,-0.14209118485450745,-2.2859412638354115e-05,0.0026922300457954407,-0.1088743805885315,0.04401616007089615,-0.4028241038322449,0.06811202317476273,-0.012467392720282078,0.09751804918050766,-0.08597149699926376,-0.01400913204997778,-0.34363245964050293,-0.29067468643188477,-0.0035088318400084972
0.002373630180954933,-0.027736768126487732,0.3313167989253998,-0.1876794546842575,-0.029114343225955963,0.0013053745497018099,0.9817978143692017,0.009788221679627895,0.01895913854241371,-0.0032363159116357565,-0.19786711037158966,-0.07897399365901947,-0.010227382183074951,-0.1661725491285324,0.08550217002630234,-0.048075299710035324,0.13194283843040466,0.7073000073432922,0.7281287312507629,0.7726759314537048,1.145481824874878,-1.750498652458191,-1.766392469406128,-1.4665842056274414,-1.4624930620193481,-0.023979974910616875,-0.02832460030913353,0.19633962213993073,0.2912038564682007,-0.015666397288441658,0.010630297474563122,-0.15637437999248505,0.1520455777645111,0.0037714396603405476,0.06907396763563156,-0.08205974102020264,0.015453099273145199,-0.1677662432193756,-0.2028830498456955,0.03831258788704872,-0.24378997087478638,-0.0016557537019252777,0.042540036141872406,0.2585425078868866,-0.06694024056196213,0.024752609431743622,0.2796115577220917,0.18883287906646729,0.04832009971141815,0.024745136499404907,-0.03130686283111572,0.01649894006550312,-0.18005289137363434,-0.0592467337846756,-0.007062305696308613,0.040173791348934174,-0.024489853531122208,-0.03835480287671089,-0.1427185833454132,-0.1424088180065155,-0.000755583809223026,-0.0032869665883481503,-0.12551453709602356,0.04695472866296768,-0.4684526324272156,0.06993907690048218,-0.01312989555299282,0.10899537801742554,-0.10040999948978424,-0.01860768534243107,-0.40815484523773193,-0.3408418297767639,-0.0024936411064118147
0.0024544354528188705,-0.027578286826610565,0.3312898874282837,-0.18851041793823242,-0.02890155464410782,0.0010961884399875998,0.9816452264785767,0.006234029773622751,0.024448223412036896,-0.0015649325214326382,-0.028619254007935524,-0.058905113488435745,0.23763971030712128,-0.16637200117111206,0.08526573330163956,-0.046437930315732956,0.13437141478061676,0.707169771194458,0.7282179594039917,0.7713718414306641,1.146750569343567,-1.7504669427871704,-1.7658172845840454,-1.467268466949463,-1.4623639583587646,-0.028482656925916672,-0.03238190710544586,0.24324321746826172,0.36232900619506836,-0.017950430512428284,-0.0009130667895078659,-0.2300972193479538,0.16333948075771332,0.000623593688942492,0.0674905776977539,-0.03677186742424965,0.030268514528870583,-0.16758039593696594,-0.2028907835483551,0.0383073166012764,-0.2438300997018814,-0.001750364899635315,0.04255359247326851,0.25823676586151123,-0.0669463574886322,0.024775348603725433,0.2798120081424713,0.18902942538261414,0.048266179859638214,0.055624090135097504,-0.014001792296767235,-0.006738793570548296,-0.008695554919540882,-0.03251385688781738,0.24188575148582458,0.019091621041297913,-0.02759639173746109,-0.025539331138134003,0.025629686191678047,-0.10858893394470215,0.24598973989486694,-0.01400688011199236,-0.020586825907230377,0.033992279320955276,-0.35352131724357605,0.09858088195323944,0.23282723128795624,0.05823187902569771,0.008129078894853592,0.012421074323356152,-0.29507747292518616,-0.3714792728424072,0.24562734365463257
0.002506362274289131,-0.027374902740120888,0.33127596974372864,-0.18951717019081116,-0.028730934485793114,0.0008811222505755723,0.9814565181732178,0.00468638027086854,0.027749549597501755,-0.0005845054402016103,-0.03530677780508995,-0.04992368444800377,0.2743661105632782,-0.166609525680542,0.08499632775783539,-0.04440945386886597,0.13739223778247833,0.7070200443267822,0.7282100319862366,0.7694528102874756,1.148112177848816,-1.7504621744155884,-1.7652543783187866,-1.4675748348236084,-1.4621113538742065,-0.03330863267183304,-0.03546743839979172,0.2587202191352844,0.3870915472507477,-0.025563562288880348,-0.012651611119508743,-0.26768210530281067,0.14744782447814941,-0.0011108970502391458,0.06173420324921608,-0.010766400024294853,0.060963720083236694,-0.16734740138053894,-0.20290330052375793,0.03830110654234886,-0.24391351640224457,-0.001884903758764267,0.04256729036569595,0.2578672170639038,-0.06697405874729156,0.024800673127174377,0.2800452709197998,0.18923230469226837,0.04822988063097,0.05513586476445198,-0.017800066620111465,-0.0029848262201994658,-0.014481080695986748,-0.013156055472791195,0.28031790256500244,0.00988669041544199,-0.035047851502895355,-0.02119821310043335,0.015508574433624744,-0.08215824514627457,0.2811315953731537,-0.021985869854688644,-0.016616417095065117,0.029924612492322922,-0.3791845440864563,0.11189588159322739,0.2686924636363983,0.050818368792533875,0.013980794697999954,0.004394725896418095,-0.3187832236289978,-0.38582247495651245,0.2837669849395752
0.002546049654483795,-0.027143444865942,0.33127108216285706,-0.19063112139701843,-0.028612297028303146,0.000674036331474781,0.9812445044517517,0.0005775601021014154,0.03153075650334358,0.0011480329558253288,-0.04255888611078262,-0.040381789207458496,0.31525111198425293,-0.1668870747089386,0.08470079302787781,-0.04225168004631996,0.1406208723783493,0.7068066596984863,0.728104293346405,0.7672200202941895,1.1493414640426636,-1.7504714727401733,-1.7647396326065063,-1.4676640033721924,-1.4616025686264038,-0.03780045732855797,-0.039491813629865646,0.28806784749031067,0.43073999881744385,-0.02885899506509304,-0.02135992981493473,-0.32100462913513184,0.1406778246164322,-0.0053905826061964035,0.05535558611154556,0.025859946385025978,0.09058225899934769,-0.1670781672000885,-0.2029227316379547,0.03828851506114006,-0.2440163791179657,-0.002050194889307022,0.042576566338539124,0.257485955953598,-0.06698070466518402,0.024839304387569427,0.28028973937034607,0.18946877121925354,0.048191286623477936,0.053504884243011475,-0.021692313253879547,0.0020407671108841896,-0.020522430539131165,0.005025731399655342,0.3226308226585388,-0.0015481403097510338,-0.04264327883720398,-0.015892256051301956,0.006507010664790869,-0.05704529210925102,0.3207440972328186,-0.03385747969150543,-0.01654624566435814,0.02594480663537979,-0.42022839188575745,0.12516705691814423,0.30798906087875366,0.0441080741584301,0.017231207340955734,-0.002669657114893198,-0.35746142268180847,-0.41418883204460144,0.3263356685638428
0.0025508347898721695,-0.026880085468292236,0.33128121495246887,-0.19188176095485687,-0.02854095585644245,0.00047201907727867365,0.9810028076171875,-0.001951723825186491,0.033771876245737076,0.0025220161769539118,-0.04825069010257721,-0.023658674210309982,0.3235607147216797,-0.16720274090766907,0.08437119424343109,-0.03984967619180679,0.1442122757434845,0.7065659165382385,0.7279260754585266,0.7645432949066162,1.1505143642425537,-1.7505156993865967,-1.7642778158187866,-1.467448115348816,-1.4608467817306519,-0.04340453818440437,-0.0441044345498085,0.3046606481075287,0.454565167427063,-0.03572651743888855,-0.033986836671829224,-0.3674389719963074,0.12033198773860931,-0.00865873135626316,0.04850435256958008,0.06808502972126007,0.1184135153889656,-0.166780024766922,-0.2029525637626648,0.03827947378158569,-0.24416068196296692,-0.0022526532411575317,0.04259079694747925,0.25705909729003906,-0.06699050962924957,0.024890221655368805,0.2805432081222534,0.18972647190093994,0.04815874993801117,0.04504168778657913,-0.02178892493247986,0.007399730384349823,-0.025003667920827866,0.03315248712897301,0.3328382670879364,-0.013423851691186428,-0.04421247914433479,-0.009020623750984669,-0.002088945358991623,-0.020466262474656105,0.32741570472717285,-0.04586167633533478,-0.021607743576169014,0.018102753907442093,-0.44325169920921326,0.13860706984996796,0.314908891916275,0.03830132633447647,0.013455528765916824,-0.012600377202033997,-0.38158804178237915,-0.4140155613422394,0.33525002002716064
0.0025345049798488617,-0.026598740369081497,0.33130237460136414,-0.19321846961975098,-0.028538521379232407,0.0002810389269143343,0.9807406663894653,-0.005444458220154047,0.035480085760354996,0.0041831666603684425,-0.054164912551641464,-0.012462630867958069,0.34991225600242615,-0.1675644814968109,0.08400353044271469,-0.03730910271406174,0.14800341427326202,0.706268310546875,0.7276430130004883,0.7614794969558716,1.151517629623413,-1.750588297843933,-1.7638733386993408,-1.4668805599212646,-1.4598593711853027,-0.04886257275938988,-0.048684827983379364,0.31481462717056274,0.4729277491569519,-0.039835479110479355,-0.044013891369104385,-0.40852469205856323,0.105038121342659,-0.013545334339141846,0.040237147361040115,0.10293859243392944,0.14728054404258728,-0.16645173728466034,-0.202989861369133,0.03826184943318367,-0.24432575702667236,-0.0024832580238580704,0.04259682819247246,0.25662198662757874,-0.06700345873832703,0.02494814246892929,0.2808043658733368,0.18999338150024414,0.04813440144062042,0.04078846052289009,-0.0250331349670887,0.012461556121706963,-0.029476488009095192,0.05466671660542488,0.36092111468315125,-0.024771321564912796,-0.050310276448726654,-0.002934507094323635,-0.010603007860481739,0.009475167840719223,0.35227227210998535,-0.05689174681901932,-0.02038600668311119,0.012705216184258461,-0.46132972836494446,0.1506720930337906,0.3401675224304199,0.029936382547020912,0.01668236404657364,-0.019619058817625046,-0.39851927757263184,-0.4230232834815979,0.3635271191596985
0.0024892408400774,-0.026302488520741463,0.3313375413417816,-0.19462993741035461,-0.028587233275175095,0.00010311015648767352,0.9804600477218628,-0.007828631438314915,0.03620348498225212,0.00544395949691534,-0.05808171629905701,0.001980183646082878,0.35528475046157837,-0.16797229647636414,0.08359679579734802,-0.03468376025557518,0.15194697678089142,0.7059357166290283,0.7272756695747375,0.7580723166465759,1.1523933410644531,-1.7507017850875854,-1.763537883758545,-1.4660215377807617,-1.4586312770843506,-0.05457001179456711,-0.05358998849987984,0.32156214118003845,0.4835120737552643,-0.04462260380387306,-0.05478611961007118,-0.4397512376308441,0.08538244664669037,-0.017700960859656334,0.03167165443301201,0.13951024413108826,0.17335030436515808,-0.16611087322235107,-0.2030351161956787,0.03824793919920921,-0.2445250153541565,-0.00274074450135231,0.042607344686985016,0.25615307688713074,-0.06701524555683136,0.02501259744167328,0.2810683846473694,0.1902761161327362,0.04811809957027435,0.03306851163506508,-0.025497494265437126,0.01714945398271084,-0.03177059441804886,0.07948464155197144,0.3680478632450104,-0.03548407554626465,-0.052090130746364594,0.003662215080112219,-0.017321886494755745,0.0437430776655674,0.35609883069992065,-0.0656992718577385,-0.023078758269548416,0.0057836854830384254,-0.4698576331138611,0.15646648406982422,0.34426629543304443,0.023999856784939766,0.014664597809314728,-0.02758757770061493,-0.40876173973083496,-0.41936028003692627,0.37019598484039307
0.0024237073957920074,-0.026001155376434326,0.33138275146484375,-0.19609205424785614,-0.028695547953248024,-5.8834790252149105e-05,0.9801656007766724,-0.012581192888319492,0.03738604113459587,0.007235293742269278,-0.06842147558927536,0.022530296817421913,0.3693719506263733,-0.16842737793922424,0.08314986526966095,-0.032002806663513184,0.15597929060459137,0.7055639624595642,0.7268187999725342,0.7544052600860596,1.1531054973602295,-1.750848650932312,-1.7632739543914795,-1.4648582935333252,-1.4571856260299683,-0.06231425330042839,-0.05988603085279465,0.33315974473953247,0.4997992515563965,-0.05870353430509567,-0.07087020576000214,-0.49444475769996643,0.05419549718499184,-0.025042256340384483,0.01963966339826584,0.1916016936302185,0.21840372681617737,-0.16575276851654053,-0.20308977365493774,0.03822967782616615,-0.24474495649337769,-0.003023456782102585,0.042614761739969254,0.25568705797195435,-0.06702989339828491,0.025082416832447052,0.28133898973464966,0.1905626505613327,0.04811042547225952,0.019883466884493828,-0.02937353402376175,0.025092974305152893,-0.04352850466966629,0.12253589928150177,0.3859744966030121,-0.05242953822016716,-0.05752792954444885,0.012843549251556396,-0.0326257199048996,0.09272628277540207,0.3679255545139313,-0.08227886259555817,-0.02817191183567047,-0.004156529903411865,-0.49231192469596863,0.17376288771629333,0.35692575573921204,0.013574779033660889,0.012174941599369049,-0.04114335775375366,-0.42782485485076904,-0.41865524649620056,0.38652274012565613
0.0023182369768619537,-0.02568894438445568,0.3314429223537445,-0.19763357937335968,-0.02890227921307087,-0.00020751659758388996,0.9798496961593628,-0.016473356634378433,0.037584029138088226,0.008715690113604069,-0.07119728624820709,0.03722221031785011,0.39328449964523315,-0.1689467430114746,0.0826505646109581,-0.02922421135008335,0.16014708578586578,0.7050742506980896,0.7262278199195862,0.750282347202301,1.1535569429397583,-1.7510582208633423,-1.7631100416183472,-1.4632599353790283,-1.4553642272949219,-0.07193955779075623,-0.06900828331708908,0.33145833015441895,0.5009651184082031,-0.0628354623913765,-0.07590775191783905,-0.5244360566139221,0.036577776074409485,-0.029822923243045807,0.008143926039338112,0.2236131876707077,0.24918103218078613,-0.16538824141025543,-0.20315861701965332,0.03820277750492096,-0.24500012397766113,-0.003337522968649864,0.0426127165555954,0.2551983892917633,-0.06704892218112946,0.025163352489471436,0.28161755204200745,0.19086626172065735,0.04811788350343704,0.013425277546048164,-0.03175237774848938,0.029716793447732925,-0.04125582426786423,0.1491032987833023,0.41191262006759644,-0.0646195337176323,-0.06226539611816406,0.020442072302103043,-0.03353498876094818,0.12627162039279938,0.39086973667144775,-0.09338650852441788,-0.023860838264226913,-0.010928936302661896,-0.4931693375110626,0.1859523057937622,0.37994593381881714,0.002346459776163101,0.01866668090224266,-0.04808979481458664,-0.4255060851573944,-0.4174007475376129,0.4134688973426819
0.002181699499487877,-0.025375807657837868,0.3315151035785675,-0.1992240846157074,-0.02915673889219761,-0.00032422467484138906,0.9795200228691101,-0.020331399515271187,0.036899667233228683,0.009824832901358604,-0.07758137583732605,0.057919543236494064,0.3914327919483185,-0.16954636573791504,0.08207500725984573,-0.0264606773853302,0.16432368755340576,0.7045502066612244,0.7255942821502686,0.7459084987640381,1.1538622379302979,-1.7513062953948975,-1.7630424499511719,-1.4613953828811646,-1.453285574913025,-0.08267000317573547,-0.07940297573804855,0.3377399146556854,0.5084483623504639,-0.0689014345407486,-0.08568689972162247,-0.5682902336120605,0.010905182920396328,-0.038119714707136154,-0.004131055437028408,0.28732261061668396,0.2861257791519165,-0.1650252640247345,-0.20324185490608215,0.03818216547369957,-0.245286226272583,-0.0036778543144464493,0.04261844605207443,0.2546851634979248,-0.06706919521093369,0.02524876594543457,0.281891793012619,0.19118541479110718,0.0481293722987175,-1.649651676416397e-05,-0.03240735083818436,0.03608167544007301,-0.04381558299064636,0.18707485496997833,0.4130345582962036,-0.07908955961465836,-0.06324590742588043,0.02929891273379326,-0.039135344326496124,0.17140808701515198,0.3876444101333618,-0.10531514137983322,-0.030535824596881866,-0.023250004276633263,-0.4979858994483948,0.18459272384643555,0.3764341175556183,-0.004743166267871857,0.013218794018030167,-0.0597367100417614,-0.4332020878791809,-0.4108762741088867,0.41405031085014343
0.002012103796005249,-0.025067836046218872,0.3315972685813904,-0.2008531242609024,-0.029506709426641464,-0.0004141548997722566,0.9791767597198486,-0.024384288117289543,0.035063814371824265,0.01094505749642849,-0.08353428542613983,0.06961075216531754,0.3929606080055237,-0.17023606598377228,0.08141341805458069,-0.02364407293498516,0.168563574552536,0.7039759755134583,0.7248803973197937,0.7411698698997498,1.1539530754089355,-1.7516241073608398,-1.763076901435852,-1.4589992761611938,-1.4508999586105347,-0.08471430093050003,-0.08064151555299759,0.32734620571136475,0.4926522374153137,-0.07555954158306122,-0.0894971489906311,-0.5731737017631531,-0.01659797877073288,-0.043891165405511856,-0.01600741595029831,0.30138182640075684,0.3203323185443878,-0.16465051472187042,-0.20333468914031982,0.03815053030848503,-0.2455892264842987,-0.004038739949464798,0.04261065647006035,0.2541884481906891,-0.06710979342460632,0.02532760053873062,0.28218960762023926,0.19149619340896606,0.04816046357154846,-0.009473330341279507,-0.03673858195543289,0.04106069356203079,-0.05327718332409859,0.21089959144592285,0.41677147150039673,-0.08875612169504166,-0.06774285435676575,0.035267315804958344,-0.050409719347953796,0.19810783863067627,0.3879076838493347,-0.11295615881681442,-0.031015772372484207,-0.02722763828933239,-0.4911528527736664,0.19057127833366394,0.37740471959114075,-0.014037061482667923,0.013738706707954407,-0.0676698312163353,-0.42073026299476624,-0.4000732898712158,0.4185848832130432
0.0018086470663547516,-0.024776052683591843,0.3316884934902191,-0.2024795413017273,-0.02990865148603916,-0.0004950282163918018,0.978829562664032,-0.02695150300860405,0.03170853853225708,0.011922551319003105,-0.08986271917819977,0.0815257728099823,0.3916395306587219,-0.17094263434410095,0.08074091374874115,-0.020914427936077118,0.17267148196697235,0.7033453583717346,0.7241338491439819,0.7363907098770142,1.1538140773773193,-1.7519900798797607,-1.7632100582122803,-1.4564858675003052,-1.4482285976409912,-0.08572908490896225,-0.08125313371419907,0.31023895740509033,0.470371812582016,-0.07765570282936096,-0.09779851883649826,-0.5734328627586365,-0.04007643088698387,-0.04847206547856331,-0.025152085348963737,0.3232080936431885,0.34125879406929016,-0.16429850459098816,-0.20344677567481995,0.03811977058649063,-0.24591416120529175,-0.004418771713972092,0.04260483384132385,0.2536889314651489,-0.06714364886283875,0.025423526763916016,0.2824708819389343,0.19182030856609344,0.04819630831480026,-0.016639787703752518,-0.041949618607759476,0.045690007507801056,-0.061838630586862564,0.22932252287864685,0.41670870780944824,-0.0976434051990509,-0.07376626878976822,0.040737368166446686,-0.06341948360204697,0.22636207938194275,0.38514912128448486,-0.11758457124233246,-0.03081323392689228,-0.032958969473838806,-0.4735848903656006,0.18814918398857117,0.37584853172302246,-0.023642338812351227,0.013116676360368729,-0.07443271577358246,-0.40622609853744507,-0.3779608905315399,0.41896551847457886
0.001583406701683998,-0.024511203169822693,0.3317885398864746,-0.20406362414360046,-0.030356232076883316,-0.0005636999267153442,0.9784867763519287,-0.027754999697208405,0.02922087348997593,0.011977529153227806,-0.08644310384988785,0.0866425409913063,0.37018126249313354,-0.17165733873844147,0.08006326109170914,-0.018327560275793076,0.17659354209899902,0.7026980519294739,0.7233179807662964,0.7316082119941711,1.1534795761108398,-1.7523943185806274,-1.7634203433990479,-1.4537913799285889,-1.4453824758529663,-0.08752996474504471,-0.08282458782196045,0.288383811712265,0.4353404641151428,-0.07674909383058548,-0.0930873230099678,-0.5460802316665649,-0.057154152542352676,-0.04896381124854088,-0.033756840974092484,0.31403908133506775,0.34291237592697144,-0.16396325826644897,-0.20357419550418854,0.03808977082371712,-0.24625694751739502,-0.0048152729868888855,0.04260006174445152,0.2532055974006653,-0.0671783834695816,0.02552051842212677,0.2827422022819519,0.1921335607767105,0.048244327306747437,-0.02249135822057724,-0.03970009461045265,0.04587503522634506,-0.05710449069738388,0.23485389351844788,0.3954373896121979,-0.0990903377532959,-0.06996439397335052,0.04364091902971268,-0.06056567281484604,0.23575986921787262,0.36356762051582336,-0.11646583676338196,-0.029459981247782707,-0.033983513712882996,-0.44318661093711853,0.18410979211330414,0.35460931062698364,-0.02882959321141243,0.012965131551027298,-0.07559103518724442,-0.37534356117248535,-0.34575676918029785,0.3975025713443756
0.0013524387031793594,-0.024267466738820076,0.33188769221305847,-0.20558184385299683,-0.030822042375802994,-0.0006084375199861825,0.978154182434082,-0.02633260190486908,0.026145385578274727,0.012503135949373245,-0.08568418025970459,0.09380942583084106,0.33801522850990295,-0.17238746583461761,0.07937245070934296,-0.01592281647026539,0.18022421002388,0.7020577192306519,0.7225422263145447,0.7270552515983582,1.1530028581619263,-1.752802848815918,-1.7637022733688354,-1.4511727094650269,-1.442523717880249,-0.09247741103172302,-0.0855727270245552,0.26029840111732483,0.3936924636363983,-0.08348613232374191,-0.10242591053247452,-0.5387729406356812,-0.08257469534873962,-0.05053441971540451,-0.038449160754680634,0.3359561860561371,0.33533191680908203,-0.16364392638206482,-0.2037055790424347,0.03805817291140556,-0.24658754467964172,-0.005205878987908363,0.04259495437145233,0.25275978446006775,-0.06720644980669022,0.02563183754682541,0.28298452496528625,0.1924426555633545,0.04829316586256027,-0.03087928704917431,-0.03741569444537163,0.047536421567201614,-0.055686432868242264,0.25155341625213623,0.3650439381599426,-0.10180416703224182,-0.06608813256025314,0.04717056825757027,-0.0633208155632019,0.2569379210472107,0.3304353356361389,-0.11599964648485184,-0.030898144468665123,-0.04017629474401474,-0.405245840549469,0.17473666369915009,0.32314929366111755,-0.03470217064023018,0.008202247321605682,-0.07818956673145294,-0.34805408120155334,-0.29278403520584106,0.36225399374961853
0.0011326111853122711,-0.02404969558119774,0.33199188113212585,-0.20698794722557068,-0.03131900727748871,-0.000635100994259119,0.977841854095459,-0.024115342646837234,0.023373734205961227,0.013331186957657337,-0.08886350691318512,0.10604558140039444,0.32078832387924194,-0.17315863072872162,0.07865855097770691,-0.013752974569797516,0.18350614607334137,0.7013620138168335,0.721688449382782,0.722562313079834,1.1523147821426392,-1.7532240152359009,-1.7640221118927002,-1.448371171951294,-1.4397270679473877,-0.09716640412807465,-0.08885392546653748,0.2344902753829956,0.3560849726200104,-0.09262785315513611,-0.11108455061912537,-0.5241028070449829,-0.11572463810443878,-0.050524044781923294,-0.04349804297089577,0.34834736585617065,0.326985239982605,-0.16335293650627136,-0.2038259357213974,0.038025714457035065,-0.24690794944763184,-0.005575262010097504,0.04258827492594719,0.2523545026779175,-0.0672382265329361,0.02572520077228546,0.283202201128006,0.19272220134735107,0.04835342615842819,-0.03780824691057205,-0.038415975868701935,0.050715118646621704,-0.058805227279663086,0.2739526033401489,0.3497281074523926,-0.1055375263094902,-0.0662539005279541,0.052139848470687866,-0.0694449245929718,0.2830825448036194,0.31232452392578125,-0.11487052589654922,-0.029494663700461388,-0.045788176357746124,-0.37409472465515137,0.17177823185920715,0.3067162036895752,-0.046170808374881744,0.004777118563652039,-0.08435201644897461,-0.33199748396873474,-0.22854699194431305,0.33979421854019165
0.000931762158870697,-0.02385423518717289,0.33210304379463196,-0.20829133689403534,-0.03185473755002022,-0.0006406152388080955,0.9775477051734924,-0.02216947451233864,0.018935801461338997,0.013916346244513988,-0.08592066913843155,0.1142185777425766,0.28566357493400574,-0.1739685982465744,0.07791836559772491,-0.011797688901424408,0.18647530674934387,0.7005887627601624,0.7207618951797485,0.7181923985481262,1.1513499021530151,-1.7536460161209106,-1.7643848657608032,-1.445466160774231,-1.4370005130767822,-0.09995298087596893,-0.09344181418418884,0.19371667504310608,0.2962227761745453,-0.0974852442741394,-0.11686256527900696,-0.4967031180858612,-0.144578754901886,-0.048308901488780975,-0.046835776418447495,0.347389817237854,0.31822681427001953,-0.1630786955356598,-0.20393836498260498,0.037990912795066833,-0.24720588326454163,-0.005924224853515625,0.04257889464497566,0.25201159715652466,-0.06726904213428497,0.02581936866044998,0.2833896279335022,0.19295932352542877,0.04841887205839157,-0.045463092625141144,-0.03658405691385269,0.05158299207687378,-0.054889775812625885,0.2856854796409607,0.31537413597106934,-0.10718917846679688,-0.061567943543195724,0.05581559240818024,-0.0664534717798233,0.30149251222610474,0.27683040499687195,-0.11369539797306061,-0.027543164789676666,-0.05029076337814331,-0.323351114988327,0.17166149616241455,0.27351102232933044,-0.05462910234928131,0.002585703507065773,-0.08685314655303955,-0.28833964467048645,-0.16269870102405548,0.301315039396286
0.0007470957934856415,-0.023696567863225937,0.3322199285030365,-0.20944790542125702,-0.032410502433776855,-0.0006184555240906775,0.9772824048995972,-0.01903447136282921,0.01604728400707245,0.012905314564704895,-0.08077745884656906,0.1028667464852333,0.2483198493719101,-0.17480279505252838,0.0771390050649643,-0.010182703845202923,0.18894588947296143,0.6997760534286499,0.719787061214447,0.7140510082244873,1.1501442193984985,-1.7540483474731445,-1.7647751569747925,-1.442569375038147,-1.4343470335006714,-0.09781266748905182,-0.0924990251660347,0.16671964526176453,0.25633078813552856,-0.09220076352357864,-0.11181019246578217,-0.448827862739563,-0.14409740269184113,-0.04156618192791939,-0.04067898914217949,0.32135942578315735,0.290101021528244,-0.16283771395683289,-0.2040465772151947,0.037957563996315,-0.24748654663562775,-0.00624452531337738,0.04257136583328247,0.2517106831073761,-0.06729881465435028,0.025909140706062317,0.2835383415222168,0.19316329061985016,0.0484854057431221,-0.04327460750937462,-0.0320136733353138,0.04679275304079056,-0.04715193435549736,0.26273226737976074,0.27612727880477905,-0.09770650416612625,-0.05408932641148567,0.05111546814441681,-0.058093320578336716,0.27960044145584106,0.24059666693210602,-0.10179406404495239,-0.02696896903216839,-0.0463411808013916,-0.2847866117954254,0.15088126063346863,0.2374340146780014,-0.05009084194898605,-0.001076243817806244,-0.08018314093351364,-0.2570973038673401,-0.13328811526298523,0.2611541450023651
0.0005877632647752762,-0.023562990128993988,0.3323269486427307,-0.2104901671409607,-0.03293386474251747,-0.0005880414973944426,0.9770408868789673,-0.014271643944084644,0.012860742397606373,0.012227258644998074,-0.2292207032442093,-0.10368578135967255,-0.01628689654171467,-0.1756182610988617,0.0763673260807991,-0.008792857639491558,0.1910828799009323,0.6990077495574951,0.7188547849655151,0.7103082537651062,1.1489421129226685,-1.7543951272964478,-1.7651152610778809,-1.4398895502090454,-1.431928038597107,-0.0974159836769104,-0.09362037479877472,0.1345403641462326,0.20957079529762268,-0.09073682129383087,-0.10981180518865585,-0.3994494676589966,-0.13951285183429718,-0.03230917453765869,-0.03319000452756882,0.2886282503604889,0.24745029211044312,-0.16261279582977295,-0.20414260029792786,0.03791860118508339,-0.247737318277359,-0.006534125655889511,0.04255823791027069,0.2514615058898926,-0.06731782853603363,0.025991104543209076,0.28366076946258545,0.19334635138511658,0.04854580760002136,-0.02329862304031849,-0.03895310312509537,0.04016437381505966,-0.19186337292194366,0.04647397622466087,0.00991748459637165,-0.026405617594718933,-0.03796900063753128,-0.002001427114009857,-0.2020527571439743,0.06493199616670609,-0.022938134148716927,-0.039051979780197144,-0.13262209296226501,0.016276728361845016,-0.39719468355178833,-0.05803650990128517,-0.025415392592549324,0.05863955616950989,-0.11485165357589722,-0.047495920211076736,-0.3774881660938263,-0.2867673635482788,-0.008023101836442947
0.00046930834650993347,-0.023456230759620667,0.3324286937713623,-0.21140426397323608,-0.033404476940631866,-0.0005368142738007009,0.9768275618553162,-0.01025434024631977,0.010843957774341106,0.01018003560602665,-0.20430533587932587,-0.09288247674703598,-0.01472889818251133,-0.1764298677444458,0.07558643072843552,-0.0076701221987605095,0.19282981753349304,0.6982513666152954,0.717939019203186,0.7069774270057678,1.1477789878845215,-1.754664659500122,-1.7653913497924805,-1.437483549118042,-1.4298652410507202,-0.09172801673412323,-0.0899462178349495,0.11620853841304779,0.18357063829898834,-0.07127513736486435,-0.09235274791717529,-0.3237541913986206,-0.11035982519388199,-0.02295617014169693,-0.026138165965676308,0.23060615360736847,0.1948723942041397,-0.16241195797920227,-0.2042320817708969,0.03788666054606438,-0.24795952439308167,-0.0067956820130348206,0.04255181923508644,0.2512572705745697,-0.06733497977256775,0.026065587997436523,0.2837459444999695,0.19349965453147888,0.0485994815826416,-0.015875013545155525,-0.03256372734904289,0.03351869434118271,-0.16037432849407196,0.029224462807178497,0.006567368749529123,-0.01994975097477436,-0.03218579292297363,-0.002828441560268402,-0.1708201915025711,0.05199046432971954,-0.01931115798652172,-0.027323581278324127,-0.11556629836559296,0.01781202293932438,-0.3483872413635254,-0.05606495961546898,-0.022844159975647926,0.053096842020750046,-0.10214751958847046,-0.03936610743403435,-0.3378507196903229,-0.24447044730186462,-0.00950646586716175
0.0003830157220363617,-0.02336561307311058,0.33251431584358215,-0.21223561465740204,-0.0337870717048645,-0.0004756538837682456,0.97663414478302,-0.005859460681676865,0.008131682872772217,0.008015427738428116,-0.17663909494876862,-0.08067239820957184,-0.012883016839623451,-0.17719495296478271,0.0748368352651596,-0.0067014070227742195,0.19436043500900269,0.6976566314697266,0.717168927192688,0.7042788863182068,1.1468585729599,-1.754855751991272,-1.7656091451644897,-1.4355599880218506,-1.428240418434143,-0.08924022316932678,-0.09056633710861206,0.09862197190523148,0.15713950991630554,-0.06169925257563591,-0.08390557020902634,-0.2749135494232178,-0.08606725186109543,-0.016770819202065468,-0.012653580866754055,0.20238043367862701,0.14597007632255554,-0.1622074842453003,-0.2043118178844452,0.03785951808094978,-0.24814894795417786,-0.007036631926894188,0.042554181069135666,0.25111743807792664,-0.06733265519142151,0.026144497096538544,0.283800333738327,0.19363556802272797,0.048643194139003754,-0.011500491760671139,-0.02668015845119953,0.027155352756381035,-0.12857525050640106,0.0263911671936512,0.0057886624708771706,-0.015522690489888191,-0.026041338220238686,-0.003991574048995972,-0.13388340175151825,0.044593870639801025,-0.015382202342152596,-0.01880478486418724,-0.09993082284927368,0.014354445040225983,-0.2962537407875061,-0.05556345358490944,-0.01989939995110035,0.04688085615634918,-0.08955942839384079,-0.03212488070130348,-0.2956574559211731,-0.19946669042110443,-0.010953743942081928
0.0003344602882862091,-0.023297086358070374,0.3325802981853485,-0.21296578645706177,-0.034089673310518265,-0.0004086517437826842,0.9764646887779236,-0.003027660772204399,0.005252524744719267,0.007438316009938717,-0.1506522297859192,-0.06907985359430313,-0.011087342165410519,-0.17793887853622437,0.07408173382282257,-0.0058793071657419205,0.19567131996154785,0.6971426010131836,0.7164695858955383,0.7019861340522766,1.1461412906646729,-1.7549951076507568,-1.7657151222229004,-1.4338728189468384,-1.42702317237854,-0.0858115702867508,-0.08822192996740341,0.07266946882009506,0.12237722426652908,-0.053927984088659286,-0.08292935788631439,-0.23471970856189728,-0.08418335020542145,-0.011997850611805916,-0.00631646066904068,0.17935635149478912,0.1127701923251152,-0.162021666765213,-0.20438288152217865,0.037834662944078445,-0.2483123540878296,-0.007247079163789749,0.04255354776978493,0.2510223090648651,-0.06733685731887817,0.026191100478172302,0.28383663296699524,0.1937384307384491,0.04867182672023773,-0.008988682180643082,-0.02197638526558876,0.02290932834148407,-0.10058668255805969,0.025427905842661858,0.005391966551542282,-0.014793521724641323,-0.0222930945456028,-0.0025234995409846306,-0.10721787065267563,0.048638831824064255,-0.013009969145059586,-0.014469669200479984,-0.0832526683807373,0.011004145257174969,-0.23960979282855988,-0.04896603897213936,-0.016372885555028915,0.03570215404033661,-0.07732164859771729,-0.027365578338503838,-0.2503500282764435,-0.14555686712265015,-0.013326014392077923
0.00030949153006076813,-0.02325372025370598,0.33264288306236267,-0.21358288824558258,-0.03436143323779106,-0.0003426902985665947,0.9763204455375671,0.00289098615758121,0.0015210227575153112,0.005074303597211838,-0.11144138127565384,-0.05127307400107384,-0.008267328143119812,-0.17865526676177979,0.0733458623290062,-0.005273627117276192,0.19669072329998016,0.6966925263404846,0.7157777547836304,0.7000293731689453,1.1454391479492188,-1.755095362663269,-1.7657670974731445,-1.4323780536651611,-1.4260833263397217,-0.0799134224653244,-0.08489853143692017,0.03510027751326561,0.0704067200422287,-0.036325253546237946,-0.0628960058093071,-0.14264006912708282,-0.04975588247179985,0.003496403805911541,-0.0005670079845003784,0.11081284284591675,0.05281979590654373,-0.16185015439987183,-0.2044389843940735,0.0378100723028183,-0.2484559416770935,-0.0074287038296461105,0.042554158717393875,0.2509625554084778,-0.06733096390962601,0.026229359209537506,0.2838417589664459,0.1938118040561676,0.04870329797267914,-0.0013427570229396224,-0.013071798719465733,0.013411863707005978,-0.05287230387330055,0.01132230181246996,0.0024737436324357986,-0.008021261543035507,-0.014057444408535957,-0.0015820986591279507,-0.06057532876729965,0.0417211577296257,-0.008084832690656185,-0.0022048961836844683,-0.055903732776641846,0.009364169090986252,-0.15654173493385315,-0.036990366876125336,-0.010905948467552662,0.02616593986749649,-0.05453956127166748,-0.016695743426680565,-0.17404510080814362,-0.08337445557117462,-0.012362166307866573
0.00033308006823062897,-0.02324124425649643,0.3326846957206726,-0.21404527127742767,-0.03452180325984955,-0.00023428990971297026,0.9762135148048401,0.005904697813093662,-0.0013877855380997062,0.003632454201579094,-0.08216866105794907,-0.037900809198617935,-0.006122079212218523,-0.17932167649269104,0.07263832539319992,-0.004981559701263905,0.19727762043476105,0.6963898539543152,0.7152537107467651,0.6988404989242554,1.145024299621582,-1.7550660371780396,-1.7657719850540161,-1.431454062461853,-1.425642967224121,-0.07458650320768356,-0.07994590699672699,0.0017740288749337196,0.02437063679099083,-0.027871444821357727,-0.05064797028899193,-0.0942394882440567,-0.04189682379364967,0.0100506991147995,0.00018617050955072045,0.07548370212316513,0.015322091989219189,-0.16169440746307373,-0.20449456572532654,0.037794582545757294,-0.24855449795722961,-0.0075838565826416016,0.042567502707242966,0.2509719729423523,-0.06731805205345154,0.026258565485477448,0.28382551670074463,0.19385233521461487,0.04871043562889099,0.00144040712621063,-0.007718258071690798,0.0077157458290457726,-0.022136563435196877,0.009148080833256245,0.0018324749544262886,-0.0051727029494941235,-0.00905593577772379,-2.6421155780553818e-05,-0.03052590601146221,0.041280779987573624,-0.005099871661514044,0.0013269998598843813,-0.035640791058540344,0.005465308204293251,-0.09162057936191559,-0.02160661853849888,-0.006417221389710903,0.013669413514435291,-0.037651751190423965,-0.011258416809141636,-0.11478836089372635,-0.02433428354561329,-0.013336570002138615
0.0003832448273897171,-0.02325272560119629,0.3327152729034424,-0.21437032520771027,-0.03464726358652115,-0.00011100592382717878,0.9761377573013306,0.011996310204267502,-0.00387266231700778,0.0012386657763272524,-0.05265656113624573,-0.024331608787178993,-0.003935396671295166,-0.1799435317516327,0.07197141647338867,-0.004966105800122023,0.1974811851978302,0.6961576342582703,0.7148317098617554,0.6980545520782471,1.1446751356124878,-1.7549827098846436,-1.7657709121704102,-1.430824637413025,-1.42551589012146,-0.07691877335309982,-0.08240542560815811,-0.02209511213004589,-0.010210083797574043,-0.017607443034648895,-0.049198053777217865,-0.04919767752289772,-0.030346019193530083,0.01170301903039217,0.011391525156795979,0.04860552400350571,-0.026480212807655334,-0.16155505180358887,-0.20453724265098572,0.03777536004781723,-0.2486097514629364,-0.007701486349105835,0.04257851839065552,0.2510131001472473,-0.06729540228843689,0.02628038078546524,0.2837843596935272,0.1938709020614624,0.048716627061367035,0.006361142732203007,-6.285699782893062e-05,0.0014672963880002499,0.014505361206829548,0.013118317350745201,0.0022402936592698097,-0.0016494581941515207,-0.0025442708283662796,-0.0004054401069879532,0.006379225756973028,0.04443909972906113,-0.0016215801006183028,0.009391287341713905,-0.01748870685696602,0.00029249952058307827,-0.032893262803554535,-0.014547077007591724,-0.0024455434177070856,0.0057217213325202465,-0.02322857640683651,-0.006416622549295425,-0.06597629934549332,0.030709778890013695,-0.015182463452219963
0.0004829857498407364,-0.02328495681285858,0.33272597193717957,-0.2145616114139557,-0.03470247611403465,2.1009662305004895e-05,0.9760937690734863,0.015532756224274635,-0.004949700087308884,-0.0001321054296568036,-0.0372348427772522,-0.017223738133907318,-0.0027853294741362333,-0.1805846095085144,0.07128453254699707,-0.005150932352989912,0.1973959058523178,0.6960105895996094,0.7144213914871216,0.6976445317268372,1.144422173500061,-1.754884958267212,-1.7656759023666382,-1.4304195642471313,-1.425736427307129,-0.07505261898040771,-0.07944315671920776,-0.04154196381568909,-0.037298619747161865,-0.0124187171459198,-0.044152747839689255,-0.011532510630786419,-0.02463465929031372,0.010834789834916592,0.015798499807715416,0.01693568378686905,-0.05960575491189957,-0.16143620014190674,-0.20455099642276764,0.03775894269347191,-0.24863940477371216,-0.007773078978061676,0.04258730635046959,0.2510995864868164,-0.06728042662143707,0.026265904307365417,0.283732533454895,0.19384732842445374,0.048695117235183716,0.00942825898528099,0.0032195737585425377,-0.0014503662241622806,0.0300547294318676,0.015623722225427628,0.002559014828875661,0.0019337437115609646,0.00044952955795452,-0.0008813086897134781,0.022992825135588646,0.04176047444343567,0.0001589148014318198,0.014480555430054665,-0.005038112867623568,-0.0006814334774389863,0.0026472010649740696,-0.004728429950773716,8.150639769155532e-05,-0.0015358994714915752,-0.01387573778629303,-0.0032792864367365837,-0.03694086894392967,0.07364358007907867,-0.017973443493247032
0.0006119571626186371,-0.023326460272073746,0.3327249586582184,-0.2146676778793335,-0.034721847623586655,0.00015026114124339074,0.9760698080062866,0.019810039550065994,-0.007340420037508011,-0.00022879708558321,-0.029652832075953484,-0.013724682852625847,-0.002217757748439908,-0.18121060729026794,0.07062192261219025,-0.005497147794812918,0.19708482921123505,0.6959068775177002,0.714053213596344,0.6975480914115906,1.144216775894165,-1.7547944784164429,-1.7655436992645264,-1.4302781820297241,-1.4262336492538452,-0.07300958782434464,-0.07536566257476807,-0.07123468816280365,-0.07148535549640656,-0.01075692754238844,-0.04379832372069359,0.021394040435552597,-0.030756890773773193,0.012381342239677906,0.01727546751499176,-0.006354489363729954,-0.0936652347445488,-0.1613297462463379,-0.2045460194349289,0.0377441868185997,-0.24864086508750916,-0.007811788469552994,0.04259306564927101,0.25121569633483887,-0.06724822521209717,0.026245489716529846,0.2836558520793915,0.19381198287010193,0.04866704344749451,0.013569080270826817,0.0027298342902213335,-0.002568055409938097,0.03714125603437424,0.01542529184371233,0.0024585009086877108,0.005943319760262966,-0.0008432461181655526,-0.0005426055286079645,0.027625340968370438,0.041904646903276443,0.0006166184903122485,0.01995016634464264,0.006549178622663021,-0.0013189178425818682,0.04115263745188713,0.0024757245555520058,0.0027521997690200806,-0.010930203832685947,-0.008000228554010391,-0.0010576890781521797,-0.014405124820768833,0.12735705077648163,-0.02353612519800663
0.0007777512073516846,-0.02338779903948307,0.3327227234840393,-0.21465466916561127,-0.03471507504582405,0.00028612781898118556,0.9760728478431702,0.023274149745702744,-0.00886718649417162,-0.0013608895242214203,-0.03658458963036537,-0.016932198777794838,-0.0027332704048603773,-0.1818191260099411,0.0699937716126442,-0.0060912491753697395,0.19648808240890503,0.6958176493644714,0.7136877775192261,0.6977267265319824,1.1439601182937622,-1.7546910047531128,-1.7653995752334595,-1.4303319454193115,-1.427014708518982,-0.06885924190282822,-0.06920334696769714,-0.089633047580719,-0.09812572598457336,-0.00642763078212738,-0.04002540931105614,0.05348458141088486,-0.02824573963880539,0.01431759912520647,0.02232387103140354,-0.03492186963558197,-0.11622622609138489,-0.16123899817466736,-0.20452775061130524,0.037737276405096054,-0.2486100047826767,-0.00782172940671444,0.04260522872209549,0.2513611614704132,-0.06720565259456635,0.02621777355670929,0.2835497260093689,0.193733349442482,0.04863395541906357,0.019570108503103256,-0.0011061428813263774,-0.0032253803219646215,0.029111476615071297,0.004899400752037764,0.0006215522298589349,0.012565250508487225,-0.005143343470990658,-0.004014957696199417,0.018759610131382942,0.028116637840867043,0.00044002963113598526,0.026983708143234253,0.010563194751739502,0.0011245900532230735,0.05235806480050087,0.0037789917550981045,0.0035042674280703068,-0.013697914779186249,-0.005571051500737667,-0.0005347671685740352,-0.005194523837417364,0.15322734415531158,-0.026422947645187378
0.0009717624634504318,-0.023461375385522842,0.33271142840385437,-0.21455438435077667,-0.03467582166194916,0.00041288143256679177,0.9760961532592773,0.0275486558675766,-0.011430767364799976,-0.0028165741823613644,-0.05928228795528412,-0.027422862127423286,-0.004420122597366571,-0.18239332735538483,0.06941612809896469,-0.006839428097009659,0.19566978514194489,0.6957634687423706,0.7133535742759705,0.6981732249259949,1.143725037574768,-1.7545722723007202,-1.7652137279510498,-1.4306226968765259,-1.4279838800430298,-0.06769174337387085,-0.06559666991233826,-0.1216767355799675,-0.13993370532989502,0.00211572484113276,-0.039854031056165695,0.10674075782299042,-0.02412358485162258,0.013227881863713264,0.03443780913949013,-0.08437999337911606,-0.14308463037014008,-0.16115868091583252,-0.2044932246208191,0.03772876784205437,-0.24854958057403564,-0.007804118096828461,0.04261393845081329,0.2515280246734619,-0.0671519786119461,0.026183731853961945,0.2834312319755554,0.19364507496356964,0.0485936775803566,0.02867967262864113,-0.009313591755926609,-0.0022831573151052,0.008523025549948215,-0.012728850357234478,-0.0023894982878118753,0.021702459082007408,-0.014188324101269245,-0.010847936384379864,-0.002120143501088023,0.004965280648320913,-0.00045077301911078393,0.03820056840777397,0.013908300548791885,0.007517634890973568,0.06027475744485855,0.0032456503249704838,0.003993258811533451,-0.015780601650476456,-0.004788713529706001,-0.0007546937558799982,0.0009437890257686377,0.1805669218301773,-0.02997596189379692
0.0012011025100946426,-0.02355642057955265,0.33268824219703674,-0.21432864665985107,-0.034588877111673355,0.0005270852707326412,0.9761488437652588,0.03292156383395195,-0.01591874286532402,-0.0034547587856650352,-0.09820897877216339,-0.045374806970357895,-0.007297559641301632,-0.18295742571353912,0.06886927783489227,-0.007853572256863117,0.19450224936008453,0.6957815289497375,0.7130216360092163,0.6990640163421631,1.1435234546661377,-1.7544618844985962,-1.7649261951446533,-1.4313263893127441,-1.4291781187057495,-0.05729873105883598,-0.05412006750702858,-0.15666429698467255,-0.19048455357551575,0.0027326513081789017,-0.03402462601661682,0.14985299110412598,-0.026177069172263145,0.019269172102212906,0.031573403626680374,-0.10547465085983276,-0.18184861540794373,-0.16110120713710785,-0.20442910492420197,0.03772202506661415,-0.24846310913562775,-0.007743924856185913,0.04261566326022148,0.25172069668769836,-0.06707075983285904,0.02614770084619522,0.283294141292572,0.19355115294456482,0.04854269325733185,0.040635913610458374,-0.026717329397797585,0.000630267197266221,-0.0369885228574276,-0.0409887470304966,-0.007091604173183441,0.03471267595887184,-0.031323112547397614,-0.01707501709461212,-0.05020233616232872,-0.02050412818789482,-0.0038622315041720867,0.05371750518679619,0.011582326143980026,0.01315072737634182,0.06227794289588928,-0.020110614597797394,0.003602174576371908,-0.019368484616279602,-0.010149972513318062,-0.0016366238705813885,-0.008352622389793396,0.22024334967136383,-0.03782437741756439
0.0014763977378606796,-0.023689519613981247,0.3326590955257416,-0.21392014622688293,-0.034466780722141266,0.0006462149904109538,0.9762427806854248,0.03808856010437012,-0.02054261788725853,-0.004162285476922989,-0.1412103772163391,-0.06509927660226822,-0.010444577783346176,-0.18343563377857208,0.06841837614774704,-0.009160752408206463,0.1929136961698532,0.6958042979240417,0.712737500667572,0.7003133296966553,1.1433050632476807,-1.7543007135391235,-1.7646634578704834,-1.432206630706787,-1.4306938648223877,-0.05244746431708336,-0.04771637171506882,-0.20753784477710724,-0.26003918051719666,0.006125183310359716,-0.029234711080789566,0.21474561095237732,-0.036123454570770264,0.023097340017557144,0.03838742896914482,-0.15651457011699677,-0.20792211592197418,-0.16107013821601868,-0.20436303317546844,0.037717923521995544,-0.2483242154121399,-0.007650716230273247,0.04262479394674301,0.25196191668510437,-0.06700323522090912,0.026089660823345184,0.2831437587738037,0.1934005469083786,0.04849037528038025,0.05268855020403862,-0.04380766302347183,0.003920592833310366,-0.08132802695035934,-0.06922157108783722,-0.011787397786974907,0.04826590418815613,-0.04820334166288376,-0.025225680321455002,-0.09420332312583923,-0.05347117781639099,-0.0064762430265545845,0.0693182498216629,0.013316480442881584,0.02211768552660942,0.0711938738822937,-0.03129855915904045,0.003864449914544821,-0.024519095197319984,-0.011735573410987854,-0.004010015167295933,-0.0024575646966695786,0.26175200939178467,-0.043528079986572266
0.0017932802438735962,-0.023860663175582886,0.33262476325035095,-0.21331734955310822,-0.03430752456188202,0.0007672120700590312,0.9763801097869873,0.04087939113378525,-0.02504582144320011,-0.005421712528914213,-0.1767590045928955,-0.08122279495000839,-0.012997480109333992,-0.18387269973754883,0.06801991164684296,-0.010890863835811615,0.19074484705924988,0.6958552598953247,0.7124946117401123,0.7021046280860901,1.1430044174194336,-1.7541084289550781,-1.7643427848815918,-1.4335118532180786,-1.432428240776062,-0.047076307237148285,-0.040130432695150375,-0.23865564167499542,-0.30672261118888855,0.00997287780046463,-0.023485593497753143,0.24668298661708832,-0.04695194587111473,0.01579923927783966,0.02739342488348484,-0.16833193600177765,-0.23049083352088928,-0.16107654571533203,-0.20427651703357697,0.037717752158641815,-0.2481357604265213,-0.007504083216190338,0.042632099241018295,0.2522439956665039,-0.06690815836191177,0.026032641530036926,0.2829626798629761,0.19323138892650604,0.04842906445264816,0.0605715811252594,-0.059644658118486404,0.007821938022971153,-0.12320736050605774,-0.08458011597394943,-0.014151244424283504,0.05676725506782532,-0.06379780173301697,-0.029912590980529785,-0.138769268989563,-0.06805150210857391,-0.00999421626329422,0.08044181764125824,0.009996847249567509,0.025606967508792877,0.07230421155691147,-0.053001321852207184,0.0033258202020078897,-0.02968393638730049,-0.017101792618632317,-0.00723054725676775,-0.008592107333242893,0.29487094283103943,-0.049421001225709915
0.002134948968887329,-0.024070020765066147,0.3325795531272888,-0.2125501036643982,-0.03414182364940643,0.0008854556363075972,0.9765530824661255,0.04287472739815712,-0.030352331697940826,-0.00618844386190176,-0.20558467507362366,-0.09542664140462875,-0.022444190457463264,-0.18426531553268433,0.0676858052611351,-0.012881903909146786,0.1881868541240692,0.6959390640258789,0.7122983336448669,0.7041618227958679,1.1426126956939697,-1.753976583480835,-1.7641148567199707,-1.4349154233932495,-1.4343503713607788,-0.04420464113354683,-0.03948162496089935,-0.28448912501335144,-0.37189796566963196,0.017725344747304916,-0.019915075972676277,0.3014087378978729,-0.05769028514623642,0.015065690502524376,0.03061000443994999,-0.20883718132972717,-0.23450744152069092,-0.16111555695533752,-0.20418082177639008,0.03771861270070076,-0.24791234731674194,-0.007321294397115707,0.04264303296804428,0.2525617778301239,-0.06682635843753815,0.025953561067581177,0.28276634216308594,0.19301554560661316,0.04836641252040863,0.0671996921300888,-0.07173659652471542,0.009903019294142723,-0.15169405937194824,-0.10631954669952393,-0.024983620271086693,0.0643589198589325,-0.07472069561481476,-0.0354812927544117,-0.16538196802139282,-0.08874967694282532,-0.01893133670091629,0.09039236605167389,0.011373357847332954,0.031644150614738464,0.0910368263721466,-0.06149351969361305,-0.003266942920163274,-0.033336907625198364,-0.016879349946975708,-0.009090038016438484,0.01636716164648533,0.32078486680984497,-0.056983642280101776
0.002492152154445648,-0.024323299527168274,0.3325274586677551,-0.21161478757858276,-0.033955663442611694,0.001009507686831057,0.976762592792511,0.042729005217552185,-0.035124409943819046,-0.006584051065146923,0.06157809495925903,-0.020518286153674126,-0.26267796754837036,-0.18463411927223206,0.06735638529062271,-0.015253865160048008,0.18508563935756683,0.6960861086845398,0.7121322751045227,0.706675112247467,1.1421312093734741,-1.7538506984710693,-1.7638591527938843,-1.4366570711135864,-1.4363056421279907,-0.03818591311573982,-0.03610748052597046,-0.30747348070144653,-0.4068716764450073,0.02157929167151451,-0.01533837616443634,0.33385103940963745,-0.06223393976688385,0.014057787135243416,0.028819764032959938,-0.20729359984397888,-0.2427041381597519,-0.1611945480108261,-0.20407354831695557,0.0377209298312664,-0.24766701459884644,-0.007095407694578171,0.04265078157186508,0.2529023289680481,-0.06672875583171844,0.02587559074163437,0.28255170583724976,0.19279441237449646,0.04829452931880951,0.0059266951866447926,0.03411417454481125,-0.025097839534282684,0.11117211729288101,-0.03654252737760544,-0.2661161422729492,0.05056747794151306,0.05135028809309006,-0.011783158406615257,0.09986747056245804,-0.01784653030335903,-0.2591731548309326,0.0665903240442276,0.03307143598794937,0.00047462526708841324,0.3932369649410248,-0.008574425242841244,-0.24227146804332733,-0.007059197872877121,-0.010705046355724335,0.029850533232092857,0.3109317421913147,0.4212890565395355,-0.2967495620250702
0.0028483234345912933,-0.02461577020585537,0.3324723243713379,-0.21055108308792114,-0.03376811370253563,0.0011324414517730474,0.9769988059997559,0.04241473227739334,-0.04034482687711716,-0.0069166505709290504,0.06321168690919876,-0.024678872898221016,-0.29381316900253296,-0.1849524974822998,0.06705547124147415,-0.01781786046922207,0.181692972779274,0.696266770362854,0.7120040655136108,0.7094595432281494,1.1416124105453491,-1.7537339925765991,-1.763619065284729,-1.4383853673934937,-1.4383292198181152,-0.03064415231347084,-0.03079688735306263,-0.3376024067401886,-0.45376622676849365,0.02423677407205105,-0.00784197635948658,0.3695206046104431,-0.0682721883058548,0.012162797152996063,0.028429649770259857,-0.22385451197624207,-0.24332550168037415,-0.16130879521369934,-0.20396821200847626,0.03772225230932236,-0.24740760028362274,-0.006843356415629387,0.042656492441892624,0.2532879710197449,-0.06664079427719116,0.02578040212392807,0.282333105802536,0.1925365924835205,0.048233166337013245,0.0029348209500312805,0.03223693370819092,-0.025677664205431938,0.10623104125261307,-0.04459507018327713,-0.29789644479751587,0.054830919951200485,0.05330406501889229,-0.013530546799302101,0.09956559538841248,-0.030742820352315903,-0.2900819182395935,0.07079783827066422,0.0322045162320137,0.0015594102442264557,0.43019235134124756,-0.01845611445605755,-0.27189427614212036,-0.0065894536674022675,-0.01230708509683609,0.03254886716604233,0.35338979959487915,0.44201385974884033,-0.32530033588409424
0.0032024048268795013,-0.024952087551355362,0.3324151635169983,-0.2093489170074463,-0.03356566280126572,0.001250309171155095,0.9772639274597168,0.041905540972948074,-0.04471006244421005,-0.007394419051706791,0.06321556866168976,-0.02736474759876728,-0.31755298376083374,-0.18520784378051758,0.06679859012365341,-0.020633049309253693,0.17790856957435608,0.6964681148529053,0.7119394540786743,0.7125407457351685,1.1410428285598755,-1.7536321878433228,-1.7633819580078125,-1.4402523040771484,-1.4403584003448486,-0.023313211277127266,-0.025737017393112183,-0.36338406801223755,-0.49015915393829346,0.02835756167769432,-0.006155689712613821,0.4022287130355835,-0.07385890185832977,0.011614883318543434,0.02802528813481331,-0.2380385547876358,-0.24341243505477905,-0.16147375106811523,-0.20387017726898193,0.03772975876927376,-0.24713259935379028,-0.006564617156982422,0.042664021253585815,0.2536855936050415,-0.06656165421009064,0.025677427649497986,0.2821030020713806,0.19226405024528503,0.04817606508731842,0.0010691066272556782,0.030031614005565643,-0.026205336675047874,0.1009923592209816,-0.05358296260237694,-0.3227318525314331,0.056867554783821106,0.0533670112490654,-0.014937970787286758,0.09546887874603271,-0.03675658255815506,-0.3140614926815033,0.07475374639034271,0.03211815655231476,0.002331863157451153,0.46130773425102234,-0.028371883556246758,-0.294575035572052,-0.0067474134266376495,-0.014029908925294876,0.034114379435777664,0.38527366518974304,0.4587821662425995,-0.34682556986808777
0.003551478497684002,-0.02532551810145378,0.33235323429107666,-0.20803013443946838,-0.033353034406900406,0.0013613507617264986,0.9775526523590088,0.04126504436135292,-0.04946581646800041,-0.006996452808380127,0.06035420671105385,-0.02421015314757824,-0.34050488471984863,-0.18540245294570923,0.06658425182104111,-0.023663422092795372,0.17382115125656128,0.6967054009437561,0.7118878960609436,0.7158952355384827,1.140427589416504,-1.7535356283187866,-1.763148307800293,-1.442237138748169,-1.442388653755188,-0.017232680693268776,-0.02245725505053997,-0.3920096457004547,-0.5318974256515503,0.02514454536139965,-0.004307157825678587,0.4307650327682495,-0.09634813666343689,0.009220077656209469,0.0228720810264349,-0.23664505779743195,-0.24208517372608185,-0.16167667508125305,-0.20377567410469055,0.03773637115955353,-0.24685564637184143,-0.00626758486032486,0.04267018288373947,0.254098504781723,-0.06648484617471695,0.02556730806827545,0.28186506032943726,0.19197408854961395,0.04812251776456833,-0.004551551770418882,0.025835910812020302,-0.024030476808547974,0.09020788967609406,-0.04798082634806633,-0.3451530635356903,0.056433141231536865,0.05233906954526901,-0.013228476978838444,0.08826882392168045,-0.03200856223702431,-0.33751434087753296,0.07774926722049713,0.03229537606239319,0.0002469327300786972,0.4967770576477051,-0.0419524721801281,-0.3165377676486969,-0.013360872864723206,-0.01737988367676735,0.03197697177529335,0.41333743929862976,0.4973095655441284,-0.3700352609157562
0.0038953283801674843,-0.02573753334581852,0.33229508996009827,-0.20658627152442932,-0.03315691277384758,0.0014709557872265577,0.9778653383255005,0.03969888016581535,-0.05225124582648277,-0.007244829088449478,0.058538615703582764,-0.02704336866736412,-0.3606477975845337,-0.18554630875587463,0.06639648973941803,-0.02693268284201622,0.16938622295856476,0.6969147324562073,0.7118515968322754,0.7194871306419373,1.1396238803863525,-1.7534582614898682,-1.7629576921463013,-1.4442105293273926,-1.4444067478179932,-0.008734598755836487,-0.01738741807639599,-0.40415555238723755,-0.5511054396629333,0.025661025196313858,-0.0019257861422374845,0.44422751665115356,-0.10134957730770111,0.010720361955463886,0.024163028225302696,-0.24090318381786346,-0.22977018356323242,-0.16192258894443512,-0.2036885917186737,0.03774525597691536,-0.24656610190868378,-0.0059464722871780396,0.04267791286110878,0.2545498311519623,-0.06640516966581345,0.02545342594385147,0.2816005051136017,0.1916554719209671,0.04807775467634201,-0.0073356847278773785,0.02364490181207657,-0.024238180369138718,0.08139104396104813,-0.056145574897527695,-0.36619096994400024,0.05780530348420143,0.05274781584739685,-0.014808835461735725,0.08326960355043411,-0.04032690450549126,-0.3576909303665161,0.0786011815071106,0.028228936716914177,0.001204080879688263,0.5097658038139343,-0.049556005746126175,-0.33677971363067627,-0.010482043027877808,-0.020564302802085876,0.03251797705888748,0.4332110583782196,0.494797021150589,-0.3863523304462433
0.004226844757795334,-0.026173479855060577,0.33223438262939453,-0.20507998764514923,-0.03296180069446564,0.0015656363684684038,0.9781887531280518,0.037119198590517044,-0.054777197539806366,-0.005931912921369076,0.053391605615615845,-0.023454390466213226,-0.3794741630554199,-0.1856188178062439,0.06625231355428696,-0.03030281513929367,0.16479024291038513,0.6971288323402405,0.7118359208106995,0.7231919765472412,1.138778567314148,-1.7533689737319946,-1.7627557516098022,-1.4462192058563232,-1.4463229179382324,-0.00292783766053617,-0.013804369606077671,-0.41506436467170715,-0.5622382164001465,0.018278954550623894,-0.007863209582865238,0.44204646348953247,-0.1265123337507248,0.007796568796038628,0.019685734063386917,-0.22338421642780304,-0.2072303593158722,-0.1621927171945572,-0.20360997319221497,0.037747763097286224,-0.24627402424812317,-0.005616150796413422,0.04267914593219757,0.2550014853477478,-0.06633159518241882,0.025337599217891693,0.2813423275947571,0.19133879244327545,0.04803992062807083,-0.015389792621135712,0.020021378993988037,-0.02049066685140133,0.06665972620248795,-0.04570087417960167,-0.3836641311645508,0.053452253341674805,0.05146247148513794,-0.012072240002453327,0.07068557292222977,-0.02872689813375473,-0.3776162266731262,0.07554041594266891,0.02287454903125763,-0.000881444662809372,0.5207395553588867,-0.05698908865451813,-0.3559612035751343,-0.01269863173365593,-0.028220228850841522,0.02825811132788658,0.4386266767978668,0.5042810440063477,-0.40366798639297485
0.0045360391959548,-0.026630131527781487,0.3321845829486847,-0.2035333514213562,-0.03279828280210495,0.0016482685459777713,0.9785170555114746,0.03342688828706741,-0.05610022693872452,-0.005276831798255444,0.04884713888168335,-0.022044558078050613,-0.388703316450119,-0.18564321100711823,0.06613689661026001,-0.033763520419597626,0.16010192036628723,0.6972809433937073,0.711770236492157,0.7268775105476379,1.137723684310913,-1.7533040046691895,-1.7625916004180908,-1.4480820894241333,-1.4480504989624023,0.002939791651442647,-0.011443182826042175,-0.41658276319503784,-0.5668727159500122,0.014217149466276169,-0.006953980308026075,0.4383590519428253,-0.13861148059368134,0.007533746305853128,0.019885752350091934,-0.21076352894306183,-0.18644635379314423,-0.16249299049377441,-0.20354695618152618,0.0377533957362175,-0.24599695205688477,-0.005288626998662949,0.042683787643909454,0.25545480847358704,-0.06625527888536453,0.025223471224308014,0.2810715436935425,0.19100628793239594,0.04800983518362045,-0.021238237619400024,0.016954677179455757,-0.018392289057374,0.05493030324578285,-0.042781125754117966,-0.392541766166687,0.050436004996299744,0.050506871193647385,-0.011420054361224174,0.06440053135156631,-0.029328258708119392,-0.3869097828865051,0.07234504818916321,0.018179353326559067,-0.0015586139634251595,0.5210973024368286,-0.06460642069578171,-0.36613911390304565,-0.013863295316696167,-0.031763941049575806,0.025870060548186302,0.443107932806015,0.4986509084701538,-0.40972572565078735
0.004814560525119305,-0.02709770016372204,0.33214080333709717,-0.20196634531021118,-0.03265305608510971,0.001717916689813137,0.9788464307785034,0.03097662329673767,-0.05693252757191658,-0.004332031589001417,0.04212033748626709,-0.018409183248877525,-0.3849664330482483,-0.1856181025505066,0.06604105979204178,-0.03723783791065216,0.155374675989151,0.6973991394042969,0.7117125988006592,0.7305331230163574,1.1365675926208496,-1.7532411813735962,-1.762426495552063,-1.4498391151428223,-1.4496054649353027,0.006918719504028559,-0.010667722672224045,-0.4129883050918579,-0.5636597275733948,0.007637533359229565,-0.012415542267262936,0.4285212457180023,-0.1503235101699829,0.006362513173371553,0.019715415313839912,-0.19277118146419525,-0.15744775533676147,-0.1628234088420868,-0.2034931629896164,0.03775791451334953,-0.24573388695716858,-0.00495615229010582,0.042685676366090775,0.25589585304260254,-0.06618477404117584,0.025112032890319824,0.2807941138744354,0.19067658483982086,0.04798857867717743,-0.025216640904545784,0.011968700215220451,-0.015163874253630638,0.04138658195734024,-0.03375711292028427,-0.3877543807029724,0.045847564935684204,0.04613935202360153,-0.009671708568930626,0.054743070155382156,-0.020884515717625618,-0.38369065523147583,0.06980077177286148,0.014901779592037201,-0.002850438468158245,0.5142248272895813,-0.07135187089443207,-0.3637112081050873,-0.01468273252248764,-0.03311922028660774,0.021910693496465683,0.4414828419685364,0.48424261808395386,-0.40188470482826233
0.005072683095932007,-0.02757297456264496,0.33210501074790955,-0.20040515065193176,-0.03253450617194176,0.0017755171284079552,0.979171097278595,0.027189411222934723,-0.05684758350253105,-0.003400072455406189,0.03577081114053726,-0.01645004004240036,-0.36649230122566223,-0.18556047976016998,0.06595230102539062,-0.04068126156926155,0.150674968957901,0.697462797164917,0.7116082906723022,0.7341062426567078,1.1353142261505127,-1.7531880140304565,-1.7622615098953247,-1.451446771621704,-1.4509183168411255,0.0090949647128582,-0.009648993611335754,-0.40267467498779297,-0.5547946691513062,0.006139508448541164,-0.0133497454226017,0.41678130626678467,-0.1600106656551361,0.0036089085042476654,0.019242411479353905,-0.17626824975013733,-0.1352197229862213,-0.16316670179367065,-0.20345309376716614,0.03776157647371292,-0.24548617005348206,-0.004631685093045235,0.04268507659435272,0.25633907318115234,-0.06612014770507812,0.02500687539577484,0.28053614497184753,0.190354585647583,0.047976575791835785,-0.026691732928156853,0.0067401546984910965,-0.01223018392920494,0.0313006155192852,-0.028814729303121567,-0.3687017858028412,0.04104764759540558,0.039784591645002365,-0.00841564778238535,0.0469062477350235,-0.018073299899697304,-0.3653997480869293,0.06689578294754028,0.014317847788333893,-0.002995518036186695,0.5001649260520935,-0.07928496599197388,-0.34691449999809265,-0.01984429731965065,-0.030914276838302612,0.018859276548027992,0.4331623315811157,0.4702116847038269,-0.38058173656463623
0.005299732089042664,-0.028046973049640656,0.33207637071609497,-0.19886495172977448,-0.032431427389383316,0.0018200306221842766,0.9794884920120239,0.023363886401057243,-0.05580993741750717,-0.002110163914039731,0.028713373467326164,-0.013347065076231956,-0.35672956705093384,-0.18548497557640076,0.06587235629558563,-0.04403945803642273,0.1460486352443695,0.6975138783454895,0.711496889591217,0.7375812530517578,1.1339792013168335,-1.7531583309173584,-1.7621010541915894,-1.4529169797897339,-1.4520456790924072,0.010595172643661499,-0.009118350222706795,-0.3853265941143036,-0.5315145254135132,-0.00025027437368407845,-0.017981331795454025,0.39109379053115845,-0.1707584261894226,-0.001179646933451295,0.01714324951171875,-0.1527620255947113,-0.10626207292079926,-0.16352739930152893,-0.20341633260250092,0.03776809573173523,-0.24526169896125793,-0.004311271011829376,0.0426863357424736,0.2567683458328247,-0.06606470048427582,0.02490749955177307,0.2802724838256836,0.1900419443845749,0.047968700528144836,-0.03148287534713745,0.0030138827860355377,-0.008176285773515701,0.018414227291941643,-0.016184130683541298,-0.3571549952030182,0.03497057408094406,0.03589312732219696,-0.006138906814157963,0.036769188940525055,-0.009023107588291168,-0.3562256693840027,0.061160728335380554,0.008808735758066177,-0.0037443554028868675,0.476155549287796,-0.08235789090394974,-0.33907803893089294,-0.020644770935177803,-0.03422214463353157,0.014428287744522095,0.41292235255241394,0.4465469717979431,-0.3680879771709442
0.005494949407875538,-0.028511781245470047,0.33205848932266235,-0.1973791867494583,-0.032357119023799896,0.001849385560490191,0.9797913432121277,0.020311495289206505,-0.05400608107447624,-0.0016504221130162477,0.021611152216792107,-0.011806468479335308,-0.34462007880210876,-0.18539614975452423,0.06579593569040298,-0.04725205525755882,0.14161668717861176,0.6975117921829224,0.7113468647003174,0.7408427596092224,1.1325559616088867,-1.7531678676605225,-1.7619584798812866,-1.4541908502578735,-1.4529317617416382,0.013364932499825954,-0.007045486476272345,-0.36573830246925354,-0.5069697499275208,0.0027022240683436394,-0.02115890011191368,0.3647792637348175,-0.17481373250484467,-0.002813569037243724,0.019183924421668053,-0.13583923876285553,-0.08393330127000809,-0.16389906406402588,-0.20338915288448334,0.03777958080172539,-0.24506598711013794,-0.0040046051144599915,0.04269041866064072,0.25717562437057495,-0.06601884216070175,0.024818144738674164,0.2800179123878479,0.1897367388010025,0.04796716570854187,-0.03194781020283699,0.0006365496665239334,-0.005963877309113741,0.009271930903196335,-0.016876645386219025,-0.34543904662132263,0.031011540442705154,0.032110150903463364,-0.005953992251306772,0.027339259162545204,-0.007262242026627064,-0.34434038400650024,0.05575532093644142,0.0035399943590164185,-0.003967959433794022,0.44720324873924255,-0.08106774836778641,-0.328738272190094,-0.02027720957994461,-0.03608373925089836,0.010735863819718361,0.39131420850753784,0.42087051272392273,-0.3534890413284302
0.005664206109941006,-0.02896200492978096,0.3320448100566864,-0.1959574669599533,-0.03230368345975876,0.001859465497545898,0.980078399181366,0.017518121749162674,-0.05033259838819504,-0.0005927212769165635,0.012720583006739616,-0.011383852921426296,-0.30771687626838684,-0.18528546392917633,0.06573739647865295,-0.05030195042490959,0.13738921284675598,0.6975348591804504,0.7111706733703613,0.7438844442367554,1.1310977935791016,-1.7531917095184326,-1.76179838180542,-1.4553229808807373,-1.4536317586898804,0.015241777524352074,-0.0053361160680651665,-0.3288533687591553,-0.462468683719635,0.003043597098439932,-0.02485634572803974,0.3303528428077698,-0.17213468253612518,-0.005602200981229544,0.022643951699137688,-0.1135726347565651,-0.05903703719377518,-0.16425463557243347,-0.203359916806221,0.03778494521975517,-0.24488979578018188,-0.003711121156811714,0.04268762841820717,0.25755345821380615,-0.06598037481307983,0.024735450744628906,0.2797726094722748,0.18945054709911346,0.04797029495239258,-0.02857240103185177,-0.00430012121796608,-0.0027888077311217785,-0.002314680488780141,-0.014922753907740116,-0.30824148654937744,0.026762913912534714,0.024036969989538193,-0.0057099005207419395,0.016797367483377457,-0.007294203154742718,-0.3075639009475708,0.05210939422249794,0.0005995109677314758,-0.0027719661593437195,0.3994657099246979,-0.08480824530124664,-0.2944802939891815,-0.020410194993019104,-0.03389451280236244,0.0072715915739536285,0.35280442237854004,0.3780001699924469,-0.3140983283519745
0.005809754133224487,-0.02938237227499485,0.332040011882782,-0.19465388357639313,-0.0322670117020607,0.0018436203245073557,0.9803394675254822,0.015604743734002113,-0.047380492091178894,3.976118750870228e-05,0.0065444763749837875,-0.012474795803427696,-0.2938529849052429,-0.1851579248905182,0.06569316238164902,-0.05304360389709473,0.13353277742862701,0.6975598931312561,0.7109639644622803,0.7466385960578918,1.1296627521514893,-1.753238558769226,-1.7616093158721924,-1.456270456314087,-1.454123616218567,0.016820712015032768,-0.0026786322705447674,-0.3013424575328827,-0.4222656488418579,0.006134455092251301,-0.026809396222233772,0.2948037087917328,-0.16600504517555237,-0.0083767706528306,0.02536763995885849,-0.09655390679836273,-0.04108964651823044,-0.1645832657814026,-0.20333202183246613,0.0377914123237133,-0.24473723769187927,-0.0034400559961795807,0.042683716863393784,0.25790879130363464,-0.06595167517662048,0.024665527045726776,0.2795502245426178,0.18919280171394348,0.047979630529880524,-0.027096804231405258,-0.005357770249247551,-0.00082727539120242,-0.00983384158462286,-0.016863223165273666,-0.2945287525653839,0.024993181228637695,0.02125825174152851,-0.0061507332138717175,0.00847170501947403,-0.010121706873178482,-0.2938031554222107,0.04677397385239601,-0.006125159561634064,-0.001964166760444641,0.3606289327144623,-0.08030380308628082,-0.2822912037372589,-0.01509152539074421,-0.037379972636699677,0.00532673392444849,0.3193851709365845,0.3386771082878113,-0.29827573895454407
0.005939989350736141,-0.029777223244309425,0.33204036951065063,-0.1934441328048706,-0.03224029392004013,0.0018048575147986412,0.9805797934532166,0.012961894273757935,-0.04286692291498184,0.0010126290144398808,-0.007568812929093838,-0.015887638553977013,-0.24517710506916046,-0.1850178986787796,0.06567066162824631,-0.05555696785449982,0.13001208007335663,0.6976118683815002,0.7107401490211487,0.7490971088409424,1.1282778978347778,-1.7533085346221924,-1.7613976001739502,-1.4570752382278442,-1.4544662237167358,0.01652432419359684,-0.0009826654568314552,-0.2618619501590729,-0.37517261505126953,0.005983095616102219,-0.03531958535313606,0.2556683421134949,-0.15891173481941223,-0.011596528813242912,0.027411095798015594,-0.07469528913497925,-0.022797295823693275,-0.1648833155632019,-0.20329999923706055,0.037797711789608,-0.24459950625896454,-0.003186063840985298,0.042678091675043106,0.25822484493255615,-0.06593141704797745,0.02459922432899475,0.27935728430747986,0.18895207345485687,0.047993481159210205,-0.02097487449645996,-0.012345852330327034,0.002518062712624669,-0.024980705231428146,-0.017063051462173462,-0.24526821076869965,0.020088402554392815,0.009313669055700302,-0.006690201349556446,-0.009621452540159225,-0.008209305815398693,-0.24575991928577423,0.04341944679617882,-0.007832903414964676,0.0001886412501335144,0.3033227324485779,-0.08359287679195404,-0.23593753576278687,-0.016684073954820633,-0.03319024294614792,0.0022014500573277473,0.2719184160232544,0.2933872640132904,-0.24811136722564697
0.006047796458005905,-0.030134327709674835,0.33204934000968933,-0.19236864149570465,-0.032221660017967224,0.001746180932968855,0.9807920455932617,0.012005902826786041,-0.03916684538125992,0.0011704103089869022,-0.21803225576877594,-0.08907601237297058,-0.014757201075553894,-0.18487980961799622,0.06566181033849716,-0.0577399767935276,0.1268835961818695,0.6976617574691772,0.7104458808898926,0.7512284517288208,1.1269530057907104,-1.7534054517745972,-1.761169672012329,-1.457698106765747,-1.4546560049057007,0.016647160053253174,-0.0005475368816405535,-0.22812679409980774,-0.33739393949508667,0.008588958531618118,-0.035336293280124664,0.22306755185127258,-0.14586760103702545,-0.014131943695247173,0.029773136600852013,-0.060275256633758545,-0.002827382879331708,-0.16515766084194183,-0.2032681703567505,0.037809886038303375,-0.24450162053108215,-0.0029634125530719757,0.042677946388721466,0.2585051655769348,-0.06592049449682236,0.024541176855564117,0.2791772484779358,0.18874508142471313,0.0480097159743309,0.0376734621822834,-0.104046531021595,0.026681886985898018,-0.2355332374572754,-0.0903235450387001,-0.014867582358419895,0.03217386081814766,-0.0998280942440033,-0.03130512684583664,-0.21959714591503143,-0.08372578024864197,-0.015175058506429195,0.06778060644865036,-0.018002890050411224,0.02645842917263508,0.05464547872543335,-0.15337464213371277,-0.007294962182641029,-0.03777648136019707,-0.027798915281891823,-0.024811720475554466,0.03925009071826935,0.175027534365654,-0.014769588597118855
0.006147982552647591,-0.03046089969575405,0.3320584297180176,-0.19140663743019104,-0.03221237286925316,0.0016702522989362478,0.9809806942939758,0.009295267052948475,-0.03406345844268799,0.001240729121491313,-0.1853451132774353,-0.07529650628566742,-0.012540069408714771,-0.18474137783050537,0.06565753370523453,-0.059641920030117035,0.12407075613737106,0.6977332830429077,0.7101511359214783,0.7530887126922607,1.125736951828003,-1.753522515296936,-1.7609210014343262,-1.4582000970840454,-1.4546791315078735,0.01758955605328083,0.0017053056508302689,-0.18401558697223663,-0.27557212114334106,0.007194757927209139,-0.033968642354011536,0.17699721455574036,-0.11577262729406357,-0.017469529062509537,0.03132025524973869,-0.0477900505065918,0.003673343453556299,-0.16539134085178375,-0.20323523879051208,0.037817757576704025,-0.2444102168083191,-0.0027604177594184875,0.042671624571084976,0.25876420736312866,-0.06592018902301788,0.02448803186416626,0.27904099225997925,0.18857961893081665,0.048029087483882904,0.03079347312450409,-0.0905223861336708,0.02403940260410309,-0.2055215686559677,-0.072561115026474,-0.011914648115634918,0.02625325508415699,-0.08637639135122299,-0.027467476204037666,-0.18790295720100403,-0.07348648458719254,-0.0128614017739892,0.054691001772880554,-0.02038310095667839,0.022815873846411705,0.03371819108724594,-0.12562932074069977,-0.006700499448925257,-0.02844865992665291,-0.025952039286494255,-0.02050105482339859,0.028587397187948227,0.13143126666545868,-0.01088016014546156
0.006225449964404106,-0.03074483945965767,0.3320692479610443,-0.19059209525585175,-0.0321962833404541,0.001571955275721848,0.9811398983001709,0.007381445728242397,-0.030055947601795197,0.0007400679751299322,-0.16211210191249847,-0.06554316729307175,-0.010964076966047287,-0.18459415435791016,0.0656716600060463,-0.06117680296301842,0.1217726469039917,0.6977927088737488,0.7098675966262817,0.7545644640922546,1.124772071838379,-1.7536683082580566,-1.7606598138809204,-1.4585990905761719,-1.4546486139297485,0.017996707931160927,0.0021549388766288757,-0.16130979359149933,-0.2390081286430359,0.008291156962513924,-0.031705453991889954,0.15431612730026245,-0.09686847031116486,-0.02225830778479576,0.02826530858874321,-0.058606844395399094,0.028929337859153748,-0.16560597717761993,-0.20320743322372437,0.0378313846886158,-0.24434876441955566,-0.002584226429462433,0.042669229209423065,0.25895243883132935,-0.06594067066907883,0.024438321590423584,0.2789466381072998,0.18844032287597656,0.04805851727724075,0.02618301659822464,-0.08040741831064224,0.021957973018288612,-0.18406103551387787,-0.0595669187605381,-0.009742837399244308,0.021793462336063385,-0.07614316046237946,-0.024510152637958527,-0.16537509858608246,-0.06316392123699188,-0.011376936919987202,0.04427577927708626,-0.019269676879048347,0.02173873968422413,0.02323533594608307,-0.09373344480991364,-0.005241754464805126,-0.019304640591144562,-0.021119283512234688,-0.019117601215839386,0.03434883803129196,0.08648113906383514,-0.00527836661785841
0.006287739612162113,-0.03099602833390236,0.3320751190185547,-0.18988275527954102,-0.03217753395438194,0.0014671764802187681,0.9812782406806946,0.005323826335370541,-0.024214573204517365,0.0003623937373049557,-0.12921880185604095,-0.05202567204833031,-0.008736269548535347,-0.1844441443681717,0.06568966060876846,-0.06252078711986542,0.119780533015728,0.6978622674942017,0.7096037864685059,0.755851149559021,1.1239638328552246,-1.753854513168335,-1.7604238986968994,-1.4590873718261719,-1.454407811164856,0.01775316148996353,0.0050316606648266315,-0.11598487198352814,-0.16578158736228943,0.010045532137155533,-0.01822182722389698,0.11454895883798599,-0.05700477212667465,-0.022785397246479988,0.027898533269762993,-0.05301932245492935,0.028227994218468666,-0.16580131649971008,-0.20318447053432465,0.0378473699092865,-0.24430720508098602,-0.0024275947362184525,0.04266742989420891,0.2590847313404083,-0.06595887988805771,0.024404525756835938,0.27890580892562866,0.18834257125854492,0.048077747225761414,0.02095840871334076,-0.06523016095161438,0.018210679292678833,-0.15046973526477814,-0.04704436659812927,-0.007704953663051128,0.019490104168653488,-0.060937244445085526,-0.0211626123636961,-0.13032028079032898,-0.06286665797233582,-0.00827153492718935,0.032714467495679855,-0.020873695611953735,0.01869099959731102,0.0012857873225584626,-0.06573726236820221,-0.004385580308735371,-0.006857900880277157,-0.021136585623025894,-0.014236470684409142,0.013839609920978546,0.03631174564361572,-0.0022224129643291235
0.0063316067680716515,-0.031197309494018555,0.3320779800415039,-0.1893264353275299,-0.03213982656598091,0.0013444555224850774,0.9813871383666992,0.004704375751316547,-0.01851239800453186,-0.00018466374604031444,-0.09743144363164902,-0.03909812122583389,-0.006582156289368868,-0.18429617583751678,0.0657319724559784,-0.06348847597837448,0.11839792877435684,0.6979453563690186,0.7094512581825256,0.7568058967590332,1.1234887838363647,-1.754044532775879,-1.7601921558380127,-1.4595298767089844,-1.4541726112365723,0.017346490174531937,0.00580977275967598,-0.07474230974912643,-0.10248351842164993,0.01000678725540638,-0.0016439497703686357,0.08223766088485718,-0.02612960897386074,-0.022793030366301537,0.029846226796507835,-0.054889898747205734,0.0315568707883358,-0.16597077250480652,-0.20315806567668915,0.03786471486091614,-0.24427489936351776,-0.002289343625307083,0.042669735848903656,0.25915032625198364,-0.0659918561577797,0.024372391402721405,0.278922438621521,0.18825508654117584,0.048100732266902924,0.016919191926717758,-0.050615038722753525,0.014369582757353783,-0.11831743270158768,-0.03389943763613701,-0.005515451077371836,0.01961543783545494,-0.04527444392442703,-0.01847750134766102,-0.09247548133134842,-0.06739906221628189,-0.004680342506617308,0.023273125290870667,-0.02136054076254368,0.016429036855697632,-0.017951680347323418,-0.036636482924222946,-0.003232560819014907,0.004480729810893536,-0.019729718565940857,-0.010641847737133503,-0.0005451494362205267,-0.006014878861606121,0.0005502181011252105
0.006371061317622662,-0.031352002173662186,0.3320766091346741,-0.18892209231853485,-0.03208482265472412,0.0012061622692272067,0.9814670085906982,0.003172504249960184,-0.011417831294238567,-0.0011378549970686436,-0.06063684821128845,-0.02427409589290619,-0.00409180810675025,-0.18415169417858124,0.06578026711940765,-0.06411165744066238,0.11754374951124191,0.6980289816856384,0.7094376087188721,0.7574918866157532,1.123270869255066,-1.754233717918396,-1.7599430084228516,-1.4599875211715698,-1.453909158706665,0.015366468578577042,0.0035448651760816574,-0.040912989526987076,-0.04480366408824921,0.011633297428488731,0.007972613908350468,0.053610533475875854,0.006970081944018602,-0.02270284853875637,0.03568989038467407,-0.08374859392642975,0.049598027020692825,-0.1661025583744049,-0.20313318073749542,0.03788193687796593,-0.24422916769981384,-0.0021657459437847137,0.04267028346657753,0.25916922092437744,-0.06603175401687622,0.02434781938791275,0.2789895236492157,0.18818789720535278,0.048117682337760925,0.011741656810045242,-0.03262215107679367,0.009468188509345055,-0.07903815060853958,-0.019888047128915787,-0.0031874924898147583,0.016651475802063942,-0.026676082983613014,-0.015814291313290596,-0.047949958592653275,-0.06607487052679062,-0.000817983818706125,0.008341630920767784,-0.018062522634863853,0.016011936590075493,-0.03400223329663277,0.01881159469485283,-4.266050746082328e-05,0.017060309648513794,-0.012643421068787575,-0.0071265073493123055,0.0012842124560847878,-0.05988774821162224,0.00614381255581975
0.00639716163277626,-0.03144695237278938,0.3320673704147339,-0.18871286511421204,-0.032006144523620605,0.0010627780575305223,0.9815101027488708,0.0033395737409591675,-0.0024103792384266853,-0.0018699236679822206,-0.04083375632762909,-0.016325781121850014,-0.0027507080230861902,-0.18402405083179474,0.06580996513366699,-0.0644523948431015,0.1171712875366211,0.6981266736984253,0.7095043659210205,0.7579378485679626,1.123329520225525,-1.7544234991073608,-1.7596447467803955,-1.460686206817627,-1.4534956216812134,0.008380398154258728,-0.0002397100761299953,0.012577294372022152,0.031166475266218185,0.010618635453283787,0.013040291145443916,0.006192081142216921,0.041223715990781784,-0.022010311484336853,0.041716430336236954,-0.08482714742422104,0.04898276552557945,-0.16619130969047546,-0.20311449468135834,0.03790001571178436,-0.24419772624969482,-0.0020714029669761658,0.04266462102532387,0.25909870862960815,-0.06604493409395218,0.024350546300411224,0.27909979224205017,0.18819397687911987,0.04811515659093857,0.008949674665927887,-0.016359973698854446,0.006268945522606373,-0.05287988856434822,-0.009050046093761921,-0.0013522766530513763,0.016088265925645828,-0.010752364061772823,-0.014918056316673756,-0.02060246467590332,-0.06701941043138504,0.0016318258130922914,-0.00179271399974823,-0.02442975342273712,0.015618512406945229,-0.08187400549650192,0.0518459789454937,0.0004068077832926065,0.03229283541440964,-0.01497348491102457,-0.0050973971374332905,-0.037201832979917526,-0.11118566989898682,0.0070965709164738655
