Huisouan/isaac-rl-lab/source/vqvae/data/idle_002.csv
rootstate0,rootstate1,rootstate2,rootstate3,rootstate4,rootstate5,rootstate6,rootstate7,rootstate8,rootstate9,rootstate10,rootstate11,rootstate12,joint_pos_0,joint_pos_1,joint_pos_2,joint_pos_3,joint_pos_4,joint_pos_5,joint_pos_6,joint_pos_7,joint_pos_8,joint_pos_9,joint_pos_10,joint_pos_11,joint_vel_0,joint_vel_1,joint_vel_2,joint_vel_3,joint_vel_4,joint_vel_5,joint_vel_6,joint_vel_7,joint_vel_8,joint_vel_9,joint_vel_10,joint_vel_11,foot_pos_0_x,foot_pos_0_y,foot_pos_0_z,foot_pos_1_x,foot_pos_1_y,foot_pos_1_z,foot_pos_2_x,foot_pos_2_y,foot_pos_2_z,foot_pos_3_x,foot_pos_3_y,foot_pos_3_z,foot_vel_0_x,foot_vel_0_y,foot_vel_0_z,foot_vel_0_rx,foot_vel_0_ry,foot_vel_0_rz,foot_vel_1_x,foot_vel_1_y,foot_vel_1_z,foot_vel_1_rx,foot_vel_1_ry,foot_vel_1_rz,foot_vel_2_x,foot_vel_2_y,foot_vel_2_z,foot_vel_2_rx,foot_vel_2_ry,foot_vel_2_rz,foot_vel_3_x,foot_vel_3_y,foot_vel_3_z,foot_vel_3_rx,foot_vel_3_ry,foot_vel_3_rz
0.0,0.0,0.3495100140571594,0.2644539475440979,0.0532509870827198,0.014030996710062027,0.9628247618675232,0.0,0.0,0.0,0.0,0.0,0.0,-0.0959869995713234,0.14492900669574738,-0.019989000633358955,0.296640008687973,0.6798589825630188,0.7499200105667114,1.009552001953125,1.019327998161316,-1.6995819807052612,-1.6891030073165894,-1.5241279602050781,-1.6148159503936768,-0.001988000003620982,-0.0023590000346302986,-0.0014070000033825636,0.0052709998562932014,0.0017099999822676182,-0.004282999783754349,0.0030980000738054514,0.008124000392854214,-0.0025629999581724405,0.0053519997745752335,-0.00407399982213974,-0.010363999754190445,-0.29562318325042725,0.024527322500944138,0.0954592302441597,-0.16931241750717163,0.19901812076568604,0.07422026991844177,0.12763996422290802,-0.25392138957977295,0.032628245651721954,0.21208304166793823,-0.08393379300832748,0.02082311362028122,0.00045682210475206375,0.00035920520895160735,0.00019721340504474938,0.002138768322765827,-0.00028546724934130907,-0.00015470149810425937,-0.00023797152971383184,0.0007661820854991674,-0.0006470176158472896,0.001495544915087521,-0.002114433329552412,-1.2568123565870337e-05,0.00041235139360651374,0.0002647379878908396,0.0004928377456963062,0.001699832733720541,0.00012029943900415674,-0.00016829512605909258,6.295737694017589e-05,-0.0011998650152236223,0.001629277248866856,-0.0034881553146988153,0.004534554202109575,-0.0002676259318832308
-1.8030405044555664e-05,-2.3478642106056213e-06,0.34949660301208496,0.2644593417644501,0.053158342838287354,0.01403111033141613,0.9628284573554993,-2.0030083656311035,-0.26087528467178345,-1.4923951625823975,14.739134788513184,14.269004821777344,-2.260960578918457,-0.09606879204511642,0.14484646916389465,-0.020075760781764984,0.2965916395187378,0.6798897981643677,0.749866247177124,1.0095422267913818,1.0193445682525635,-1.6996161937713623,-1.6890146732330322,-1.5240552425384521,-1.614768624305725,-7.198678016662598,-6.947213649749756,-8.418006896972656,-10.261634826660156,1.7563319206237793,-2.084451913833618,-3.8599820137023926,-5.696605682373047,-1.3521374464035034,4.922632217407227,11.866743087768555,14.818087577819824,-0.29558005928993225,0.024531308561563492,0.09538913518190384,-0.16927310824394226,0.1990242302417755,0.07415680587291718,0.12769776582717896,-0.2539231479167938,0.032631777226924896,0.21214094758033752,-0.08394905179738998,0.020845741033554077,-4.265588760375977,5.641053676605225,2.187763214111328,20.681650161743164,10.246429443359375,-2.9607810974121094,-4.502353668212891,5.721739768981934,2.9169230461120605,19.294261932373047,8.305755615234375,-2.3585197925567627,-5.131166934967041,5.699582576751709,-9.997259140014648,17.849687576293945,3.087432622909546,-2.7785837650299072,-4.977657318115234,5.659684181213379,-8.356585502624512,19.37071990966797,1.525349497795105,-0.10452792793512344
-0.016712389886379242,-0.002176230773329735,0.3370629549026489,0.2684478759765625,-0.03271719068288803,0.01408302877098322,0.9626354575157166,-0.02149197831749916,-0.012860482558608055,-0.0036711622960865498,-0.09554528445005417,0.05773845687508583,-0.007895668968558311,-0.15605828166007996,0.08695363998413086,-0.09022734314203262,0.2110775113105774,0.694525420665741,0.7324950695037842,0.9773764610290527,0.9718716144561768,-1.7108840942382812,-1.6479923725128174,-1.4251646995544434,-1.4912844896316528,-0.015569970943033695,-0.020007476210594177,-0.12991797924041748,-0.13836953043937683,0.023914871737360954,0.0009817986283451319,0.08436013758182526,-0.07617808133363724,-0.06268897652626038,-0.02420535683631897,0.06830434501171112,0.030818190425634384,-0.25484561920166016,0.02404780313372612,0.03463571146130562,-0.12764844298362732,0.19780585169792175,0.025815606117248535,0.17926523089408875,-0.2568689286708832,0.04010295867919922,0.2653084993362427,-0.08738816529512405,0.03751523792743683,-0.037836287170648575,-0.03626055642962456,0.016840612515807152,-0.06275518238544464,0.0827421247959137,-0.0011517108650878072,-0.037073422223329544,-0.034133244305849075,-0.011204986833035946,-0.0663737878203392,0.0671183317899704,-0.008716730400919914,0.015084994025528431,-0.027596522122621536,0.003844241611659527,-0.0625893622636795,-0.13997191190719604,-0.010999029502272606,-0.032014209777116776,0.0017854503821581602,-0.01778361201286316,0.04607591778039932,0.023870162665843964,-0.008036493323743343
-0.016891583800315857,-0.0022833654657006264,0.33703187108039856,0.26888740062713623,-0.03281024470925331,0.014098028652369976,0.9625093340873718,-0.02159317210316658,-0.013538988307118416,-0.004196306690573692,-0.09787475317716599,0.05926862731575966,-0.008114711381494999,-0.15618737041950226,0.08678656816482544,-0.09131094068288803,0.20992310345172882,0.6947255730628967,0.7325042486190796,0.9780808687210083,0.9712363481521606,-1.7114075422286987,-1.6481949090957642,-1.4245959520339966,-1.491027593612671,-0.013703934848308563,-0.016069460660219193,-0.14609788358211517,-0.1441757082939148,0.022464314475655556,0.008304938673973083,0.10760260373353958,-0.061843208968639374,-0.05433397367596626,-0.034528132528066635,0.04068676382303238,0.01377253606915474,-0.2549378275871277,0.024167198687791824,0.03463507071137428,-0.12758119404315948,0.19784210622310638,0.025795817375183105,0.17937301099300385,-0.25704875588417053,0.04007788002490997,0.26516878604888916,-0.08739328384399414,0.03749324381351471,-0.03801094740629196,-0.038182392716407776,0.015303299762308598,-0.07013296335935593,0.07932690531015396,-0.0024993945844471455,-0.03753822296857834,-0.036723509430885315,-0.010724861174821854,-0.07049065828323364,0.07320041954517365,-0.009493125602602959,0.018411332741379738,-0.02583371102809906,0.00719404174014926,-0.049039196223020554,-0.14308340847492218,-0.00986451469361782,-0.030399039387702942,0.0019533629529178143,-0.015525521710515022,0.05007864162325859,0.024524368345737457,-0.00835346058011055
-0.017071785405278206,-0.0023965053260326385,0.336996853351593,0.2693410813808441,-0.03288927301764488,0.014108008705079556,0.9623796939849854,-0.02181762270629406,-0.01408041175454855,-0.004434556700289249,-0.10037993639707565,0.060915447771549225,-0.008346323855221272,-0.15630246698856354,0.08665239065885544,-0.09253036230802536,0.20871968567371368,0.6949127316474915,0.7325734496116638,0.9789784550666809,0.9707211256027222,-1.7118607759475708,-1.6484830379486084,-1.4242558479309082,-1.4909127950668335,-0.012770503759384155,-0.017138177528977394,-0.1491711437702179,-0.14779160916805267,0.02103663980960846,0.013521287590265274,0.12538745999336243,-0.051108043640851974,-0.04755586013197899,-0.02932218462228775,0.03225415572524071,0.006806077901273966,-0.25503402948379517,0.024288468062877655,0.03462570533156395,-0.12751594185829163,0.19787085056304932,0.02578940987586975,0.17949828505516052,-0.25720876455307007,0.04006937891244888,0.2650371193885803,-0.08739413321018219,0.03748450428247452,-0.0383860282599926,-0.039726756513118744,0.014291737228631973,-0.07611515372991562,0.07687685638666153,-0.0035704844631254673,-0.036184970289468765,-0.03898162394762039,-0.0120939826592803,-0.07751389592885971,0.06543668359518051,-0.008643695153295994,0.021275769919157028,-0.028481807559728622,0.009705014526844025,-0.0538833849132061,-0.1510629951953888,-0.01081661693751812,-0.028716206550598145,0.0009044900070875883,-0.014282243326306343,0.048668984323740005,0.02105804719030857,-0.007432568818330765
-0.01725396141409874,-0.0025136638432741165,0.3369598090648651,0.26980963349342346,-0.03295018523931503,0.01410897821187973,0.962246298789978,-0.02145223692059517,-0.014806513674557209,-0.004307476803660393,-0.10359605401754379,0.06300566345453262,-0.008633776567876339,-0.15640868246555328,0.08650920540094376,-0.09377502650022507,0.20748724043369293,0.6950880885124207,0.7326856255531311,0.980025053024292,0.9702948927879333,-1.7122572660446167,-1.6487271785736084,-1.4239869117736816,-1.4908562898635864,-0.015150237828493118,-0.017872262746095657,-0.15637873113155365,-0.15026451647281647,0.02471701055765152,0.013377859257161617,0.13570724427700043,-0.046462252736091614,-0.04884859547019005,-0.027016155421733856,0.02187211625277996,-0.004281136207282543,-0.2551373541355133,0.024418316781520844,0.03461318835616112,-0.1274385303258896,0.19789931178092957,0.02578321099281311,0.179635152220726,-0.2573820650577545,0.04006674140691757,0.26491183042526245,-0.08739696443080902,0.03747761994600296,-0.03753569349646568,-0.04121953248977661,0.014803146943449974,-0.07849480211734772,0.07567892968654633,-0.004031764809042215,-0.03606114536523819,-0.04065428301692009,-0.012725383043289185,-0.08123116195201874,0.06529287248849869,-0.008667058311402798,0.023023221641778946,-0.029018910601735115,0.01175753865391016,-0.051110368221998215,-0.1526937335729599,-0.010773863643407822,-0.028997445479035378,0.0004837322048842907,-0.012941543944180012,0.05087714269757271,0.027057088911533356,-0.008852827362716198
-0.01743215322494507,-0.002636834979057312,0.3369237780570984,0.2702973186969757,-0.03298411890864372,0.014104945585131645,0.9621083736419678,-0.02134670875966549,-0.01539105735719204,-0.0044066887348890305,-0.10704413056373596,0.06525184959173203,-0.008935227990150452,-0.15653537213802338,0.08636002242565155,-0.09507963806390762,0.20623363554477692,0.6952940821647644,0.7327979207038879,0.9811569452285767,0.9699069261550903,-1.712664008140564,-1.6489521265029907,-1.4238051176071167,-1.4908915758132935,-0.007132172584533691,-0.018094612285494804,-0.16020695865154266,-0.1549944430589676,0.03789972513914108,0.01722945086658001,0.14684364199638367,-0.03876696527004242,-0.0378965325653553,-0.019467569887638092,0.015403714962303638,-0.009872828610241413,-0.2552407681941986,0.024560406804084778,0.034613706171512604,-0.1273612082004547,0.1979335993528366,0.025785863399505615,0.17976829409599304,-0.257551908493042,0.040061794221401215,0.2647726833820343,-0.08739828318357468,0.03746875375509262,-0.03481697663664818,-0.046997129917144775,0.013351300731301308,-0.10097125917673111,0.06154625490307808,-0.008428643457591534,-0.03474779054522514,-0.04345298931002617,-0.014504360035061836,-0.09046031534671783,0.05775187909603119,-0.007862120866775513,0.024769477546215057,-0.03091583028435707,0.013637296855449677,-0.05389097332954407,-0.15646667778491974,-0.011405347846448421,-0.027574514970183372,-0.0003484855405986309,-0.012005718424916267,0.050327569246292114,0.024967314675450325,-0.008293906226754189
-0.017610318958759308,-0.0027660122141242027,0.3368877172470093,0.27080100774765015,-0.03300108760595322,0.01409589871764183,0.9619661569595337,-0.020841402933001518,-0.016134189441800117,-0.0045628622174263,-0.11072239279747009,0.06765352189540863,-0.009252441115677357,-0.15659493207931519,0.08620896190404892,-0.09641614556312561,0.20493999123573303,0.6956104636192322,0.7329411506652832,0.9823824763298035,0.9695835709571838,-1.7129803895950317,-1.6491150856018066,-1.4236763715744019,-1.490973949432373,-0.01486548688262701,-0.01650395803153515,-0.16138195991516113,-0.1592753529548645,0.023302773013710976,0.018079524859786034,0.15104874968528748,-0.03906198590993881,-0.03809460625052452,-0.016761401668190956,0.009669890627264977,-0.015200763940811157,-0.2553247809410095,0.024674754589796066,0.034607160836458206,-0.12727107107639313,0.19796158373355865,0.02578575909137726,0.1799042969942093,-0.25773102045059204,0.04005907475948334,0.2646392285823822,-0.08740194141864777,0.03746163845062256,-0.037371035665273666,-0.04484368860721588,0.013609740883111954,-0.0905725285410881,0.07248829305171967,-0.006029278039932251,-0.034633148461580276,-0.04606221616268158,-0.015709560364484787,-0.09736671298742294,0.05795527622103691,-0.007953234016895294,0.024763518944382668,-0.03269285708665848,0.01487486157566309,-0.05599185451865196,-0.15341895818710327,-0.011726845987141132,-0.027935145422816277,-0.00042704585939645767,-0.011898491531610489,0.05319138988852501,0.029636045917868614,-0.009429463185369968
-0.01778448559343815,-0.002900191582739353,0.3368496894836426,0.27132275700569153,-0.03301091492176056,0.014081866480410099,0.961819052696228,-0.02067107893526554,-0.016543224453926086,-0.004123040474951267,-0.11400091648101807,0.0698271244764328,-0.009534941986203194,-0.1567179262638092,0.08607177436351776,-0.09776259958744049,0.20361191034317017,0.6958049535751343,0.7330923676490784,0.9836419224739075,0.9692572355270386,-1.7132984399795532,-1.6492549180984497,-1.4235957860946655,-1.491100788116455,0.0010123316897079349,-0.017021065577864647,-0.1751728057861328,-0.16804003715515137,0.026888400316238403,0.019858701154589653,0.16585880517959595,-0.03809274360537529,-0.03312067314982414,-0.012687396258115768,-0.011677371338009834,-0.01294430997222662,-0.2554262578487396,0.024829616770148277,0.03460143133997917,-0.12717004120349884,0.19798626005649567,0.02578316628932953,0.18003371357917786,-0.2579176723957062,0.040056534111499786,0.26450207829475403,-0.08740183711051941,0.03745385259389877,-0.03880147263407707,-0.05071820318698883,0.014356998726725578,-0.11169767379760742,0.07564542442560196,-0.00869323406368494,-0.03409363701939583,-0.0479445606470108,-0.01634666882455349,-0.10329311341047287,0.05489695444703102,-0.007643572986125946,0.026635274291038513,-0.030866770073771477,0.018141571432352066,-0.04439014196395874,-0.15290690958499908,-0.010675206780433655,-0.02633480355143547,9.048916399478912e-05,-0.011601598002016544,0.055642299354076385,0.024418186396360397,-0.00833224505186081
-0.017956659197807312,-0.003038369119167328,0.33681467175483704,0.27186134457588196,-0.03299982100725174,0.014065798372030258,0.9616676568984985,-0.02043047919869423,-0.016966363415122032,-0.0038808132521808147,-0.11597742140293121,0.07121685892343521,-0.009703517891466618,-0.15670979022979736,0.08592964708805084,-0.09922292828559875,0.2022102177143097,0.6960296034812927,0.7332576513290405,0.9850261211395264,0.9689403176307678,-1.7135741710662842,-1.6493605375289917,-1.4236929416656494,-1.4912093877792358,-0.009692149236798286,-0.01669156365096569,-0.15976577997207642,-0.15806512534618378,0.019578706473112106,0.020041124895215034,0.14965935051441193,-0.032704323530197144,-0.026272209361195564,-0.0065996767953038216,0.013509759679436684,-0.02892044000327587,-0.2555438280105591,0.0249558687210083,0.03460733965039253,-0.12706369161605835,0.19801142811775208,0.025785908102989197,0.18016481399536133,-0.2580842077732086,0.040065787732601166,0.2643702030181885,-0.08739437907934189,0.037438780069351196,-0.038261860609054565,-0.048363618552684784,0.013273498974740505,-0.10433420538902283,0.07183659821748734,-0.008032510057091713,-0.0335606150329113,-0.049604207277297974,-0.017375284805893898,-0.10886868089437485,0.05114956572651863,-0.007243822794407606,0.024030489847064018,-0.03588572517037392,0.016092995181679726,-0.06432250142097473,-0.1512022465467453,-0.012984020635485649,-0.02910986915230751,-0.002567366696894169,-0.009886263869702816,0.050691477954387665,0.03957920894026756,-0.01135684922337532
-0.018127810209989548,-0.0031795427203178406,0.33678266406059265,0.27240779995918274,-0.032980747520923615,0.014044723473489285,0.961513876914978,-0.020153913646936417,-0.01712338998913765,-0.003520507598295808,-0.11695819348096848,0.07200262695550919,-0.009786488488316536,-0.15679141879081726,0.08579042553901672,-0.10055649280548096,0.20089060068130493,0.696192741394043,0.7334246635437012,0.9862747192382812,0.968666672706604,-1.7137941122055054,-1.6494152545928955,-1.423580288887024,-1.491450309753418,-0.015757665038108826,-0.017454231157898903,-0.17216618359088898,-0.17111197113990784,0.030751720070838928,0.018728645518422127,0.1630949079990387,-0.036657415330410004,-0.022760819643735886,-0.0019105784595012665,-0.013775565661489964,-0.01470574177801609,-0.25565779209136963,0.02511531487107277,0.0346069410443306,-0.1269509494304657,0.19803407788276672,0.02578752487897873,0.18026937544345856,-0.2582857608795166,0.040050916373729706,0.2642129361629486,-0.08740321546792984,0.03743617981672287,-0.034177884459495544,-0.04903964698314667,0.012554896995425224,-0.10764582455158234,0.05698812007904053,-0.009839735925197601,-0.03318316116929054,-0.0500742606818676,-0.017848830670118332,-0.11100594699382782,0.0486774705350399,-0.006957109551876783,0.024840407073497772,-0.032680727541446686,0.019373048096895218,-0.04784521833062172,-0.1451585292816162,-0.011157984845340252,-0.025747977197170258,-0.0006229327991604805,-0.01085689291357994,0.055370066314935684,0.024904293939471245,-0.00830250233411789
-0.01829596795141697,-0.0033226730301976204,0.3367527425289154,0.2729605436325073,-0.03295864909887314,0.014019682072103024,0.9613583087921143,-0.020018581300973892,-0.016936982050538063,-0.002834828570485115,-0.11678328365087509,0.07208064943552017,-0.009771758690476418,-0.15692193806171417,0.08564436435699463,-0.10199200361967087,0.19946418702602386,0.6964489817619324,0.7335808277130127,0.9876347184181213,0.9683609008789062,-1.7139836549758911,-1.649431586265564,-1.4236948490142822,-1.491573452949524,-0.009348317049443722,-0.016628198325634003,-0.1516246795654297,-0.1598481982946396,0.019891567528247833,0.018752753734588623,0.1385457068681717,-0.03141975775361061,-0.016761522740125656,0.004187381360679865,0.011551330797374249,-0.025764329358935356,-0.2557354271411896,0.02527618408203125,0.034599367529153824,-0.12683072686195374,0.1980588138103485,0.025788165628910065,0.18037870526313782,-0.2584589421749115,0.04005873203277588,0.2640841603279114,-0.08739521354436874,0.03742433339357376,-0.036932628601789474,-0.04909256100654602,0.012808691710233688,-0.11044646054506302,0.06453137844800949,-0.009568000212311745,-0.03250555321574211,-0.05059261620044708,-0.01818091981112957,-0.11479496210813522,0.04401613771915436,-0.006428651977330446,0.019592048600316048,-0.036419935524463654,0.01687752455472946,-0.06573431193828583,-0.13505050539970398,-0.012907389551401138,-0.027738122269511223,-0.002904054243117571,-0.00901111401617527,0.04899761080741882,0.03550254553556442,-0.010222719050943851
-0.01846209727227688,-0.0034637865610420704,0.3367297351360321,0.2735110819339752,-0.032928671687841415,0.013992653228342533,0.9612032175064087,-0.01939731277525425,-0.016588719561696053,-0.0022626984864473343,-0.11526329815387726,0.07132528722286224,-0.009642238728702068,-0.15700054168701172,0.0855063870549202,-0.1032571941614151,0.19813060760498047,0.6966150403022766,0.7337376475334167,0.9887904524803162,0.9680992364883423,-1.7141236066818237,-1.649396538734436,-1.4235988855361938,-1.4917877912521362,-0.0050404560752213,-0.014811434783041477,-0.1500360369682312,-0.16115519404411316,0.018716679885983467,0.015813805162906647,0.13357865810394287,-0.0350562185049057,-0.01482782419770956,0.0048614442348480225,0.002175605157390237,-0.01696300506591797,-0.2558387219905853,0.0254380963742733,0.03459900990128517,-0.126708984375,0.19808043539524078,0.025790110230445862,0.18044228851795197,-0.25866013765335083,0.04004251956939697,0.2639365792274475,-0.0874025821685791,0.03742478787899017,-0.03679974377155304,-0.04928484559059143,0.0131359389051795,-0.11297722160816193,0.06538750976324081,-0.009856942109763622,-0.0325932651758194,-0.04986979812383652,-0.01763550564646721,-0.11364857852458954,0.04612080752849579,-0.006647015456110239,0.017297949641942978,-0.03436755761504173,0.017581939697265625,-0.05834561586380005,-0.1228291392326355,-0.011753031052649021,-0.026235537603497505,-0.002255866304039955,-0.009374650195240974,0.048864301294088364,0.029629496857523918,-0.008873524144291878
-0.018624214455485344,-0.0036018649116158485,0.3367108106613159,0.27405527234077454,-0.032902706414461136,0.013965586200356483,0.961049497127533,-0.018912669271230698,-0.015877917408943176,-0.0016064542578533292,-0.11150334030389786,0.06917372345924377,-0.00932637881487608,-0.15704254806041718,0.08538228273391724,-0.10450897365808487,0.19678553938865662,0.6967714428901672,0.7338698506355286,0.9899045825004578,0.9678062200546265,-1.7142471075057983,-1.6493557691574097,-1.4235807657241821,-1.491929292678833,-0.00470736576244235,-0.014654652215540409,-0.14505185186862946,-0.1578502506017685,0.020634397864341736,0.015434044413268566,0.12487300485372543,-0.04092227667570114,-0.010081698186695576,0.009391559287905693,0.0026625769678503275,-0.010257338173687458,-0.2559419274330139,0.025591013953089714,0.034600187093019485,-0.12659071385860443,0.1981024444103241,0.02579318732023239,0.18048904836177826,-0.258846253156662,0.04003577679395676,0.26380157470703125,-0.0874052569270134,0.03742324560880661,-0.034706637263298035,-0.04808928817510605,0.012514469213783741,-0.11292145401239395,0.057771194726228714,-0.010547029785811901,-0.03112076222896576,-0.04843182861804962,-0.01721653714776039,-0.11225168406963348,0.040552712976932526,-0.005957846064120531,0.015508203767240047,-0.03250259906053543,0.01713338866829872,-0.05474543944001198,-0.11543506383895874,-0.011195678263902664,-0.026110151782631874,-0.001208702102303505,-0.009598830714821815,0.0493355430662632,0.028353149071335793,-0.008558365516364574
-0.01878228224813938,-0.0037348726764321327,0.33669692277908325,0.2745825946331024,-0.032882943749427795,0.013936549425125122,0.9609000086784363,-0.01813368871808052,-0.014936628751456738,-0.0007150626042857766,-0.10584758222103119,0.06582639366388321,-0.008853212930262089,-0.1570817083120346,0.08526048809289932,-0.10571930557489395,0.19546917080879211,0.6969435214996338,0.7339984178543091,0.9909464716911316,0.967465341091156,-1.7143311500549316,-1.6492778062820435,-1.4235591888427734,-1.49201500415802,-0.005587602499872446,-0.012002660892903805,-0.13745614886283875,-0.14941926300525665,0.012347729876637459,0.011113163083791733,0.11477059870958328,-0.044907096773386,-0.009744565933942795,0.009209156967699528,0.006949195172637701,0.00040624893154017627,-0.25602996349334717,0.025735734030604362,0.034596677869558334,-0.12646859884262085,0.19812172651290894,0.025793835520744324,0.18052750825881958,-0.2590208649635315,0.040031783282756805,0.263668954372406,-0.08740075677633286,0.03742066025733948,-0.034753575921058655,-0.04421963170170784,0.012840794399380684,-0.10245112329721451,0.060682300478219986,-0.00884110014885664,-0.030889851972460747,-0.04580984637141228,-0.015705324709415436,-0.1064804419875145,0.042393941432237625,-0.006100009195506573,0.014263847842812538,-0.030650202184915543,0.016392836347222328,-0.05268550291657448,-0.10989958047866821,-0.01087004691362381,-0.02508971281349659,-0.0014621731825172901,-0.009767751209437847,0.04427310451865196,0.023782197386026382,-0.007269255816936493
-0.01893334649503231,-0.003858828917145729,0.3366910517215729,0.27508237957954407,-0.03287937864661217,0.013906608335673809,0.9607576131820679,-0.01732586696743965,-0.013556787744164467,0.00031503092031925917,-0.09767749905586243,0.06088685244321823,-0.008172989822924137,-0.157128244638443,0.08516060560941696,-0.10686597973108292,0.19422221183776855,0.6970459222793579,0.7340905070304871,0.9919041395187378,0.9670904278755188,-1.7144126892089844,-1.6492009162902832,-1.4235001802444458,-1.4920110702514648,-0.0016096102772280574,-0.010200676508247852,-0.1332356184720993,-0.13930749893188477,0.006591164506971836,0.004285048693418503,0.09790704399347305,-0.05576601251959801,-0.011977458372712135,0.008594123646616936,0.013177540153265,0.014107848517596722,-0.25611841678619385,0.02588479220867157,0.034594494849443436,-0.12635380029678345,0.19814108312129974,0.025796301662921906,0.18057069182395935,-0.25918474793434143,0.0400371253490448,0.26355090737342834,-0.0873982310295105,0.03742263466119766,-0.0347573459148407,-0.04062905162572861,0.013645080849528313,-0.09354491531848907,0.06458805501461029,-0.00726419547572732,-0.030717164278030396,-0.04135803133249283,-0.013573450036346912,-0.09589815884828568,0.04466799274086952,-0.006247030571103096,0.012780100107192993,-0.02572791278362274,0.014344478957355022,-0.04271857440471649,-0.10363969206809998,-0.009600922465324402,-0.02518230862915516,-0.0002818894572556019,-0.01050872914493084,0.04233521223068237,0.02169257216155529,-0.006678482051938772
-0.019078314304351807,-0.003971967846155167,0.33669400215148926,0.27554383873939514,-0.03290298581123352,0.013882087543606758,0.9606249332427979,-0.016060639172792435,-0.013561535626649857,-0.00011931653716601431,-0.09561588615179062,0.05972984433174133,-0.008009388111531734,-0.1571413278579712,0.0850752741098404,-0.10797654092311859,0.1930602788925171,0.6971015334129333,0.7341262698173523,0.9927201271057129,0.966625452041626,-1.7145119905471802,-1.6491289138793945,-1.4233906269073486,-1.491894245147705,0.004742765333503485,-0.00513041066005826,-0.1218743845820427,-0.1300453096628189,0.010571814142167568,0.008894900791347027,0.10514432936906815,-0.045340098440647125,-0.006594409700483084,0.014211328700184822,0.002325664507225156,0.005549266468733549,-0.25620704889297485,0.026016592979431152,0.03459513932466507,-0.12625065445899963,0.19815927743911743,0.025797128677368164,0.1806211918592453,-0.2593219578266144,0.04005131125450134,0.26343950629234314,-0.08739414811134338,0.03742875158786774,-0.0325407050549984,-0.042387671768665314,0.012294846586883068,-0.10167685151100159,0.05887803062796593,-0.008932800032198429,-0.028151195496320724,-0.0432523712515831,-0.01500225905328989,-0.10359369218349457,0.0375886969268322,-0.005490854848176241,0.012409668415784836,-0.028337497264146805,0.01602325774729252,-0.048527996987104416,-0.09577538073062897,-0.010012607090175152,-0.023629574105143547,-0.00265742396004498,-0.009338269010186195,0.03553396463394165,0.023768706247210503,-0.006742076016962528
-0.01921231299638748,-0.0040859258733689785,0.3366929292678833,0.27599459886550903,-0.032901618629693985,0.01382925920188427,0.9604963064193726,-0.01519771944731474,-0.012661988846957684,-0.0003541884361766279,-0.08919057250022888,0.05583303049206734,-0.007472628727555275,-0.15710222721099854,0.08503271639347076,-0.10899338126182556,0.19197556376457214,0.6971898078918457,0.7342012524604797,0.9935975670814514,0.9662473201751709,-1.714566946029663,-1.6490106582641602,-1.4233711957931519,-1.4918473958969116,0.005065516103059053,-0.008329784497618675,-0.12003263086080551,-0.12691232562065125,0.011723553761839867,0.014976502396166325,0.10854707658290863,-0.0365680530667305,0.00032609252957627177,0.015209173783659935,-0.00828819815069437,0.0034314095973968506,-0.25629013776779175,0.02614312618970871,0.034596048295497894,-0.12614309787750244,0.19817380607128143,0.025800541043281555,0.18066273629665375,-0.2594621777534485,0.040057748556137085,0.2633311152458191,-0.08738930523395538,0.03742799907922745,-0.029484961181879044,-0.04025023430585861,0.010111743584275246,-0.09968932718038559,0.04834616184234619,-0.009611877612769604,-0.024122612550854683,-0.040676556527614594,-0.014353587292134762,-0.09826378524303436,0.02605590969324112,-0.004072648473083973,0.013235590420663357,-0.025531629100441933,0.01627347432076931,-0.04002915695309639,-0.09262725710868835,-0.009010329842567444,-0.020088911056518555,-0.001611925195902586,-0.008099432103335857,0.03573909029364586,0.01593885011970997,-0.005062179174274206
-0.019338350743055344,-0.00419092271476984,0.33668994903564453,0.27641555666923523,-0.03288162127137184,0.013789218850433826,0.9603765606880188,-0.014400658197700977,-0.011893900111317635,-0.0003962609625887126,-0.08298173546791077,0.0520479716360569,-0.006950664799660444,-0.15706022083759308,0.08496275544166565,-0.10999508202075958,0.19091710448265076,0.6972875595092773,0.7343258261680603,0.9945032596588135,0.9659421443939209,-1.7145649194717407,-1.6488839387893677,-1.4234403371810913,-1.491819143295288,0.004813769832253456,-0.0076939621940255165,-0.11149652302265167,-0.11660581082105637,0.01595781184732914,0.011769937351346016,0.10677438229322433,-0.029804730787873268,0.0003178700862918049,0.01888101175427437,-0.014846069738268852,0.0050209397450089455,-0.25637173652648926,0.02625492960214615,0.03459518775343895,-0.1260364055633545,0.19818410277366638,0.02580408751964569,0.1807035505771637,-0.2595865726470947,0.040068767964839935,0.2632346749305725,-0.08737888932228088,0.03742180019617081,-0.026532568037509918,-0.03830581530928612,0.009225023910403252,-0.095457524061203,0.04087291657924652,-0.00969712994992733,-0.022743098437786102,-0.0380607470870018,-0.01417198870331049,-0.09286696463823318,0.022224336862564087,-0.0035579276736825705,0.012201186269521713,-0.024232234805822372,0.016290821135044098,-0.036798831075429916,-0.0848732516169548,-0.008365398272871971,-0.017819436267018318,-0.0028600103687494993,-0.007439954672008753,0.028755784034729004,0.010640407912433147,-0.003590384963899851
-0.019459251314401627,-0.004289865028113127,0.33668699860572815,0.2768072783946991,-0.03286211937665939,0.0137490164488554,0.9602649807929993,-0.01321414951235056,-0.010823722928762436,-7.611684850417078e-05,-0.07562608271837234,0.04752066731452942,-0.006332740653306246,-0.15701980888843536,0.08489852398633957,-0.11092513799667358,0.18994440138339996,0.6974200010299683,0.7344237565994263,0.995393693447113,0.965694010257721,-1.714562177658081,-1.6487255096435547,-1.4235650300979614,-1.4917775392532349,0.007077009417116642,-0.008569086901843548,-0.10017412900924683,-0.10855969786643982,0.012178079225122929,0.01612481288611889,0.1034652516245842,-0.023136701434850693,0.00506730517372489,0.020023468881845474,-0.023986516520380974,0.003070591948926449,-0.2564413547515869,0.0263532642275095,0.03459341451525688,-0.12594066560268402,0.1981930285692215,0.02580197900533676,0.18073910474777222,-0.2597050666809082,0.04008771479129791,0.2631511688232422,-0.08737903833389282,0.03741707652807236,-0.024709003046154976,-0.03541561961174011,0.008081089705228806,-0.09052415937185287,0.03673972189426422,-0.00938328169286251,-0.018975595012307167,-0.035374268889427185,-0.013008056208491325,-0.08773915469646454,0.012624755501747131,-0.002373435301706195,0.01047748327255249,-0.02249886654317379,0.016710955649614334,-0.032595060765743256,-0.0728909894824028,-0.0073750633746385574,-0.015122935175895691,-0.0023937688674777746,-0.005921977572143078,0.026766661554574966,0.006415712647140026,-0.0025957059115171432
-0.019569115713238716,-0.0043807909823954105,0.3366858661174774,0.2771608829498291,-0.03281915932893753,0.013701051473617554,0.9601650834083557,-0.011714582331478596,-0.009990397840738297,-0.0007170254248194396,-0.06799163669347763,0.04279358312487602,-0.005687523167580366,-0.15696042776107788,0.0848267450928688,-0.11176040023565292,0.1890387088060379,0.6975221633911133,0.7345584630966187,0.9962567687034607,0.9655010104179382,-1.71451997756958,-1.648558497428894,-1.4237645864486694,-1.4917516708374023,0.01408697385340929,-0.007041238714009523,-0.09072601050138474,-0.09577181190252304,0.017667682841420174,0.019248293712735176,0.09861638396978378,-0.016170628368854523,0.005540329031646252,0.01916048862040043,-0.030953766778111458,0.0015862846048548818,-0.25652045011520386,0.02644646167755127,0.03459925949573517,-0.12585212290287018,0.19820481538772583,0.0258103609085083,0.18075686693191528,-0.25980550050735474,0.04010222107172012,0.26307377219200134,-0.08736546337604523,0.037404440343379974,-0.02155386283993721,-0.034958552569150925,0.006701239384710789,-0.0919039249420166,0.03072477877140045,-0.010114859789609909,-0.01573178358376026,-0.033080436289310455,-0.012604456394910812,-0.08263134956359863,0.006820565555244684,-0.0016336510889232159,0.009444594383239746,-0.02036059834063053,0.015673426911234856,-0.02683017961680889,-0.06263336539268494,-0.006261907983571291,-0.012706083245575428,-0.0034594284370541573,-0.0055145095102488995,0.02064872533082962,0.0039025030564516783,-0.0017742348136380315
-0.019666993990540504,-0.0044637215323746204,0.3366798460483551,0.2774792015552521,-0.032779838889837265,0.013656796887516975,0.9600750803947449,-0.010512753389775753,-0.009064869955182076,-0.0009070687228813767,-0.059485577046871185,0.0374952033162117,-0.0049711852334439754,-0.15684333443641663,0.08476869016885757,-0.11251749843358994,0.1882399022579193,0.6976690888404846,0.7347193956375122,0.9970796704292297,0.9653661847114563,-1.7144737243652344,-1.648398756980896,-1.4240226745605469,-1.491737723350525,-0.001623673364520073,-0.00693145114928484,-0.07139942049980164,-0.07978389412164688,0.010840692557394505,0.018411193042993546,0.08846279978752136,-0.004186824429780245,0.006919405423104763,0.022356659173965454,-0.025524241849780083,-0.0041826325468719006,-0.25658661127090454,0.02650647982954979,0.03460058197379112,-0.12576176226139069,0.19820618629455566,0.025811471045017242,0.18077246844768524,-0.2598954737186432,0.04012054204940796,0.26301109790802,-0.0873628556728363,0.03739164024591446,-0.017818313091993332,-0.026993313804268837,0.004598977044224739,-0.06732400506734848,0.02167409658432007,-0.0074829403311014175,-0.012920580804347992,-0.029818706214427948,-0.012153442949056625,-0.07550705224275589,-0.0003894097753800452,-0.0007131301681511104,0.007411251775920391,-0.02081013284623623,0.01407748181372881,-0.032220836728811264,-0.05368312448263168,-0.006482631433755159,-0.010293587110936642,-0.005255228374153376,-0.0038492786698043346,0.012315540574491024,0.0019405795028433204,-0.0009729891316965222
-0.0197548009455204,-0.0045395903289318085,0.33667269349098206,0.2777535021305084,-0.03272847458720207,0.01360364444553852,0.9599983096122742,-0.009075966663658619,-0.008036530576646328,-0.001372713828459382,-0.052098166197538376,0.03288052976131439,-0.00434759771451354,-0.1568569391965866,0.0847105011343956,-0.11311250180006027,0.18757490813732147,0.6977602243423462,0.7348728775978088,0.9978181719779968,0.9653312563896179,-1.7144159078598022,-1.6482125520706177,-1.4242361783981323,-1.491773009300232,0.005541609134525061,-0.007598664611577988,-0.06292394548654556,-0.07088667899370193,0.016332851722836494,0.024818889796733856,0.09194392710924149,0.001824679085984826,0.010978921316564083,0.02237539552152157,-0.04645023122429848,-0.005255269352346659,-0.256643146276474,0.02659691870212555,0.03459858521819115,-0.12568502128124237,0.19821006059646606,0.025813624262809753,0.1807740479707718,-0.2599869966506958,0.04012583941221237,0.2629564702510834,-0.08736615628004074,0.03737922012805939,-0.014355311170220375,-0.026604710146784782,0.0028159883804619312,-0.07094720005989075,0.012837675400078297,-0.008779333904385567,-0.00853580143302679,-0.027439752593636513,-0.011610632762312889,-0.07102862000465393,-0.010740031488239765,0.0005436338833533227,0.006108351983129978,-0.018308468163013458,0.015133985318243504,-0.0228803101927042,-0.039059046655893326,-0.004681248217821121,-0.0075244116596877575,-0.005059696268290281,-0.0032841810025274754,0.009535023011267185,-0.0020384122617542744,-2.2367834390024655e-05
-0.01983053795993328,-0.004606463946402073,0.3366606831550598,0.27798670530319214,-0.03266379237174988,0.01354636438190937,0.9599338173866272,-0.0075089153833687305,-0.007073580753058195,-0.001661477261222899,-0.045139167457818985,0.028519336134195328,-0.0037597506307065487,-0.1568104773759842,0.08464740961790085,-0.11363784968852997,0.18698334693908691,0.6978959441184998,0.7350795865058899,0.998585045337677,0.9653463363647461,-1.714323878288269,-1.6480261087417603,-1.4246238470077515,-1.4918169975280762,0.012189509347081184,-0.007622179109603167,-0.05216118320822716,-0.056125741451978683,0.019299933686852455,0.027293933555483818,0.09710531681776047,0.016672173514962196,0.01055024191737175,0.023803211748600006,-0.06251755356788635,-0.009344661608338356,-0.25669240951538086,0.02665773592889309,0.03459441289305687,-0.12560778856277466,0.19821082055568695,0.025816209614276886,0.18076685070991516,-0.26005497574806213,0.04013844579458237,0.26291292905807495,-0.08735845983028412,0.03735661506652832,-0.011896194890141487,-0.025719977915287018,0.0020612708758562803,-0.07092311233282089,0.009891902096569538,-0.009034601040184498,-0.004989913664758205,-0.024926135316491127,-0.011192885227501392,-0.06616751104593277,-0.018377602100372314,0.001484425738453865,0.0057172998785972595,-0.017371241003274918,0.016390422359108925,-0.019305307418107986,-0.02848692238330841,-0.0037384210154414177,-0.003842836245894432,-0.007605955470353365,-0.0017299901228398085,-0.0017316467128694057,-0.0074094017036259174,0.001597850350663066
-0.019892293959856033,-0.004665346350520849,0.3366474509239197,0.2781735360622406,-0.0325743705034256,0.013480105437338352,0.9598836898803711,-0.005899366922676563,-0.006132565904408693,-0.0024795641656965017,-0.03852715715765953,0.024362893775105476,-0.0032003195956349373,-0.1567087173461914,0.08458340167999268,-0.11407259851694107,0.18651552498340607,0.6980569958686829,0.7353076934814453,0.9993951320648193,0.9654855132102966,-1.714235782623291,-1.647827386856079,-1.4251458644866943,-1.491895079612732,0.010638052597641945,-0.007446445990353823,-0.0394766628742218,-0.04350515455007553,0.02305985800921917,0.031123323366045952,0.09808173030614853,0.03050888143479824,0.014826730825006962,0.025922296568751335,-0.07812092453241348,-0.014671942219138145,-0.25674745440483093,0.026695337146520615,0.03460356593132019,-0.12554337084293365,0.19821380078792572,0.025826238095760345,0.18075667321681976,-0.2601054906845093,0.04015417397022247,0.2628844678401947,-0.08735495060682297,0.03732763230800629,-0.007423004135489464,-0.023303203284740448,-0.0004426881205290556,-0.0671883225440979,-0.0018428148468956351,-0.009553290903568268,-0.001082143047824502,-0.022860592231154442,-0.011480214074254036,-0.06291916221380234,-0.027419259771704674,0.0025694172363728285,0.003998942673206329,-0.016404494643211365,0.01677505299448967,-0.01572645641863346,-0.013538861647248268,-0.0025481698103249073,-0.00027798081282526255,-0.009407667443156242,-0.0006422630394808948,-0.01033321488648653,-0.011850843206048012,0.0028966902755200863
-0.019941946491599083,-0.004717159550637007,0.3366262912750244,0.278312623500824,-0.032472722232341766,0.013406739570200443,0.9598477482795715,-0.004207650665193796,-0.00522577716037631,-0.0032713296823203564,-0.035723235458135605,0.02260439470410347,-0.0029579654801636934,-0.15662026405334473,0.08452153950929642,-0.11440158635377884,0.18615281581878662,0.6982497572898865,0.7355671525001526,1.0002135038375854,0.965740442276001,-1.7141119241714478,-1.6476112604141235,-1.4257969856262207,-1.4920172691345215,0.01208992674946785,-0.006459216587245464,-0.02447962947189808,-0.027059517800807953,0.025745853781700134,0.03643453121185303,0.10035812109708786,0.04695863649249077,0.01419922336935997,0.02547089010477066,-0.09393403679132462,-0.023604996502399445,-0.25678592920303345,0.026718873530626297,0.03460276871919632,-0.12548449635505676,0.198211669921875,0.025831125676631927,0.18073885142803192,-0.2601405680179596,0.04017002880573273,0.26287591457366943,-0.08735132217407227,0.037293873727321625,-0.0048802378587424755,-0.022329039871692657,-0.0014461353421211243,-0.06668764352798462,-0.004549342207610607,-0.009714821353554726,0.002188927959650755,-0.022167252376675606,-0.011914466507732868,-0.06357525289058685,-0.03271837159991264,0.003178694983944297,0.0014712557895109057,-0.017452487722039223,0.01797681488096714,-0.01846262998878956,0.004123607184737921,-0.0019318934064358473,0.002129174303263426,-0.01344330795109272,0.0005321530043147504,-0.025431619957089424,-0.011026488617062569,0.0034182339441031218
-0.019976617768406868,-0.004760010167956352,0.3365989923477173,0.27840542793273926,-0.03235023096203804,0.013322481885552406,0.9598262906074524,-0.002558310516178608,-0.004296446219086647,-0.004375542979687452,-0.034258175641298294,0.021686716005206108,-0.002825530245900154,-0.15651865303516388,0.08446770906448364,-0.11460577696561813,0.18592721223831177,0.6984641551971436,0.7358717322349548,1.0010507106781006,0.9661322236061096,-1.7139934301376343,-1.6473979949951172,-1.4265812635421753,-1.4922146797180176,0.009846599772572517,-0.0055046528577804565,-0.011485237628221512,-0.011348280124366283,0.030619783326983452,0.04171157628297806,0.1014464795589447,0.06137403845787048,0.014905519783496857,0.024988459423184395,-0.10831808298826218,-0.03256672993302345,-0.2568210959434509,0.026731394231319427,0.03460657224059105,-0.1254321038722992,0.1982087641954422,0.025839373469352722,0.1807098388671875,-0.2601615786552429,0.04018479585647583,0.26288074254989624,-0.08735086023807526,0.03725547343492508,-0.0013669101754203439,-0.021187178790569305,-0.0030824062414467335,-0.06624165177345276,-0.011350465007126331,-0.010249152779579163,0.005176892038434744,-0.021831367164850235,-0.012835338711738586,-0.0655035674571991,-0.03714089095592499,0.0036732081789523363,-0.0010713990777730942,-0.01829054206609726,0.01867418736219406,-0.02096611261367798,0.021358540281653404,-0.0012948284856975079,0.0038234610110521317,-0.017372796311974525,0.0011120322160422802,-0.04013894125819206,-0.008048431016504765,0.003489680588245392
-0.019998230040073395,-0.0047957864589989185,0.33656278252601624,0.2784508168697357,-0.03221473470330238,0.013232139870524406,0.9598188400268555,-0.000944571802392602,-0.0031296336092054844,-0.005085484590381384,-0.03581169620156288,0.02267496846616268,-0.0029406179673969746,-0.1564367562532425,0.08442186564207077,-0.11470121890306473,0.18583188951015472,0.6987200975418091,0.736219584941864,1.001896858215332,0.9666441679000854,-1.7138690948486328,-1.6471896171569824,-1.4274849891662598,-1.4924862384796143,0.0011950461193919182,-0.004695020150393248,0.0037736757658421993,0.0041468702256679535,0.03377379849553108,0.0440535694360733,0.10249458998441696,0.07547655701637268,0.011401936411857605,0.02214418351650238,-0.11942609399557114,-0.038081537932157516,-0.25683969259262085,0.026730874553322792,0.034604452550411224,-0.1253853738307953,0.19819903373718262,0.02584455907344818,0.1806747019290924,-0.26016953587532043,0.040198154747486115,0.26289793848991394,-0.08735466003417969,0.037213005125522614,0.001643770607188344,-0.01867459900677204,-0.0035492617171257734,-0.06032627448439598,-0.014680926688015461,-0.00971168652176857,0.0066429851576685905,-0.021445628255605698,-0.01337389275431633,-0.06747309118509293,-0.03529889136552811,0.0034447757061570883,-0.004097606521099806,-0.020732296630740166,0.020047752186655998,-0.030092716217041016,0.038978900760412216,-0.0013941734796389937,0.005373150110244751,-0.022324569523334503,0.0014573942171409726,-0.05935901403427124,-0.005851825699210167,0.003939041402190924
-0.02000596933066845,-0.004822332412004471,0.33652064204216003,0.27844586968421936,-0.0320684015750885,0.013134097680449486,0.9598265290260315,0.00019211992912460119,-0.0013230269541963935,-0.005451795179396868,-0.03932897374033928,0.02490152418613434,-0.0032137027010321617,-0.15642672777175903,0.08438251912593842,-0.1146698072552681,0.18586722016334534,0.6990014314651489,0.7365865707397461,1.0027517080307007,0.9672737717628479,-1.7137746810913086,-1.647005558013916,-1.4284814596176147,-1.4928038120269775,0.009056695736944675,-0.005726031959056854,0.021314891055226326,0.021531907841563225,0.04554252326488495,0.04976937919855118,0.09377599507570267,0.09054899960756302,0.004992789123207331,0.02135111391544342,-0.1293374001979828,-0.03848396614193916,-0.2568396329879761,0.02673519030213356,0.03460215777158737,-0.12535105645656586,0.19819052517414093,0.025852732360363007,0.18063884973526,-0.2601679563522339,0.04021306335926056,0.26293376088142395,-0.08736155927181244,0.03716779500246048,0.002937586046755314,-0.021136412397027016,-0.0022725313901901245,-0.07325994968414307,-0.012764742597937584,-0.011324339546263218,0.008620782755315304,-0.021247422322630882,-0.014052256941795349,-0.07276751101016998,-0.03775012865662575,0.00368164898827672,-0.010620660148561,-0.022198904305696487,0.020977472886443138,-0.03860238194465637,0.06628962606191635,-0.0008824587566778064,0.006773003842681646,-0.028518127277493477,0.001507305190898478,-0.08539324253797531,-0.0064092292450368404,0.0052780392579734325
-0.020004630088806152,-0.004832874517887831,0.3364745080471039,0.2783758044242859,-0.031916648149490356,0.01303771324455738,0.9598532319068909,0.0014322655042633414,0.0006017351988703012,-0.00559330964460969,-0.04551922529935837,0.02881169505417347,-0.0037004631012678146,-0.15635086596012115,0.0843343734741211,-0.11449170857667923,0.18604640662670135,0.699381411075592,0.7370023727416992,1.0035333633422852,0.9680296182632446,-1.7137329578399658,-1.6468268632888794,-1.4295597076416016,-1.493125319480896,0.011644314043223858,-0.002482001669704914,0.04377654939889908,0.04420560225844383,0.043503958731889725,0.04754263162612915,0.08135894685983658,0.09453285485506058,0.0077895610593259335,0.0159760732203722,-0.13280516862869263,-0.03571714088320732,-0.2568323016166687,0.02669452130794525,0.03460926190018654,-0.12532682716846466,0.19817772507667542,0.02585894614458084,0.18058434128761292,-0.26014256477355957,0.04022902250289917,0.26299381256103516,-0.08737233281135559,0.037121422588825226,0.002480387222021818,-0.021381959319114685,-0.001971625490114093,-0.0820227637887001,-0.00811491534113884,-0.012098811566829681,0.007128630764782429,-0.021149175241589546,-0.014397632330656052,-0.07759236544370651,-0.025745531544089317,0.0022667862940579653,-0.01822839118540287,-0.02567923814058304,0.02189560979604721,-0.055383890867233276,0.09559175372123718,-0.001208114204928279,0.0044692219235002995,-0.035582367330789566,7.57744419388473e-05,-0.1143079400062561,0.0040412163361907005,0.0045432718470692635
-0.019992414861917496,-0.004828385077416897,0.3364275395870209,0.2782408595085144,-0.03177773952484131,0.012932639569044113,0.9598983526229858,0.0022387634962797165,0.0022600453812628984,-0.005409885197877884,-0.05351877212524414,0.03385411947965622,-0.004329236224293709,-0.1562543511390686,0.08431383967399597,-0.1141265332698822,0.18641529977321625,0.6997441053390503,0.7373988628387451,1.0042120218276978,0.9688183069229126,-1.7136675119400024,-1.6466940641403198,-1.430667757987976,-1.4934226274490356,-0.0014761757338419557,-0.004486210644245148,0.05802592635154724,0.06106802821159363,0.03749166429042816,0.047852978110313416,0.0664074718952179,0.09810599684715271,0.001698071020655334,0.014263937249779701,-0.132346048951149,-0.031923308968544006,-0.2568148672580719,0.02663499303162098,0.03460683301091194,-0.125325009226799,0.19816753268241882,0.025868192315101624,0.1805201917886734,-0.2601025104522705,0.04025031626224518,0.2630642056465149,-0.08738681674003601,0.037075258791446686,0.0017059071687981486,-0.017662731930613518,-0.0003572304267436266,-0.07265657931566238,0.00010226105223409832,-0.010036300867795944,0.006723256781697273,-0.02124936692416668,-0.014897460117936134,-0.08313148468732834,-0.020607972517609596,0.001637716661207378,-0.025151647627353668,-0.027756910771131516,0.02230062708258629,-0.06780020892620087,0.12046556919813156,-0.0012634934391826391,0.002417337615042925,-0.041973013430833817,-0.0011231310199946165,-0.14046147465705872,0.012001452036201954,0.004207570105791092
-0.01997416280210018,-0.004808996804058552,0.33638256788253784,0.2780458629131317,-0.031645890325307846,0.012828858569264412,0.9599606990814209,0.0029818322509527206,0.003658517263829708,-0.005046302918344736,-0.06072442606091499,0.0383777841925621,-0.004888295661658049,-0.1562661975622177,0.08427702635526657,-0.11364249885082245,0.18692567944526672,0.7000571489334106,0.737797737121582,1.0047659873962402,0.9696366190910339,-1.7136541604995728,-1.6465747356414795,-1.4317723512649536,-1.4936896562576294,-0.00420441385358572,-0.0069576166570186615,0.07755106687545776,0.08180153369903564,0.03631424531340599,0.04894336685538292,0.05636497586965561,0.11288682371377945,-0.011139250360429287,0.008394674398005009,-0.13006775081157684,-0.04084554687142372,-0.25679314136505127,0.02659326046705246,0.034607961773872375,-0.12533771991729736,0.1981610208749771,0.02587948739528656,0.1804458349943161,-0.2600362002849579,0.04027155786752701,0.263142466545105,-0.0873999148607254,0.037029728293418884,-0.0002608617942314595,-0.016875114291906357,0.0029288707301020622,-0.07026392221450806,0.014956367202103138,-0.008336841128766537,0.006196622271090746,-0.021006407216191292,-0.014423398301005363,-0.0856616422533989,-0.013408546335995197,0.0008011473692022264,-0.031329523772001266,-0.03226213902235031,0.02353798598051071,-0.08742732554674149,0.14194746315479279,-0.0023300827015191317,0.0008228062652051449,-0.049558743834495544,-2.978165866807103e-05,-0.16827702522277832,0.02272639609873295,0.0034126900136470795
-0.01994875632226467,-0.004778618924319744,0.33634063601493835,0.27779966592788696,-0.03152354806661606,0.012734686024487019,0.9600372314453125,0.004450335633009672,0.004832744132727385,-0.004735996946692467,-0.06978679448366165,0.04405524209141731,-0.005592005793005228,-0.15630173683166504,0.08421837538480759,-0.11299493908882141,0.18760809302330017,0.7003601789474487,0.7382064461708069,1.005236029624939,0.9705780744552612,-1.7137471437454224,-1.646505355834961,-1.432856798171997,-1.4940303564071655,-0.0027779671363532543,-0.0057061039842665195,0.09118776768445969,0.09473805874586105,0.03152632713317871,0.04312301054596901,0.02670670859515667,0.09745604544878006,-0.0006057602586224675,0.009000045247375965,-0.11745483428239822,-0.021566370502114296,-0.25677576661109924,0.02654130756855011,0.03462592512369156,-0.12536127865314484,0.19815459847450256,0.025896698236465454,0.1803634613752365,-0.25997674465179443,0.04030422121286392,0.2632322311401367,-0.08743581920862198,0.037004254758358,-0.0005533687653951347,-0.018331758677959442,0.002698796335607767,-0.08350221812725067,0.01655426248908043,-0.009994481690227985,0.00453954329714179,-0.02197071723639965,-0.015500156208872795,-0.09295249730348587,-0.0027048219926655293,-0.00047158426605165005,-0.03922561556100845,-0.03370228037238121,0.021654363721609116,-0.09909744560718536,0.16927355527877808,-0.0021734763868153095,-0.0027010287158191204,-0.05472017824649811,-0.004135334398597479,-0.19029958546161652,0.032079897820949554,0.0026420289650559425
-0.019912222400307655,-0.004738255403935909,0.3363017439842224,0.27749744057655334,-0.03142412751913071,0.012638978660106659,0.9601291418075562,0.005972476210445166,0.005897113587707281,-0.004171553999185562,-0.07918072491884232,0.04991600662469864,-0.00631905160844326,-0.1563248187303543,0.08417057991027832,-0.1122342050075531,0.18839795887470245,0.7006227970123291,0.7385661602020264,1.005458950996399,0.9713913202285767,-1.7137519121170044,-1.6464297771453857,-1.4338364601135254,-1.4942092895507812,-0.00957165751606226,-0.008190559223294258,0.10752927511930466,0.10808790475130081,0.019442768767476082,0.03743419796228409,0.0023638952989131212,0.09158919006586075,-0.009611252695322037,0.007491468917578459,-0.10884992778301239,-0.010986226610839367,-0.25673913955688477,0.026466600596904755,0.034622952342033386,-0.1253969669342041,0.1981460005044937,0.0259084552526474,0.18027186393737793,-0.2598864436149597,0.040323711931705475,0.2633286118507385,-0.08746148645877838,0.03696516156196594,-0.00364166172221303,-0.01611962914466858,0.005834635347127914,-0.07620318979024887,0.0365465022623539,-0.007135148160159588,0.003255369607359171,-0.022031564265489578,-0.01577792689204216,-0.09635938704013824,0.00785775389522314,-0.0016933318693190813,-0.04695691913366318,-0.036588530987501144,0.021148469299077988,-0.11410317569971085,0.19711235165596008,-0.002385682426393032,-0.005106489639729261,-0.06059728562831879,-0.006372986361384392,-0.21346713602542877,0.04109879583120346,0.002002327237278223
-0.019861871376633644,-0.004688982851803303,0.3362669348716736,0.27713945508003235,-0.03134412318468094,0.012554064393043518,0.9602361917495728,0.007014493457973003,0.006675144657492638,-0.003433329751715064,-0.08599047362804413,0.05411956459283829,-0.006838521920144558,-0.15640506148338318,0.0841025784611702,-0.11133701354265213,0.18930013477802277,0.7007855772972107,0.7388784289360046,1.0054779052734375,0.9721553325653076,-1.7138317823410034,-1.6463676691055298,-1.434744954109192,-1.4943009614944458,-0.013256029225885868,-0.008039657026529312,0.11806943267583847,0.11831372231245041,0.017845943570137024,0.030899088829755783,-0.020509930327534676,0.0792161300778389,-0.00640423409640789,0.004313404206186533,-0.09738852828741074,0.000496606167871505,-0.25670716166496277,0.0263944324105978,0.03462839499115944,-0.12544314563274384,0.1981373131275177,0.025917939841747284,0.18017007410526276,-0.25978338718414307,0.04034283757209778,0.26343879103660583,-0.08748918026685715,0.03692532330751419,-0.0032510822638869286,-0.016254117712378502,0.006662379018962383,-0.08072618395090103,0.037438344210386276,-0.007650383748114109,0.0011534078512340784,-0.021999172866344452,-0.015442549251019955,-0.09806191176176071,0.020282575860619545,-0.0031110490672290325,-0.05276896059513092,-0.03797274827957153,0.02009698376059532,-0.12393450736999512,0.21654415130615234,-0.0024871667847037315,-0.008514918386936188,-0.06424971669912338,-0.008720449171960354,-0.22842571139335632,0.05138188228011131,0.0007090536528266966
-0.019803695380687714,-0.004633772186934948,0.3362381160259247,0.276742160320282,-0.031293828040361404,0.012474467977881432,0.9603534936904907,0.0073194182477891445,0.007132051512598991,-0.0028529339469969273,-0.08954700827598572,0.05625482648611069,-0.007102411240339279,-0.15651559829711914,0.08403601497411728,-0.11035265028476715,0.19028747081756592,0.7009342312812805,0.7391355037689209,1.0053069591522217,0.9728158116340637,-1.7138853073120117,-1.6463319063186646,-1.4355567693710327,-1.494296908378601,-0.011414292268455029,-0.009388728067278862,0.1251228302717209,0.12237251549959183,0.0036754056345671415,0.026850396767258644,-0.041714444756507874,0.06891541182994843,-0.016536062583327293,2.4784007109701633e-05,-0.08477894216775894,0.010151992551982403,-0.25664961338043213,0.02630828134715557,0.03462064266204834,-0.125498428940773,0.19812750816345215,0.025926440954208374,0.18006719648838043,-0.2596675455570221,0.04036339372396469,0.2635529041290283,-0.08751550316810608,0.03688817471265793,-0.008453186601400375,-0.014769678935408592,0.009823178872466087,-0.0732477605342865,0.061033010482788086,-0.004421737045049667,-0.0003967653028666973,-0.02123487927019596,-0.014554670080542564,-0.09599052369594574,0.028694793581962585,-0.004044765140861273,-0.05743914842605591,-0.03816548362374306,0.01836640201508999,-0.12907497584819794,0.22966742515563965,-0.0024227334652096033,-0.01073099859058857,-0.06562894582748413,-0.010339003056287766,-0.2350609302520752,0.056098874658346176,0.00013372456305660307
-0.019742747768759727,-0.004574592225253582,0.3362140953540802,0.2763233482837677,-0.03126373142004013,0.012407554313540459,0.9604759216308594,0.006853211205452681,0.007414303254336119,-0.0027941372245550156,-0.0918847918510437,0.05761202052235603,-0.0072731999680399895,-0.15661108493804932,0.08395681530237198,-0.10930879414081573,0.1913084238767624,0.7009649276733398,0.7393600940704346,1.004959225654602,0.9733909368515015,-1.714023470878601,-1.6463314294815063,-1.436264157295227,-1.4942119121551514,-0.012885869480669498,-0.010057080537080765,0.12741044163703918,0.1248529851436615,-0.0003949453239329159,0.021925849840044975,-0.05244574695825577,0.05833638831973076,-0.01451124157756567,-0.0045398687943816185,-0.07109330594539642,0.019269295036792755,-0.25662171840667725,0.026221510022878647,0.03462737053632736,-0.12555992603302002,0.1981169432401657,0.0259355828166008,0.17995113134384155,-0.25954657793045044,0.04038111865520477,0.2636672854423523,-0.08754228800535202,0.03685177117586136,-0.009818840771913528,-0.014291269704699516,0.009822215884923935,-0.07328873127698898,0.06334850192070007,-0.004187818616628647,-0.0028519262559711933,-0.020297113806009293,-0.014021169394254684,-0.09267022460699081,0.037667661905288696,-0.005032007582485676,-0.05901502072811127,-0.038772087544202805,0.0167490653693676,-0.1350274533033371,0.22970815002918243,-0.003157273167744279,-0.013370362110435963,-0.06627610325813293,-0.012277054600417614,-0.23871351778507233,0.05986274406313896,-0.0004051462165080011
-0.019684962928295135,-0.00451240548864007,0.3361910879611969,0.2758919894695282,-0.031257349997758865,0.012344800867140293,0.9606009125709534,0.006157083436846733,0.007837568409740925,-0.0027094457764178514,-0.0960020050406456,0.06007380783557892,-0.007589164189994335,-0.15671825408935547,0.08387309312820435,-0.10824517160654068,0.1923498809337616,0.7009608745574951,0.7395427227020264,1.0045216083526611,0.9738770127296448,-1.714143991470337,-1.6463689804077148,-1.4368574619293213,-1.4940515756607056,-0.019104264676570892,-0.014798015356063843,0.13220220804214478,0.12323052436113358,-0.01031365804374218,0.020018190145492554,-0.06198509782552719,0.05047495663166046,-0.021230101585388184,-0.006455657538026571,-0.057824134826660156,0.029252884909510612,-0.2565893232822418,0.026131974533200264,0.034621547907590866,-0.12563037872314453,0.1981109231710434,0.025943294167518616,0.1798454374074936,-0.25942566990852356,0.040397241711616516,0.2637786269187927,-0.08756659924983978,0.03681531548500061,-0.013448039069771767,-0.0118159344419837,0.011439033783972263,-0.06356674432754517,0.07656866312026978,-0.0016012106789276004,-0.004188619554042816,-0.019419033080339432,-0.013856897130608559,-0.090720035135746,0.04083483666181564,-0.005378659348934889,-0.06138676777482033,-0.04061237350106239,0.015712294727563858,-0.14528504014015198,0.231514573097229,-0.004285023082047701,-0.015052614733576775,-0.06674955040216446,-0.014052108861505985,-0.24258378148078918,0.05960040166974068,-0.00011567166802706197
-0.019634071737527847,-0.0044468846172094345,0.336168497800827,0.2754409909248352,-0.03126772493124008,0.012289787642657757,0.960730791091919,0.0055673737078905106,0.00919953640550375,-0.0014415628975257277,-0.10444242507219315,0.0652194395661354,-0.00824990589171648,-0.15687763690948486,0.08374983817338943,-0.10714233666658401,0.19337822496891022,0.7008751630783081,0.7397097945213318,1.0040041208267212,0.974298357963562,-1.7143211364746094,-1.6464228630065918,-1.437339186668396,-1.4938075542449951,-0.02479143813252449,-0.015165049582719803,0.14283998310565948,0.1326894909143448,-0.03488004952669144,0.013652169145643711,-0.08528769761323929,0.03559738025069237,-0.023424524813890457,-0.008374366909265518,-0.04034687206149101,0.046233903616666794,-0.2565748691558838,0.026055194437503815,0.03461781144142151,-0.12570711970329285,0.1981099545955658,0.02594885230064392,0.1797439008951187,-0.2593092918395996,0.040411576628685,0.2638928294181824,-0.08758063614368439,0.036776550114154816,-0.02080153301358223,-0.007854942232370377,0.014359324239194393,-0.05342382937669754,0.10132261365652084,0.0021280949003994465,-0.00792965479195118,-0.019300149753689766,-0.013379286043345928,-0.09441917389631271,0.05276334285736084,-0.006762018892914057,-0.06823951750993729,-0.042506929486989975,0.014966316521167755,-0.1598387062549591,0.24717877805233002,-0.005192216485738754,-0.02006276324391365,-0.0704612135887146,-0.016676435247063637,-0.26014071702957153,0.06788904219865799,-0.000916637247428298
-0.019587446004152298,-0.0043701292015612125,0.33615610003471375,0.2749501168727875,-0.03131108358502388,0.012236153706908226,0.9608705639839172,0.004470313899219036,0.011107752099633217,0.0003255302144680172,-0.11193310469388962,0.06973866373300552,-0.008842685259878635,-0.15708458423614502,0.08362306654453278,-0.10595057159662247,0.1944846361875534,0.7005836963653564,0.739823043346405,1.0032920837402344,0.9745948910713196,-1.714516520500183,-1.6464933156967163,-1.437675952911377,-1.4934208393096924,-0.01347601693123579,-0.017130639404058456,0.15261676907539368,0.13885682821273804,-0.041354261338710785,0.0028516489546746016,-0.10614833980798721,0.02221379242837429,-0.015400984324514866,-0.0034949369728565216,-0.013295929878950119,0.06653191894292831,-0.2565927505493164,0.02600427158176899,0.03461473807692528,-0.1258002668619156,0.19811475276947021,0.02595655620098114,0.1796385645866394,-0.2591777443885803,0.040427856147289276,0.26400452852249146,-0.08758662641048431,0.03674076497554779,-0.025566341355443,-0.010194182395935059,0.016380153596401215,-0.07133330404758453,0.11055434495210648,0.0005645772907882929,-0.012078844010829926,-0.017861412838101387,-0.013215383514761925,-0.09708404541015625,0.061241988092660904,-0.007754283491522074,-0.07299081981182098,-0.04469725489616394,0.01410252507776022,-0.1790013462305069,0.2515571117401123,-0.007197760511189699,-0.023946229368448257,-0.07306822389364243,-0.018751129508018494,-0.2765142023563385,0.06981886178255081,-0.00047170455218292773
-0.019550621509552002,-0.004277598578482866,0.33615878224372864,0.2744257152080536,-0.03138432651758194,0.012192404828965664,0.9610186815261841,0.0038467978592962027,0.012181410565972328,0.002184977289289236,-0.11539100855588913,0.07171893119812012,-0.009125174023211002,-0.15719707310199738,0.08348067104816437,-0.10467777401208878,0.19564291834831238,0.7002385854721069,0.7398475408554077,1.0024065971374512,0.9747807383537292,-1.7146457433700562,-1.6465215682983398,-1.4377868175506592,-1.492865800857544,-0.022345075383782387,-0.020250624045729637,0.1564367413520813,0.14158163964748383,-0.05155898630619049,-0.001624588156118989,-0.12351386994123459,0.01845146156847477,-0.009840735234320164,0.006757192779332399,0.0038185426965355873,0.0787917897105217,-0.25662675499916077,0.025923296809196472,0.034608710557222366,-0.12591610848903656,0.19813039898872375,0.02596116065979004,0.17953790724277496,-0.2590428590774536,0.04044853895902634,0.264115571975708,-0.08758638054132462,0.036711208522319794,-0.027186449617147446,-0.006746615748852491,0.017465081065893173,-0.0649382695555687,0.11183149367570877,0.0015860766870900989,-0.012718211859464645,-0.017223145812749863,-0.01320704910904169,-0.100955069065094,0.05672767385840416,-0.007309343665838242,-0.07629577815532684,-0.044536042958498,0.01357491035014391,-0.1857483685016632,0.2556963264942169,-0.007869473658502102,-0.024709124118089676,-0.07476623356342316,-0.018633248284459114,-0.28676876425743103,0.06606484204530716,0.0008401270606555045
-0.019518492743372917,-0.004175400361418724,0.3361772298812866,0.2738851010799408,-0.03146136924624443,0.012155542150139809,0.9611708521842957,0.004040967673063278,0.012535052374005318,0.0034666741266846657,-0.11579066514968872,0.07178740948438644,-0.009167453274130821,-0.15738321840763092,0.0833110585808754,-0.10337226092815399,0.19682413339614868,0.6998089551925659,0.7398338913917542,1.0013757944107056,0.9749341607093811,-1.7147274017333984,-1.6464651823043823,-1.4377543926239014,-1.49220871925354,-0.01978786662220955,-0.019114360213279724,0.1594117283821106,0.1414799690246582,-0.05703391879796982,-0.008466929197311401,-0.1311710625886917,0.011357243172824383,0.0014921888941898942,0.010636740364134312,0.015742409974336624,0.08236800134181976,-0.2566685080528259,0.025866832584142685,0.03460712730884552,-0.12603804469108582,0.1981523483991623,0.02596665918827057,0.17942450940608978,-0.2588958740234375,0.040465615689754486,0.26422932744026184,-0.08758562058210373,0.03668726235628128,-0.02737470716238022,-0.006844060029834509,0.017114445567131042,-0.07055589556694031,0.10834699869155884,0.0005101066781207919,-0.013954086229205132,-0.01655508764088154,-0.012636627070605755,-0.10073161870241165,0.05990838631987572,-0.007690743077546358,-0.0764971673488617,-0.04505600780248642,0.013484056107699871,-0.19107529520988464,0.2536331117153168,-0.008690457791090012,-0.025790423154830933,-0.07393815368413925,-0.018218714743852615,-0.2852153182029724,0.06881391257047653,0.00018442094733472914
-0.01948454976081848,-0.00407110620290041,0.3362056314945221,0.2733430862426758,-0.031537629663944244,0.012123186141252518,0.961323082447052,0.0037911247927695513,0.013022160157561302,0.004325726069509983,-0.11761575192213058,0.07273591309785843,-0.009322918020188808,-0.157548189163208,0.08315229415893555,-0.10204324126243591,0.19800420105457306,0.6993328332901001,0.739762544631958,1.0002820491790771,0.9750292301177979,-1.7147142887115479,-1.6463769674301147,-1.4376227855682373,-1.4915215969085693,-0.024585692211985588,-0.023067686706781387,0.15831147134304047,0.14100053906440735,-0.056160613894462585,-0.011939016170799732,-0.14140798151493073,0.010756168514490128,0.0042629302479326725,0.015632472932338715,0.02803187444806099,0.08845282346010208,-0.25671282410621643,0.025806479156017303,0.03460250422358513,-0.1261720359325409,0.19817686080932617,0.025975301861763,0.17930971086025238,-0.2587549388408661,0.040481746196746826,0.26433393359184265,-0.08757960796356201,0.03666549175977707,-0.026640549302101135,-0.0059558795765042305,0.017426801845431328,-0.0702168270945549,0.1037447601556778,0.00014382552762981504,-0.014156019315123558,-0.015503037720918655,-0.012521984986960888,-0.09999476373195648,0.05751335993409157,-0.007442913483828306,-0.07732832431793213,-0.044407088309526443,0.012586894445121288,-0.1932188868522644,0.2521817088127136,-0.009132982231676579,-0.0254418533295393,-0.07457318902015686,-0.017988653853535652,-0.28951385617256165,0.06481461226940155,0.0012542164186015725
-0.019452420994639397,-0.003962851129472256,0.3362419903278351,0.2727922797203064,-0.0316186361014843,0.01210609171539545,0.9614769816398621,0.004088659770786762,0.013299837708473206,0.00522343534976244,-0.11869770288467407,0.0732174664735794,-0.00942208617925644,-0.157753124833107,0.08295963704586029,-0.10072170197963715,0.19918039441108704,0.698864221572876,0.7396634221076965,0.9991019368171692,0.9751187562942505,-1.714679479598999,-1.646246314048767,-1.4373886585235596,-1.4907840490341187,-0.028791913762688637,-0.024202313274145126,0.16082048416137695,0.14289885759353638,-0.05830448493361473,-0.014728361740708351,-0.17080554366111755,0.0015377597883343697,0.003689441829919815,0.011930110864341259,0.052741773426532745,0.09080441296100616,-0.25674867630004883,0.025743842124938965,0.034598782658576965,-0.12630781531333923,0.19820238649845123,0.02598114311695099,0.17919468879699707,-0.25861072540283203,0.040497176349163055,0.2644457221031189,-0.08757874369621277,0.03665021061897278,-0.026440858840942383,-0.004648654721677303,0.018367620185017586,-0.06637869030237198,0.10437753051519394,0.0007538183708675206,-0.014927190728485584,-0.014502044767141342,-0.011092513799667358,-0.0966683179140091,0.06290363520383835,-0.008038858883082867,-0.08076327294111252,-0.04274308681488037,0.008830226957798004,-0.19419650733470917,0.25788506865501404,-0.009126309305429459,-0.02762339822947979,-0.07413801550865173,-0.018159614875912666,-0.28858453035354614,0.07179037481546402,-0.0002791915612760931
-0.01941833831369877,-0.003851730842143297,0.3362852931022644,0.272238165140152,-0.0317193828523159,0.012109003029763699,0.9616307020187378,0.004231431055814028,0.013263582251966,0.005697819869965315,-0.11811980605125427,0.07267346233129501,-0.009396331384778023,-0.15799371898174286,0.08275774121284485,-0.09938052296638489,0.2003730833530426,0.6983774900436401,0.7395407557487488,0.9976767897605896,0.9751312136650085,-1.7146484851837158,-1.64614737033844,-1.4369491338729858,-1.4900259971618652,-0.029568204656243324,-0.0233556367456913,0.152425155043602,0.13622617721557617,-0.04859060421586037,-0.0182807557284832,-0.17043277621269226,-0.009717501699924469,0.0008494587382301688,0.006442884914577007,0.05306057259440422,0.09650677442550659,-0.2567737400531769,0.0256789680570364,0.03459334746003151,-0.12644250690937042,0.19822345674037933,0.02598670870065689,0.17906132340431213,-0.25846269726753235,0.040497198700904846,0.26454854011535645,-0.08758427202701569,0.036644935607910156,-0.024051927030086517,-0.005588551517575979,0.018964305520057678,-0.06868118792772293,0.09766365587711334,-0.00018718274077400565,-0.016258422285318375,-0.013556904159486294,-0.00971211213618517,-0.09203387796878815,0.07046825438737869,-0.008864839561283588,-0.07892048358917236,-0.040551137179136276,0.008835958316922188,-0.18703749775886536,0.25228312611579895,-0.00878438912332058,-0.028263546526432037,-0.07127497345209122,-0.018818601965904236,-0.2794170677661896,0.07217469811439514,-0.0008587915217503905
-0.019383249804377556,-0.0037408056668937206,0.3363332450389862,0.27169129252433777,-0.03183356299996376,0.01213094498962164,0.9617813229560852,0.004256274551153183,0.012855060398578644,0.005600279197096825,-0.11562630534172058,0.07095831632614136,-0.009222680702805519,-0.158240407705307,0.08256296813488007,-0.09810884296894073,0.20150971412658691,0.6979728937149048,0.7393882274627686,0.9962550401687622,0.9750500321388245,-1.7146412134170532,-1.6460930109024048,-1.4365066289901733,-1.4892206192016602,-0.02821168676018715,-0.022247957065701485,0.14351056516170502,0.12764446437358856,-0.03509742021560669,-0.01687653549015522,-0.1782119870185852,-0.012380517087876797,-0.0024989137891680002,0.0022525801323354244,0.060717761516571045,0.0997350886464119,-0.25677490234375,0.025595592334866524,0.034589365124702454,-0.12658128142356873,0.1982390284538269,0.025993160903453827,0.17894238233566284,-0.2583142817020416,0.04051239788532257,0.26464810967445374,-0.0875847339630127,0.03664223104715347,-0.020915165543556213,-0.007386570796370506,0.018869662657380104,-0.07252887636423111,0.08811156451702118,-0.001622627256438136,-0.016056902706623077,-0.013359420001506805,-0.008887160569429398,-0.08901412785053253,0.07171761244535446,-0.009004902094602585,-0.07752153277397156,-0.03736688196659088,0.006518923677504063,-0.17708876729011536,0.2459481656551361,-0.008180265314877033,-0.026476044207811356,-0.06860772520303726,-0.018827594816684723,-0.26991814374923706,0.0653526782989502,7.972479943418875e-05
-0.019347459077835083,-0.003633888904005289,0.3363795876502991,0.27116072177886963,-0.031968750059604645,0.012171183712780476,0.9619259834289551,0.0037797142285853624,0.012376602739095688,0.006327340379357338,-0.11173073202371597,0.06839814782142639,-0.008942641317844391,-0.15847520530223846,0.08237741887569427,-0.09691213071346283,0.20257450640201569,0.6976795792579651,0.7392474412918091,0.994768500328064,0.9749472141265869,-1.7146624326705933,-1.6460744142532349,-1.436000108718872,-1.488389253616333,-0.02720426581799984,-0.020682772621512413,0.13713432848453522,0.12437225878238678,-0.037201158702373505,-0.01832336187362671,-0.18268948793411255,-0.014239505864679813,0.0010118357604369521,0.0010360435117036104,0.06770658493041992,0.09845277667045593,-0.2567431330680847,0.025485366582870483,0.03457773104310036,-0.1267050951719284,0.19823890924453735,0.025990262627601624,0.17883121967315674,-0.2581665813922882,0.040527597069740295,0.26476550102233887,-0.08759360760450363,0.036649011075496674,-0.02089797705411911,-0.006885783281177282,0.018634557723999023,-0.07022593915462494,0.08493039757013321,-0.0016093712765723467,-0.016552593559026718,-0.012756198644638062,-0.007534852251410484,-0.08505252003669739,0.07225662469863892,-0.009057926945388317,-0.07607114315032959,-0.0349772572517395,0.0054061575792729855,-0.16923804581165314,0.2378639578819275,-0.007877886295318604,-0.026285259053111076,-0.06658931076526642,-0.017581356689333916,-0.2615869343280792,0.06353752315044403,-8.12988855614094e-06
-0.019316429272294044,-0.003530929796397686,0.3364327549934387,0.27065083384513855,-0.03210529312491417,0.012215734459459782,0.9620645046234131,0.0037728308234363794,0.01196989044547081,0.006480138283222914,-0.10933827608823776,0.06677436828613281,-0.008782035671174526,-0.15870226919651031,0.08220468461513519,-0.09576757252216339,0.20361199975013733,0.6973692178726196,0.7390940189361572,0.9932443499565125,0.9748283624649048,-1.7146538496017456,-1.6460657119750977,-1.4354350566864014,-1.4875675439834595,-0.028898825868964195,-0.019504930824041367,0.131266251206398,0.12068087607622147,-0.032460760325193405,-0.021373827010393143,-0.18644863367080688,-0.018020596355199814,-0.004473752807825804,-0.001897048787213862,0.0733906477689743,0.0954689159989357,-0.2567159831523895,0.025378387421369553,0.03456805273890495,-0.12683065235614777,0.19823643565177917,0.02599327266216278,0.17871376872062683,-0.25802016258239746,0.040540359914302826,0.26487407088279724,-0.08761058747768402,0.0366644412279129,-0.01970786787569523,-0.006655882112681866,0.019227253273129463,-0.06603361666202545,0.08310254663228989,-0.0012058973079547286,-0.01737111248075962,-0.012035463936626911,-0.006657077930867672,-0.08052971959114075,0.07634162902832031,-0.009496535174548626,-0.07459141314029694,-0.03310007601976395,0.0041219317354261875,-0.16300389170646667,0.2314913421869278,-0.007663162425160408,-0.02661217749118805,-0.06438179314136505,-0.017064107581973076,-0.25251293182373047,0.06545288115739822,-0.0009466974879615009
-0.0192852895706892,-0.0034309253096580505,0.3364868760108948,0.2701556980609894,-0.03224951773881912,0.012269747443497181,0.9621981382369995,0.003989412449300289,0.011701946146786213,0.0067504337057471275,-0.10849494487047195,0.06610609591007233,-0.008747624233365059,-0.1589432805776596,0.08204159140586853,-0.09467257559299469,0.20461784303188324,0.6970987319946289,0.7389162182807922,0.9916888475418091,0.9746780395507812,-1.714690923690796,-1.6460814476013184,-1.4348223209381104,-1.4867712259292603,-0.02625574916601181,-0.017193464562296867,0.1331268846988678,0.11785122752189636,-0.028323259204626083,-0.020203707739710808,-0.19054928421974182,-0.016026640310883522,-0.002276294631883502,-0.00318467547185719,0.07594966143369675,0.09201966971158981,-0.2566785216331482,0.02526903711259365,0.0345626138150692,-0.12695671617984772,0.19823099672794342,0.02599506825208664,0.17859973013401031,-0.257876455783844,0.040551990270614624,0.2649766504764557,-0.08762971311807632,0.036686502397060394,-0.01845473237335682,-0.007999229244887829,0.019046179950237274,-0.07066309452056885,0.07847009599208832,-0.0022994354367256165,-0.017176169902086258,-0.012713506817817688,-0.006229545921087265,-0.08160383254289627,0.077002614736557,-0.009622915647923946,-0.07513535767793655,-0.033266909420490265,0.0038824197836220264,-0.16311082243919373,0.2330552637577057,-0.007790598552674055,-0.025701791048049927,-0.06353314220905304,-0.016034970059990883,-0.2484969198703766,0.0643916055560112,-0.0009780438849702477
-0.0192519910633564,-0.0033329781144857407,0.33654284477233887,0.26966527104377747,-0.032394882291555405,0.012323122471570969,0.962330162525177,0.004532059654593468,0.01143895648419857,0.006472509354352951,-0.10845255851745605,0.06592878699302673,-0.008777778595685959,-0.15916280448436737,0.08189892023801804,-0.09356263279914856,0.20560123026371002,0.6968629956245422,0.7387475967407227,0.9900991916656494,0.9745442867279053,-1.7147098779678345,-1.6461085081100464,-1.434188723564148,-1.4860033988952637,-0.028901945799589157,-0.015988342463970184,0.13257122039794922,0.1184997484087944,-0.02250959351658821,-0.019112849608063698,-0.1947503536939621,-0.012534784153103828,-0.006238311529159546,-0.005842194426804781,0.08234969526529312,0.08480709046125412,-0.2566303610801697,0.02514941245317459,0.03455560654401779,-0.1270798146724701,0.19821889698505402,0.025998830795288086,0.17847812175750732,-0.25773757696151733,0.040562137961387634,0.26508545875549316,-0.08764660358428955,0.036716386675834656,-0.01655026525259018,-0.008253388106822968,0.0191445741802454,-0.0693138912320137,0.07538672536611557,-0.0024156225845217705,-0.016800573095679283,-0.01321117952466011,-0.006165560334920883,-0.08178092539310455,0.07880587130784988,-0.009866603650152683,-0.07446880638599396,-0.033382173627614975,0.0027328277938067913,-0.16387778520584106,0.23066091537475586,-0.00814770720899105,-0.025365794077515602,-0.06364768743515015,-0.01526087149977684,-0.24706783890724182,0.0675061047077179,-0.0017924533458426595
-0.01921384036540985,-0.0032378220930695534,0.3365967869758606,0.2691763937473297,-0.03254377096891403,0.012382129207253456,0.9624612927436829,0.004749790765345097,0.011531236581504345,0.006199261173605919,-0.10946226119995117,0.06639034301042557,-0.008894627913832664,-0.1594041883945465,0.08176515251398087,-0.09245669841766357,0.20659001171588898,0.6966744661331177,0.7385879755020142,0.9884749054908752,0.9744394421577454,-1.7147618532180786,-1.646156668663025,-1.433502197265625,-1.4852962493896484,-0.02705424092710018,-0.015166106633841991,0.1342560052871704,0.11808992922306061,-0.0209345780313015,-0.019897256046533585,-0.19348202645778656,-0.005729964002966881,-0.0042031859047710896,-0.005962246097624302,0.08615151792764664,0.0788857489824295,-0.25656524300575256,0.02502424642443657,0.034548573195934296,-0.1271975338459015,0.1981983780860901,0.026000231504440308,0.17836204171180725,-0.2576051652431488,0.04056679457426071,0.26519784331321716,-0.087669737637043,0.03675471991300583,-0.01613873988389969,-0.009192019701004028,0.018684396520256996,-0.07372932136058807,0.073774054646492,-0.003195773344486952,-0.017042536288499832,-0.013502316549420357,-0.006605044938623905,-0.08303285390138626,0.08048737049102783,-0.010113134048879147,-0.07377307862043381,-0.03471048176288605,0.002670911606401205,-0.16907206177711487,0.2276081144809723,-0.008989572525024414,-0.024303197860717773,-0.06407378613948822,-0.014356698840856552,-0.24818632006645203,0.06690075993537903,-0.0016577736241742969
-0.019173797219991684,-0.00314177293330431,0.3366486430168152,0.2686816155910492,-0.03268752619624138,0.012440021149814129,0.9625938534736633,0.004791421350091696,0.011352598667144775,0.00576587300747633,-0.10913077741861343,0.06603585928678513,-0.008901258930563927,-0.15962938964366913,0.08163866400718689,-0.0913364440202713,0.20757561922073364,0.6965002417564392,0.7384217977523804,0.9868609309196472,0.9743924736976624,-1.7147971391677856,-1.6462066173553467,-1.4327831268310547,-1.4846378564834595,-0.02474544569849968,-0.013862564228475094,0.13582254946231842,0.12096008658409119,-0.014494040049612522,-0.01773003488779068,-0.18665680289268494,-0.003093716921284795,-0.002681981772184372,-0.005455036647617817,0.08376714587211609,0.06996098905801773,-0.25649818778038025,0.024891773238778114,0.0345395989716053,-0.12732169032096863,0.19817818701267242,0.02600140869617462,0.1782536506652832,-0.2574775815010071,0.040566518902778625,0.26531916856765747,-0.08768898993730545,0.036798104643821716,-0.014621966518461704,-0.010791026055812836,0.017900120466947556,-0.07937915623188019,0.0678735002875328,-0.004563393071293831,-0.01650547794997692,-0.014292612671852112,-0.007166830822825432,-0.08522134274244308,0.07856245338916779,-0.009969815611839294,-0.07262115925550461,-0.03617974370718002,0.003336773719638586,-0.1724984496831894,0.22420673072338104,-0.009649083949625492,-0.02526283636689186,-0.06428822875022888,-0.01370435394346714,-0.2470419555902481,0.07311312109231949,-0.0031572722364217043
-0.019133811816573143,-0.0030469512566924095,0.3366965353488922,0.2681860327720642,-0.03282402828335762,0.012494923546910286,0.9627267718315125,0.004749604035168886,0.01071267481893301,0.005340016447007656,-0.1059594675898552,0.06396786123514175,-0.008673199452459812,-0.15983587503433228,0.08152326196432114,-0.09020309895277023,0.20858441293239594,0.6963797807693481,0.7382738590240479,0.9853037595748901,0.9743665456771851,-1.714819312095642,-1.6462522745132446,-1.4320846796035767,-1.4840543270111084,-0.02343442291021347,-0.014292131178081036,0.12574490904808044,0.1140560507774353,-0.009168761782348156,-0.01339032407850027,-0.16718962788581848,0.0014665331691503525,-0.0030997779686003923,-0.004753184039145708,0.06754404306411743,0.0649995282292366,-0.25642305612564087,0.024748122319579124,0.03452732041478157,-0.12744665145874023,0.19815324246883392,0.026000313460826874,0.17815019190311432,-0.2573595345020294,0.04056660830974579,0.26542729139328003,-0.08770662546157837,0.03684157878160477,-0.013035088777542114,-0.01158624142408371,0.017103388905525208,-0.07979243248701096,0.06233345344662666,-0.005165416281670332,-0.014758046716451645,-0.014604106545448303,-0.007254141382873058,-0.0843178927898407,0.0720142275094986,-0.009264647960662842,-0.06820026785135269,-0.0348399356007576,0.0052484553307294846,-0.16252529621124268,0.2141047567129135,-0.009149512276053429,-0.023069486021995544,-0.06212382763624191,-0.01269662193953991,-0.23777185380458832,0.06769260764122009,-0.002496980130672455
-0.019094765186309814,-0.0029574260115623474,0.3367413282394409,0.2677037715911865,-0.03294822946190834,0.012546801939606667,0.9628560543060303,0.004604208283126354,0.00954754650592804,0.004848297219723463,-0.09985853731632233,0.06014822795987129,-0.008199806325137615,-0.16003146767616272,0.08140353858470917,-0.08915390819311142,0.20953583717346191,0.6963033676147461,0.738162636756897,0.983908474445343,0.9743788242340088,-1.7148452997207642,-1.6462918519973755,-1.431520938873291,-1.4835125207901,-0.025923557579517365,-0.013665147125720978,0.12121890485286713,0.11026348918676376,-0.009291990660130978,-0.015252691693603992,-0.16400769352912903,0.005918343085795641,-0.004438800271600485,-0.0037476494908332825,0.0755942165851593,0.05490652471780777,-0.25634604692459106,0.024601221084594727,0.0345175564289093,-0.12756313383579254,0.198124960064888,0.026000328361988068,0.17806410789489746,-0.25724005699157715,0.04057852178812027,0.26553940773010254,-0.08771838247776031,0.03688405454158783,-0.011887645348906517,-0.010381001979112625,0.01599877141416073,-0.0708317682147026,0.05850518122315407,-0.004286679904907942,-0.01428057998418808,-0.013928081840276718,-0.007105520460754633,-0.07831576466560364,0.06926742941141129,-0.00890559796243906,-0.06418303400278091,-0.034276627004146576,0.003430071286857128,-0.15841571986675262,0.1982804536819458,-0.009427176788449287,-0.021769175305962563,-0.05977459251880646,-0.01115797646343708,-0.22551606595516205,0.06648063659667969,-0.002928196918219328
-0.01905590295791626,-0.002878038678318262,0.3367820382118225,0.26724672317504883,-0.03305647894740105,0.012595855630934238,0.9629786610603333,0.00429682619869709,0.008034900762140751,0.004195403307676315,-0.09070802479982376,0.0545191615819931,-0.007468824274837971,-0.16024811565876007,0.08128948509693146,-0.08814269304275513,0.2104557603597641,0.6962259411811829,0.7380345463752747,0.9825407862663269,0.9744282960891724,-1.714882493019104,-1.6463234424591064,-1.4308903217315674,-1.4830540418624878,-0.02269243635237217,-0.015354637056589127,0.10913980007171631,0.09987906366586685,-0.0022806033957749605,-0.011070064269006252,-0.14980323612689972,0.0070769512094557285,-0.0008105069864541292,-0.0010746822226792574,0.07285412400960922,0.04437868669629097,-0.2562744915485382,0.024466950446367264,0.03451170027256012,-0.1276821792125702,0.19809722900390625,0.02600070834159851,0.17798082530498505,-0.25713756680488586,0.040572650730609894,0.26564085483551025,-0.08773742616176605,0.03692512959241867,-0.008912343531847,-0.011248892173171043,0.013656017370522022,-0.06976152211427689,0.0454934686422348,-0.005399446468800306,-0.011435111984610558,-0.013159332796931267,-0.006831725127995014,-0.07128367573022842,0.05695923790335655,-0.007451352197676897,-0.057516682893037796,-0.03184083104133606,0.002511736936867237,-0.14488902688026428,0.17656435072422028,-0.00890045240521431,-0.019947288557887077,-0.05447009205818176,-0.009615961462259293,-0.20265597105026245,0.06317850202322006,-0.00344598270021379
-0.01901997998356819,-0.002810855396091938,0.33681678771972656,0.26683178544044495,-0.033149268478155136,0.012644016183912754,0.9630898237228394,0.004129492677748203,0.00623632175847888,0.0035489043220877647,-0.08058252185583115,0.048338714987039566,-0.006650721654295921,-0.16043666005134583,0.08116159588098526,-0.08723288774490356,0.21128898859024048,0.6962065696716309,0.7379424571990967,0.9812915325164795,0.9744869470596313,-1.714889407157898,-1.6463322639465332,-1.4302830696105957,-1.48268461227417,-0.017552681267261505,-0.013077761977910995,0.09646426141262054,0.09005991369485855,-0.0028155329637229443,-0.009110135026276112,-0.13334549963474274,0.01209964882582426,0.0028027293737977743,-0.0025149229913949966,0.06254877150058746,0.03225432336330414,-0.2561981678009033,0.024329204112291336,0.034501709043979645,-0.12778140604496002,0.19806678593158722,0.025997884571552277,0.17790743708610535,-0.25705134868621826,0.040559858083724976,0.265727162361145,-0.08775683492422104,0.0369628444314003,-0.007742500398308039,-0.011561340652406216,0.011499432846903801,-0.06556149572134018,0.03934286907315254,-0.00540956249460578,-0.009904400445520878,-0.012712299823760986,-0.006039544939994812,-0.0633770078420639,0.0515216700732708,-0.00674475496634841,-0.05115333944559097,-0.02885570377111435,0.0022312842775136232,-0.1271427571773529,0.15855850279331207,-0.007778584957122803,-0.017136313021183014,-0.04964370280504227,-0.0075266482308506966,-0.180477112531662,0.057763781398534775,-0.0034413710236549377
-0.018986063078045845,-0.0027586445212364197,0.336846262216568,0.26646021008491516,-0.03322099894285202,0.012678360566496849,0.9631897807121277,0.0038316084537655115,0.004609209951013327,0.0024831299670040607,-0.0711161345243454,0.04258548095822334,-0.005879553034901619,-0.16058330237865448,0.08105305582284927,-0.08642813563346863,0.21203969419002533,0.6961833238601685,0.7378664612770081,0.980178713798523,0.9745879173278809,-1.714866280555725,-1.6463536024093628,-1.4297611713409424,-1.4824153184890747,-0.01828395016491413,-0.01370998565107584,0.08153793215751648,0.07380854338407516,0.0008092330535873771,-0.008677731268107891,-0.11605465412139893,0.011848222464323044,-0.0028733359649777412,-0.0032264203764498234,0.05972396954894066,0.021016782149672508,-0.2561345100402832,0.024198822677135468,0.03449216112494469,-0.1278747320175171,0.19803717732429504,0.02600192278623581,0.17783747613430023,-0.25697168707847595,0.04053962230682373,0.2658037543296814,-0.0877760648727417,0.03699812293052673,-0.006058473140001297,-0.010652165859937668,0.010180911049246788,-0.054440196603536606,0.034977126866579056,-0.004270399920642376,-0.008486758917570114,-0.011375412344932556,-0.005663430318236351,-0.05322771146893501,0.045695431530475616,-0.005950625520199537,-0.0431579053401947,-0.026125792413949966,0.000940282188821584,-0.11231978237628937,0.13270850479602814,-0.007175492122769356,-0.014811363071203232,-0.04244178533554077,-0.006328236777335405,-0.15119566023349762,0.053144633769989014,-0.003986752592027187
-0.018954215571284294,-0.0027205245569348335,0.3368668556213379,0.2661338150501251,-0.033285874873399734,0.012717332690954208,0.9632772207260132,0.0034514914732426405,0.0027333793696016073,0.0015801163390278816,-0.05953473970293999,0.03559545427560806,-0.004930070135742426,-0.1607358157634735,0.08093810826539993,-0.08574822545051575,0.2126556932926178,0.6961897015571594,0.7377944588661194,0.979211151599884,0.9746866226196289,-1.7148897647857666,-1.6463804244995117,-1.4292625188827515,-1.4822406768798828,-0.015370757319033146,-0.013535660691559315,0.055547621101140976,0.05731963738799095,0.0033982321619987488,-0.0032607195898890495,-0.08663121610879898,0.01326875202357769,-0.00715886615216732,-0.004662470426410437,0.03440842777490616,0.011606120504438877,-0.2560718357563019,0.024075327441096306,0.034483734518289566,-0.12795424461364746,0.19800414144992828,0.02599918842315674,0.17779149115085602,-0.2569134533405304,0.040517158806324005,0.2658730745315552,-0.0877884179353714,0.03703267127275467,-0.004722601268440485,-0.010207668878138065,0.00876191258430481,-0.044503454118967056,0.030938077718019485,-0.0032651841174811125,-0.005777289159595966,-0.010554764419794083,-0.00480131059885025,-0.043853942304849625,0.03541586548089981,-0.004662977997213602,-0.03376312553882599,-0.019813045859336853,0.0017669934313744307,-0.08062582463026047,0.10886137187480927,-0.00475999154150486,-0.011434532701969147,-0.03519490361213684,-0.004809711594134569,-0.12139608711004257,0.04429515451192856,-0.0035922005772590637
-0.018925560638308525,-0.0026975618675351143,0.3368804156780243,0.2658591866493225,-0.03333219885826111,0.01275494322180748,0.9633510112762451,0.0027267574332654476,0.0007387105724774301,0.0007993754115886986,-0.04736072197556496,0.02827993407845497,-0.003926557023078203,-0.1608644425868988,0.0808255597949028,-0.08528522402048111,0.21313327550888062,0.6962183713912964,0.7377674579620361,0.9784880876541138,0.9747973680496216,-1.7149500846862793,-1.6464192867279053,-1.4289754629135132,-1.4821438789367676,-0.017760273069143295,-0.013981458730995655,0.04421989247202873,0.04514705389738083,0.004422213416546583,-0.004733244422823191,-0.07294189929962158,0.01797543093562126,-0.002141664270311594,-0.0042599099688231945,0.03779805451631546,-1.2337521184235811e-05,-0.2560219168663025,0.023959308862686157,0.03448355942964554,-0.12801605463027954,0.1979663074016571,0.025997832417488098,0.17776760458946228,-0.256848007440567,0.04050464183092117,0.26593416929244995,-0.08779623359441757,0.0370614230632782,-0.0020920163951814175,-0.008579990826547146,0.005572915077209473,-0.033284563571214676,0.01725006476044655,-0.0030144446063786745,-0.004724585916846991,-0.008638616651296616,-0.00395617913454771,-0.030745916068553925,0.028793103992938995,-0.003719477914273739,-0.02610977552831173,-0.017564017325639725,-0.0002736588357947767,-0.06743715703487396,0.0810745358467102,-0.004320251289755106,-0.008476143702864647,-0.02925879880785942,-0.002755560912191868,-0.09525160491466522,0.03645892068743706,-0.0032219241838902235
-0.018902728334069252,-0.0026916367933154106,0.3368871808052063,0.2656407952308655,-0.03336569666862488,0.012785526923835278,0.9634096622467041,0.0023009171709418297,-0.0013778755674138665,0.00025176326744258404,-0.03390970453619957,0.02022717148065567,-0.0028137529734522104,-0.16101223230361938,0.0807083398103714,-0.08491639792919159,0.21351036429405212,0.6962546706199646,0.7377279996871948,0.9778800010681152,0.9749470353126526,-1.7149673700332642,-1.646454930305481,-1.42866051197052,-1.4821439981460571,-0.011749804019927979,-0.01083657518029213,0.022954249754548073,0.024656062945723534,0.0014466634020209312,-0.0017721143085509539,-0.04634587839245796,0.017287984490394592,-0.004308502655476332,-0.005419266410171986,0.0163283534348011,-0.004939661826938391,-0.25597047805786133,0.023863088339567184,0.03447309508919716,-0.12806810438632965,0.197934091091156,0.025996290147304535,0.17775285243988037,-0.25681135058403015,0.04047901928424835,0.26598554849624634,-0.08781352639198303,0.0370907336473465,-0.0020412523299455643,-0.007940292358398438,0.004234371706843376,-0.022422419860959053,0.016667822375893593,-0.001540433382615447,-0.002779346890747547,-0.007919731549918652,-0.0027280377689749002,-0.020918304100632668,0.020819256082177162,-0.0026712778490036726,-0.017241716384887695,-0.012069759890437126,0.0003429377684369683,-0.0383853055536747,0.057742856442928314,-0.002112629124894738,-0.004053317941725254,-0.020781472325325012,-0.0012402277207002044,-0.06136876344680786,0.022576143965125084,-0.0018731653690338135
-0.01888309232890606,-0.0027026180177927017,0.3368895649909973,0.26548388600349426,-0.03337594494223595,0.01280942838639021,0.9634522795677185,0.0017197431297972798,-0.0030135600827634335,-0.0008088021422736347,-0.02357742376625538,0.014053494669497013,-0.0019568856805562973,-0.16111013293266296,0.08061794191598892,-0.08472439646720886,0.21371594071388245,0.6962668895721436,0.7377132773399353,0.9774937629699707,0.975091814994812,-1.7150037288665771,-1.6465001106262207,-1.4285246133804321,-1.4821852445602417,-0.011173133738338947,-0.01294987928122282,0.011584863066673279,0.015728535130620003,0.005302181001752615,0.0007293767994269729,-0.03430471569299698,0.02156028524041176,-0.0011022863909602165,-0.0017011456657201052,0.02026640623807907,-0.018925730139017105,-0.2559463083744049,0.023780647665262222,0.034474801272153854,-0.12810902297496796,0.19789813458919525,0.025999903678894043,0.17774689197540283,-0.25677910447120667,0.04045908898115158,0.2660317122936249,-0.08782252669334412,0.03711000829935074,0.00042155053233727813,-0.0075028035789728165,0.0013745140749961138,-0.0160896684974432,0.004758947994560003,-0.0018054668325930834,-0.00028994621243327856,-0.006643522996455431,-0.002836518455296755,-0.01198102068156004,0.00826833862811327,-0.0011207722127437592,-0.010127305053174496,-0.009782429784536362,-0.001971693942323327,-0.026404088363051414,0.032031912356615067,-0.0016931716818362474,-0.0023161692079156637,-0.015617498196661472,0.00043363627628423274,-0.03840517997741699,0.019899016246199608,-0.0025001363828778267
-0.01886921003460884,-0.0027283690869808197,0.33688226342201233,0.26537537574768066,-0.033373214304447174,0.012831181287765503,0.9634819626808167,0.00134840898681432,-0.00446575740352273,-0.0013963548699393868,-0.01596539095044136,0.009511376731097698,-0.0013250235933810472,-0.16120308637619019,0.08051074296236038,-0.08462860435247421,0.2138468325138092,0.6963114142417908,0.7377192378044128,0.9772078990936279,0.9752715229988098,-1.715012788772583,-1.6465142965316772,-1.4283552169799805,-1.4823431968688965,-0.008398198522627354,-0.01019864808768034,7.975858170539141e-05,0.003034735331311822,0.0069641536101698875,0.00257226568646729,-0.012312611564993858,0.01892707496881485,0.0006025650072842836,-0.00029761239420622587,0.0071464236825704575,-0.02080516703426838,-0.2559211850166321,0.02370474487543106,0.03446686640381813,-0.1281309425830841,0.19786129891872406,0.025995321571826935,0.17775078117847443,-0.25677070021629333,0.040422774851322174,0.26606032252311707,-0.08784107118844986,0.037127651274204254,0.0015746522694826126,-0.00781476590782404,-0.0002747038088273257,-0.012524552643299103,-0.0012417624238878489,-0.0018867750186473131,0.0008117257966659963,-0.006941487081348896,-0.0028127124533057213,-0.008397800847887993,0.0023654098622500896,-0.00040133800939656794,-0.003705258946865797,-0.008089262992143631,-0.0010652105556800961,-0.013422065414488316,0.013991585932672024,-0.0009312256588600576,-0.00023144675651565194,-0.010563967749476433,0.0007455534068867564,-0.017602914944291115,0.012619941495358944,-0.0019512708531692624
-0.018857600167393684,-0.002765210345387459,0.33687102794647217,0.2653089463710785,-0.03334439918398857,0.012847937643527985,0.9635010361671448,0.0006681567174382508,-0.00590774929150939,-0.0018901795847341418,-0.013182297348976135,0.007850849069654942,-0.0010932260192930698,-0.16127397119998932,0.08042529225349426,-0.08462794870138168,0.21387173235416412,0.6963695287704468,0.7377409338951111,0.9771052598953247,0.9754295945167542,-1.7150076627731323,-1.6465165615081787,-1.4282954931259155,-1.4825170040130615,-0.022933365777134895,-0.018889304250478745,-0.009697898291051388,-0.0030009790789335966,0.017833152785897255,0.0072294240817427635,-0.001350756618194282,0.04080036282539368,0.002571210963651538,0.004642465617507696,0.008792034350335598,-0.050829339772462845,-0.25590822100639343,0.02363855205476284,0.03446512296795845,-0.12814997136592865,0.19782191514968872,0.025993406772613525,0.1777607947587967,-0.2567763328552246,0.04038809984922409,0.26607459783554077,-0.08785383403301239,0.037128105759620667,0.00642714137211442,-0.006491282023489475,-0.002446369268000126,-0.003653881838545203,-0.02129102312028408,-0.0025891039986163378,0.003591515589505434,-0.006448634900152683,-0.003120832610875368,-0.0031090069096535444,-0.011913362890481949,0.0012842095457017422,0.0008996940450742841,-0.007959073409438133,-0.0016085493844002485,-0.008632183074951172,-0.0034939837642014027,-0.000978972646407783,0.001758629223331809,-0.008966058492660522,0.00529816746711731,-0.005469296593219042,0.014646362513303757,-0.0030723395757377148
-0.018851593136787415,-0.0028141457587480545,0.33685502409935,0.26527947187423706,-0.03328903764486313,0.012846116907894611,0.963511049747467,0.0006970736430957913,-0.007369207683950663,-0.0035806014202535152,-0.016150683164596558,0.00961732491850853,-0.0013373076217249036,-0.16146479547023773,0.08026750385761261,-0.08470828086137772,0.21384680271148682,0.6965181827545166,0.7378010153770447,0.977094292640686,0.9757700562477112,-1.7149863243103027,-1.6464780569076538,-1.4282230138778687,-1.482940673828125,-0.01736873760819435,-0.015209158882498741,-0.02090609259903431,-0.013445701450109482,0.027636254206299782,0.009385503828525543,0.026528451591730118,0.045878320932388306,0.005609967280179262,0.007260891608893871,-0.009310062043368816,-0.061399150639772415,-0.25586917996406555,0.02361004799604416,0.03445805609226227,-0.1281469166278839,0.19780415296554565,0.02600008249282837,0.17777366936206818,-0.2567874789237976,0.04033065587282181,0.2660827934741974,-0.08786667138338089,0.03714819252490997,0.007844493724405766,-0.011589700356125832,-0.0042661018669605255,-0.017761049792170525,-0.027657944709062576,-0.005203189793974161,0.0034237299114465714,-0.010281488299369812,-0.005891925655305386,-0.01168881170451641,-0.012339908629655838,0.0011910198954865336,0.006270278245210648,-0.010080000385642052,0.0006726657156832516,-0.00693500554189086,-0.015850020572543144,-0.001185113680548966,0.0026546409353613853,-0.007955685257911682,0.005025798454880714,0.0033281161449849606,0.015643218532204628,-0.003776168916374445
-0.018845928832888603,-0.002875902224332094,0.33682531118392944,0.2652890384197235,-0.03321291506290436,0.01283213309943676,0.9635112881660461,0.00010632145858835429,-0.008571303449571133,-0.004772673361003399,-0.026997176930308342,0.016076816245913506,-0.0022305718157440424,-0.16160942614078522,0.0801408514380455,-0.08488302677869797,0.21373425424098969,0.696749210357666,0.7378793358802795,0.9773156642913818,0.9761534333229065,-1.7149395942687988,-1.646417260169983,-1.4283002614974976,-1.483453392982483,-0.01777818612754345,-0.017427153885364532,-0.035331372171640396,-0.024540945887565613,0.03856442868709564,0.018165186047554016,0.0690731406211853,0.0705854743719101,-0.004009578377008438,0.011862635612487793,-0.039922457188367844,-0.08809978514909744,-0.25582176446914673,0.023575494065880775,0.03444202244281769,-0.12813562154769897,0.19778123497962952,0.025998160243034363,0.17780593037605286,-0.2568140923976898,0.04027321934700012,0.26608628034591675,-0.08787564933300018,0.03715641796588898,0.0069017112255096436,-0.01680821180343628,-0.002860164502635598,-0.028906555846333504,-0.022524936124682426,-0.006275362800806761,0.004069859161973,-0.015839703381061554,-0.009161805734038353,-0.027525950223207474,-0.01842413656413555,0.0016139199724420905,0.011635822243988514,-0.014671568758785725,0.006832007318735123,-0.011448984034359455,-0.02700754813849926,-0.0019874998833984137,0.00432796124368906,-0.009847220033407211,0.007833180949091911,0.003012282308191061,0.018095629289746284,-0.004319982603192329
