Huisouan/isaac-rl-lab/source/vqvae/data/quad_walkrun_001.csv
rootstate0,rootstate1,rootstate2,rootstate3,rootstate4,rootstate5,rootstate6,rootstate7,rootstate8,rootstate9,rootstate10,rootstate11,rootstate12,joint_pos_0,joint_pos_1,joint_pos_2,joint_pos_3,joint_pos_4,joint_pos_5,joint_pos_6,joint_pos_7,joint_pos_8,joint_pos_9,joint_pos_10,joint_pos_11,joint_vel_0,joint_vel_1,joint_vel_2,joint_vel_3,joint_vel_4,joint_vel_5,joint_vel_6,joint_vel_7,joint_vel_8,joint_vel_9,joint_vel_10,joint_vel_11,foot_pos_0_x,foot_pos_0_y,foot_pos_0_z,foot_pos_1_x,foot_pos_1_y,foot_pos_1_z,foot_pos_2_x,foot_pos_2_y,foot_pos_2_z,foot_pos_3_x,foot_pos_3_y,foot_pos_3_z,foot_vel_0_x,foot_vel_0_y,foot_vel_0_z,foot_vel_0_rx,foot_vel_0_ry,foot_vel_0_rz,foot_vel_1_x,foot_vel_1_y,foot_vel_1_z,foot_vel_1_rx,foot_vel_1_ry,foot_vel_1_rz,foot_vel_2_x,foot_vel_2_y,foot_vel_2_z,foot_vel_2_rx,foot_vel_2_ry,foot_vel_2_rz,foot_vel_3_x,foot_vel_3_y,foot_vel_3_z,foot_vel_3_rx,foot_vel_3_ry,foot_vel_3_rz
0.0,0.0,0.35744398832321167,-0.04981301724910736,0.026704009622335434,0.000504000170622021,0.998401403427124,0.0,0.0,0.0,0.0,0.0,0.0,-0.2296070009469986,0.09788099676370621,-0.12663599848747253,0.06657399982213974,0.8502640128135681,0.8535240292549133,0.8748810291290283,0.9601349830627441,-1.7382999658584595,-1.6644550561904907,-1.561607003211975,-1.5271430015563965,-0.006812000181525946,-0.001686000032350421,-0.0012799999676644802,0.0012890000361949205,0.008442999795079231,-0.0030900000128895044,0.002512000035494566,0.0023690001107752323,-0.010747999884188175,0.00368599989451468,-0.003527000080794096,-0.0031799999997019768,-0.2050900161266327,-0.09735014289617538,0.07888537645339966,-0.21308967471122742,0.09325383603572845,0.07335732877254486,0.21411219239234924,-0.08175516873598099,0.03495817631483078,0.22338999807834625,0.14518733322620392,0.037065282464027405,0.0007930373540148139,0.0016622123075649142,0.001433294266462326,0.006573112215846777,0.00291267572902143,0.00016399363812524825,-0.00041185718146152794,0.00040114682633429766,-0.0004523878451436758,0.001737345359288156,-0.0004223341529723257,-3.2807070965645835e-05,0.00016707077156752348,0.00034638127544894814,0.0004612515913322568,0.0011784740490838885,0.0011296278098598123,6.135716830613092e-05,0.00020053787739016116,-0.00034510024124756455,0.0003992662823293358,-0.00136414950247854,0.0006768111488781869,1.6261376003967598e-05
-9.611248970031738e-07,-2.934364601969719e-06,0.3574277460575104,-0.0498170368373394,0.02665792778134346,0.0005070404149591923,0.9984024167060852,-0.1325926035642624,-0.4063476622104645,-2.251152753829956,-1.0392849445343018,12.749170303344727,1.136183738708496,-0.22964762151241302,0.09787813574075699,-0.12662550806999207,0.06660084426403046,0.8503320813179016,0.8534969687461853,0.87488853931427,0.9601461291313171,-1.7383650541305542,-1.664409875869751,-1.561576008796692,-1.527117133140564,2.2679638862609863,1.5427404642105103,2.835859537124634,2.1951751708984375,-0.26321911811828613,-0.13741439580917358,-1.8610366582870483,-1.2288174629211426,3.311971426010132,1.9414628744125366,8.45641040802002,7.30471658706665,-0.20505502820014954,-0.0973447859287262,0.0788586288690567,-0.21306677162647247,0.09324883669614792,0.07331439852714539,0.21414923667907715,-0.08175878971815109,0.03495815396308899,0.2234259396791458,0.1451781988143921,0.037064701318740845,-3.123253107070923,-1.3944218158721924,-0.2917139530181885,-3.03428316116333,9.567105293273926,0.5591319799423218,-3.538548469543457,-1.3738298416137695,-0.32081347703933716,-2.384152889251709,10.809892654418945,1.3914756774902344,-3.2541465759277344,-1.1178134679794312,-6.238316535949707,-3.2503349781036377,5.9540019035339355,0.4448029696941376,-3.378617525100708,-1.0990593433380127,-6.6462531089782715,-2.5957181453704834,6.50001335144043,1.6469683647155762
-0.0011081341654062271,-0.0033886691089719534,0.3386681079864502,-0.05438358709216118,-0.026533184573054314,0.004013072699308395,0.9981594681739807,-0.009438779205083847,0.02298233099281788,0.008291184902191162,-0.22394108772277832,-0.02454000897705555,-0.011850904673337936,-0.21074779331684113,0.11073407530784607,-0.10299211740493774,0.08489476889371872,0.8481379747390747,0.8523522019386292,0.8593775629997253,0.9499064087867737,-1.7107648849487305,-1.6482311487197876,-1.4911049604415894,-1.4662439823150635,0.013890179805457592,0.0050178938545286655,0.19955451786518097,0.1920510083436966,-0.0013938522897660732,-0.05251169949769974,-0.23817062377929688,0.10125574469566345,0.06751629710197449,-0.006569358985871077,0.13787971436977386,0.07001639157533646,-0.17061816155910492,-0.10710059851408005,0.03649745136499405,-0.1809270679950714,0.0837368369102478,0.03016546368598938,0.2550748288631439,-0.08899179100990295,0.033215418457984924,0.2628394663333893,0.1381918042898178,0.03547099232673645,0.006253312341868877,-0.04232873022556305,0.017655249685049057,-0.22998473048210144,-0.09039679169654846,-0.025688258931040764,-0.016873393207788467,-0.04595084488391876,-0.016228387132287025,-0.23493601381778717,0.033250655978918076,-0.019273897632956505,-0.04576902091503143,-0.11346713453531265,0.01867666281759739,-0.4333942234516144,0.052971482276916504,-0.013124986551702023,0.05081116035580635,-0.10248665511608124,-0.02765018679201603,-0.39687010645866394,-0.21499723196029663,-0.005578374024480581
-0.0011861547827720642,-0.0031975090969353914,0.3387371599674225,-0.05531541630625725,-0.026646209880709648,0.004056164529174566,0.9981050491333008,-0.0071258521638810635,0.02263762801885605,0.0073281554505229,-0.22273631393909454,-0.0248301662504673,-0.011836959049105644,-0.21063196659088135,0.1107759103178978,-0.10132773965597153,0.08649726212024689,0.8481273651123047,0.8519137501716614,0.8573910593986511,0.9507509469985962,-1.7102017402648926,-1.6482858657836914,-1.4899542331695557,-1.4656604528427124,0.0012791722547262907,-0.00430684071034193,0.19684745371341705,0.19653983414173126,0.01599746383726597,-0.059234779328107834,-0.2268911451101303,0.13569985330104828,0.05845854803919792,0.0030305765103548765,0.1284661591053009,0.02521236054599285,-0.17035359144210815,-0.10726957768201828,0.03646030277013779,-0.18123039603233337,0.08352761715650558,0.030178293585777283,0.25486990809440613,-0.08891379088163376,0.03322803974151611,0.26299384236335754,0.1383739709854126,0.035493701696395874,0.011814013123512268,-0.038549378514289856,0.017723869532346725,-0.2151467651128769,-0.09741433709859848,-0.026644717901945114,-0.015219842083752155,-0.0434378944337368,-0.018024858087301254,-0.22428466379642487,0.031130364164710045,-0.018431080505251884,-0.041581809520721436,-0.11270103603601456,0.0193711556494236,-0.4294249415397644,0.05076010897755623,-0.01335911825299263,0.0553736612200737,-0.10291428864002228,-0.021339531987905502,-0.40087297558784485,-0.20582756400108337,-0.006551558151841164
-0.0012462213635444641,-0.0030084981117397547,0.3387981951236725,-0.05624369531869888,-0.02672514133155346,0.0041193668730556965,0.9980508089065552,-0.007728551514446735,0.017398448660969734,0.0066601005382835865,-0.18764375150203705,-0.021272704005241394,-0.01000066939741373,-0.21062131226062775,0.11074043065309525,-0.0996866300702095,0.08813628554344177,0.8482605814933777,0.8514195680618286,0.855499804019928,0.9518829584121704,-1.7097142934799194,-1.6482608318328857,-1.4888836145401,-1.4654500484466553,-0.010984321124851704,-0.01964448392391205,0.15110503137111664,0.14824610948562622,0.020424282178282738,-0.05027332156896591,-0.18059861660003662,0.13559509813785553,0.05714091658592224,0.005547514650970697,0.11611951887607574,0.00034334976226091385,-0.17006511986255646,-0.10742021352052689,0.03644033521413803,-0.18154066801071167,0.08332466334104538,0.030183032155036926,0.25467732548713684,-0.08884705603122711,0.03323335200548172,0.2631654739379883,0.13853561878204346,0.03554330766201019,0.011007869616150856,-0.030027341097593307,0.013875001110136509,-0.16737307608127594,-0.09549032896757126,-0.02476070076227188,-0.014662742614746094,-0.03356192260980606,-0.014173675328493118,-0.17286637425422668,0.025080382823944092,-0.014396564103662968,-0.03244520351290703,-0.09150990843772888,0.015685055404901505,-0.34511107206344604,0.025514114648103714,-0.012304296717047691,0.046879835426807404,-0.08220268785953522,-0.012354138307273388,-0.32021158933639526,-0.17243574559688568,-0.004371750634163618
-0.0013103149831295013,-0.0028636057395488024,0.33885419368743896,-0.05702256038784981,-0.02676602452993393,0.004225637763738632,0.9980050921440125,-0.008720112964510918,0.010859157890081406,0.004605858586728573,-0.14452502131462097,-0.01661403477191925,-0.007712847087532282,-0.21071282029151917,0.11057589948177338,-0.09842678159475327,0.08937201648950577,0.8484309911727905,0.8510006070137024,0.8539932370185852,0.9530144333839417,-1.709237813949585,-1.6482149362564087,-1.4879150390625,-1.4654474258422852,-0.022880537435412407,-0.03074955940246582,0.08916555345058441,0.08345309644937515,0.027491597458720207,-0.03735620528459549,-0.10280926525592804,0.12197055667638779,0.05944160744547844,0.0031622147653251886,0.08215023577213287,-0.01329402718693018,-0.1698273867368698,-0.10755781829357147,0.03643425554037094,-0.18182986974716187,0.08314669877290726,0.030194953083992004,0.2545219361782074,-0.0887981429696083,0.03322979807853699,0.2632995843887329,0.1386740505695343,0.035604365170001984,0.010782531462609768,-0.02033327706158161,0.007452475372701883,-0.11118943989276886,-0.09855706244707108,-0.023680927231907845,-0.014364002272486687,-0.023734038695693016,-0.01031666249036789,-0.1176764965057373,0.020635386928915977,-0.010243036784231663,-0.01866760104894638,-0.06353496015071869,0.012549467384815216,-0.23542772233486176,-0.006347280461341143,-0.010642600245773792,0.03493938595056534,-0.055545732378959656,-0.0051579708233475685,-0.21554327011108398,-0.13361413776874542,-0.0012022993760183454
-0.0013833530247211456,-0.0027726623229682446,0.3388921022415161,-0.057610608637332916,-0.026769500225782394,0.004372814670205116,0.9979706406593323,-0.008153206668794155,0.007808685302734375,0.0020136758685112,-0.12781484425067902,-0.01484685204923153,-0.006819837726652622,-0.210904061794281,0.1103193536400795,-0.09768298268318176,0.0900677815079689,0.8486600518226624,0.8506890535354614,0.8531363010406494,0.9540318250656128,-1.7087422609329224,-1.6481883525848389,-1.4872300624847412,-1.4655587673187256,-0.02440441958606243,-0.03802308812737465,0.06962645053863525,0.06407205760478973,0.046121761202812195,-0.023071471601724625,-0.039093974977731705,0.15833520889282227,0.06488186866044998,0.016126276925206184,0.04403380677103996,-0.06274339556694031,-0.16964340209960938,-0.10767486691474915,0.036423683166503906,-0.18209168314933777,0.08299139142036438,0.030205532908439636,0.2544369101524353,-0.08874952048063278,0.033228471875190735,0.2633809447288513,0.13879874348640442,0.03565465658903122,0.016810625791549683,-0.017245303839445114,0.002817467786371708,-0.08989831060171127,-0.119985431432724,-0.02744978293776512,-0.008559232577681541,-0.019253453239798546,-0.012216919101774693,-0.09084954857826233,-0.0036132019013166428,-0.005652459803968668,-0.006268828175961971,-0.054292913526296616,0.014443717896938324,-0.19628919661045074,-0.0277554951608181,-0.01092790998518467,0.03563037887215614,-0.04626218602061272,0.00317487888969481,-0.18090850114822388,-0.11674953997135162,-0.0005009567248634994
-0.0014513395726680756,-0.0027077512349933386,0.33890894055366516,-0.05811457335948944,-0.026674021035432816,0.0045299772173166275,0.9979432225227356,-0.006725366227328777,0.004904679488390684,-0.0006824169540777802,-0.1140449047088623,-0.013364933431148529,-0.006061077583581209,-0.21110743284225464,0.11000192910432816,-0.09710261225700378,0.09060239791870117,0.8490452170372009,0.8504965305328369,0.8528109192848206,0.955352246761322,-1.7082006931304932,-1.648053765296936,-1.4868630170822144,-1.4660823345184326,-0.028296539559960365,-0.04093073680996895,0.04696632921695709,0.047478318214416504,0.06415405869483948,-0.009104562923312187,0.01850903034210205,0.18320173025131226,0.06697582453489304,0.02291622944176197,0.001031545689329505,-0.10615002363920212,-0.16948190331459045,-0.10778629779815674,0.03642284870147705,-0.18234531581401825,0.08285439759492874,0.030219055712223053,0.25438496470451355,-0.08871953189373016,0.03321114182472229,0.2634384036064148,0.1389034390449524,0.03570324927568436,0.02305486984550953,-0.014341014437377453,-0.0012614931911230087,-0.06966136395931244,-0.13758660852909088,-0.030449818819761276,-0.002698464784771204,-0.016779977828264236,-0.01392247062176466,-0.07194139063358307,-0.022233370691537857,-0.002222837880253792,0.00421763863414526,-0.045137155801057816,0.01657542958855629,-0.15827417373657227,-0.03815152868628502,-0.010192307643592358,0.035041194409132004,-0.039028849452733994,0.00932127796113491,-0.15262775123119354,-0.0950562059879303,-0.0006707554566673934
-0.001507304608821869,-0.002666882472112775,0.33890289068222046,-0.05853532627224922,-0.02651032619178295,0.004691137466579676,0.9979222416877747,-0.005336100235581398,0.002056588651612401,-0.0025244688149541616,-0.10556691139936447,-0.012462283484637737,-0.00557364895939827,-0.21134346723556519,0.10966046899557114,-0.096710704267025,0.09099746495485306,0.8495804071426392,0.8504211902618408,0.8529652953147888,0.9568806886672974,-1.7076420783996582,-1.647862434387207,-1.4868544340133667,-1.4669674634933472,-0.02529374696314335,-0.04385741055011749,0.022245971485972404,0.02521602250635624,0.07670968025922775,0.003675693878903985,0.07429138571023941,0.20307788252830505,0.06909041106700897,0.02856610156595707,-0.04177005589008331,-0.14622649550437927,-0.16932380199432373,-0.10788142681121826,0.0364212766289711,-0.18257278203964233,0.08273108303546906,0.030229374766349792,0.25436779856681824,-0.0886956974864006,0.03319062292575836,0.26347821950912476,0.13898539543151855,0.03575234115123749,0.028112659230828285,-0.015089675784111023,-0.003844164777547121,-0.062228012830019,-0.15126527845859528,-0.03301272541284561,0.002802913775667548,-0.015830378979444504,-0.015205001458525658,-0.058524202555418015,-0.03913264349102974,0.0006457483978010714,0.014208666048943996,-0.03695349767804146,0.01988576352596283,-0.12368771433830261,-0.047232527285814285,-0.009470648132264614,0.033497728407382965,-0.031784072518348694,0.015332706272602081,-0.12425064295530319,-0.07160784304141998,-0.0010295009706169367
-0.0015512127429246902,-0.002650077687576413,0.3388817012310028,-0.05886790156364441,-0.026266712695360184,0.004855303559452295,0.997908353805542,-0.00316823972389102,-0.0012141000479459763,-0.004506067838519812,-0.09899093210697174,-0.011753327213227749,-0.005175883881747723,-0.2115548849105835,0.10929499566555023,-0.096525177359581,0.09120801091194153,0.8502197265625,0.8504519462585449,0.8535860180854797,0.9585749506950378,-1.7070653438568115,-1.647623896598816,-1.4872031211853027,-1.4681875705718994,-0.028841065242886543,-0.04638312757015228,-0.0028948404360562563,-7.141462992876768e-05,0.08846523612737656,0.015306607820093632,0.12416767328977585,0.21414878964424133,0.07087399065494537,0.03376264125108719,-0.07798813283443451,-0.1780232936143875,-0.16918791830539703,-0.10797654837369919,0.03643191605806351,-0.18278494477272034,0.08262333273887634,0.030249588191509247,0.254372775554657,-0.08867461234331131,0.03316626697778702,0.26348555088043213,0.13905465602874756,0.035800158977508545,0.03351973369717598,-0.014942971989512444,-0.006613882724195719,-0.050352875143289566,-0.16327796876430511,-0.035099320113658905,0.008765572682023048,-0.016014011576771736,-0.01681819185614586,-0.047558657824993134,-0.05469275265932083,0.003197369398549199,0.024333925917744637,-0.029630325734615326,0.022163426503539085,-0.09049566090106964,-0.05708567053079605,-0.008882435970008373,0.03158818930387497,-0.02489917352795601,0.01963553950190544,-0.09487694501876831,-0.047447506338357925,-0.0014266485814005136
-0.0015781279653310776,-0.002660303143784404,0.33884456753730774,-0.05910825729370117,-0.02597113698720932,0.0050224983133375645,0.9979010224342346,-0.0017584806773811579,-0.004255262669175863,-0.006169226951897144,-0.09540458023548126,-0.011374437250196934,-0.0049295793287456036,-0.21179506182670593,0.10890837758779526,-0.09654994308948517,0.09120716154575348,0.8509578108787537,0.8505796790122986,0.8546212315559387,0.9603608250617981,-1.7064749002456665,-1.647342324256897,-1.487853765487671,-1.4696725606918335,-0.028745774179697037,-0.05012526735663414,-0.027333591133356094,-0.02583206258714199,0.0942678451538086,0.023227322846651077,0.16998887062072754,0.22043515741825104,0.07137574255466461,0.03640061244368553,-0.10675042122602463,-0.20163823664188385,-0.1690569818019867,-0.10805707424879074,0.036442965269088745,-0.1829623430967331,0.08252950757741928,0.030269280076026917,0.2544146478176117,-0.08865915238857269,0.033141814172267914,0.2634730637073517,0.13911302387714386,0.035849906504154205,0.03653724491596222,-0.016754118725657463,-0.008557470515370369,-0.046011097729206085,-0.16902053356170654,-0.03610819950699806,0.012573398649692535,-0.01661210134625435,-0.018079187721014023,-0.03905991092324257,-0.0642605796456337,0.004887034650892019,0.03385009616613388,-0.02313976362347603,0.024074533954262733,-0.060570284724235535,-0.07068610936403275,-0.008792467415332794,0.029134226962924004,-0.018700947985053062,0.02276851423084736,-0.06767429411411285,-0.026895470917224884,-0.0016512182774022222
-0.0015930850058794022,-0.0026955907233059406,0.33879342675209045,-0.05925249308347702,-0.025639565661549568,0.00519573362544179,0.9979001879692078,-0.0011012053582817316,-0.007532087154686451,-0.007021485827863216,-0.09684060513973236,-0.01157428789883852,-0.0049370052292943,-0.21203450858592987,0.10848972201347351,-0.09677760303020477,0.09099175035953522,0.8517438769340515,0.8507735729217529,0.8560400605201721,0.9621989727020264,-1.7058794498443604,-1.6470390558242798,-1.4887444972991943,-1.471354365348816,-0.03159567341208458,-0.05404176563024521,-0.05831111967563629,-0.053976938128471375,0.09930862486362457,0.0319671593606472,0.20241737365722656,0.21406115591526031,0.070553258061409,0.03745530918240547,-0.1325012445449829,-0.21868498623371124,-0.16894152760505676,-0.1081320196390152,0.03645306080579758,-0.18311181664466858,0.08245404064655304,0.030287086963653564,0.25449925661087036,-0.0886518731713295,0.03311967849731445,0.2634475827217102,0.1391591578722,0.0359019935131073,0.03845348209142685,-0.0194865595549345,-0.009185397997498512,-0.0440639927983284,-0.1729743778705597,-0.036811474710702896,0.01580772176384926,-0.018840456381440163,-0.018811820074915886,-0.03549566864967346,-0.07364000380039215,0.006227015983313322,0.03892999514937401,-0.016760533675551414,0.02590663731098175,-0.030454961583018303,-0.07380920648574829,-0.007802491541951895,0.023485327139496803,-0.014052066951990128,0.024601176381111145,-0.04383518919348717,-0.0006077595171518624,-0.0026894742622971535
-0.0016020722687244415,-0.0027580910827964544,0.3387344479560852,-0.059302013367414474,-0.0252784863114357,0.005378121510148048,0.9979054927825928,-0.0008096675737760961,-0.012657519429922104,-0.006644175387918949,-0.0973200649023056,-0.011641595512628555,-0.0048884558491408825,-0.21229888498783112,0.10803934931755066,-0.09726513177156448,0.09054144471883774,0.8525727987289429,0.8510398268699646,0.8577280044555664,0.9639846682548523,-1.7052909135818481,-1.646726131439209,-1.4898500442504883,-1.473178505897522,-0.04494544118642807,-0.06533682346343994,-0.10600097477436066,-0.09924111515283585,0.10125920176506042,0.03201286494731903,0.24242401123046875,0.19164396822452545,0.05952887609601021,0.03262358531355858,-0.1498602330684662,-0.22598202526569366,-0.16884732246398926,-0.10819900035858154,0.03646732121706009,-0.18323566019535065,0.08239273726940155,0.030308187007904053,0.254591703414917,-0.0886412262916565,0.03309711813926697,0.26338493824005127,0.139192134141922,0.035952404141426086,0.03730927035212517,-0.021336792036890984,-0.007579747587442398,-0.032457176595926285,-0.16263554990291595,-0.03432520851492882,0.01493350975215435,-0.020757421851158142,-0.01712467335164547,-0.025294361636042595,-0.06764083355665207,0.006208974868059158,0.04681732505559921,-0.006149835418909788,0.027113815769553185,0.019137728959321976,-0.09060946851968765,-0.00732017308473587,0.01378399133682251,-0.006203731521964073,0.02655288577079773,-0.0027833147905766964,0.03406200557947159,-0.00351513409987092
-0.00160912424325943,-0.002863733097910881,0.3386794924736023,-0.05920301005244255,-0.024939870461821556,0.005582597106695175,0.9979187250137329,-0.0013750712387263775,-0.01849982887506485,-0.005356395151466131,-0.10643953830003738,-0.012711410410702229,-0.005271277856081724,-0.2126738578081131,0.10749408602714539,-0.09814909845590591,0.08971274644136429,0.8534167408943176,0.8513073325157166,0.8597500920295715,0.9655826687812805,-1.7047947645187378,-1.6464545726776123,-1.4910999536514282,-1.475062608718872,-0.05191735923290253,-0.07375849038362503,-0.15055285394191742,-0.15234540402889252,0.08270584046840668,0.024833792820572853,0.24571208655834198,0.1244366317987442,0.05679159611463547,0.024941567331552505,-0.11688143759965897,-0.18791913986206055,-0.1687803566455841,-0.10824117809534073,0.03649093210697174,-0.18332679569721222,0.08236031234264374,0.030333220958709717,0.2547386884689331,-0.08862878382205963,0.03310058265924454,0.26329803466796875,0.1392020285129547,0.03602861613035202,0.031256478279829025,-0.028538815677165985,-0.00561578618362546,-0.037392016500234604,-0.1421937644481659,-0.030205240473151207,0.01114109717309475,-0.027041012421250343,-0.015373751521110535,-0.027725495398044586,-0.05306993052363396,0.0043821781873703,0.05175779014825821,0.0003516548313200474,0.022750163450837135,0.05862097814679146,-0.12228747457265854,-0.008677573874592781,-0.0014914781786501408,-0.0007421853952109814,0.020857147872447968,0.03748198598623276,0.06806556135416031,-0.004360126331448555
-0.0016200821846723557,-0.0030182425398379564,0.33863452076911926,-0.05893837288022041,-0.02466304413974285,0.005813834257423878,0.997939944267273,-0.0007458003819920123,-0.022310510277748108,-0.0046350532211363316,-0.12135488539934158,-0.014428041875362396,-0.005938949529081583,-0.21310687065124512,0.10687904804944992,-0.09940537065267563,0.0884418934583664,0.8541064858436584,0.8515143394470215,0.8617992997169495,0.9666199088096619,-1.7043207883834839,-1.6462466716766357,-1.4920744895935059,-1.4766298532485962,-0.058175355195999146,-0.07875913381576538,-0.18229882419109344,-0.18958549201488495,0.07450661063194275,0.022892963141202927,0.2503805458545685,0.07784201204776764,0.051655303686857224,0.023006225004792213,-0.11328591406345367,-0.1660308688879013,-0.16876143217086792,-0.10827741026878357,0.03650621324777603,-0.18338413536548615,0.08234643191099167,0.030353911221027374,0.2549360990524292,-0.08863529562950134,0.03309418261051178,0.26316750049591064,0.139180988073349,0.036093756556510925,0.029123889282345772,-0.035368192940950394,-0.0031966608949005604,-0.04785292223095894,-0.1302429437637329,-0.027974503114819527,0.01130972895771265,-0.03382820263504982,-0.015720069408416748,-0.03812771663069725,-0.05041526257991791,0.00343621545471251,0.053795699030160904,0.0021123760379850864,0.02290571853518486,0.07614292204380035,-0.12851043045520782,-0.008698751218616962,-0.011533943936228752,0.0006793825887143612,0.016263196244835854,0.05676335096359253,0.09508820623159409,-0.00579071743413806
-0.0016267038881778717,-0.003203870262950659,0.3385954201221466,-0.05855637788772583,-0.024419574066996574,0.006048023700714111,0.9979670643806458,0.002766349585726857,-0.02651897445321083,-0.005229909438639879,-0.1478746235370636,-0.017467092722654343,-0.007160291541367769,-0.21359121799468994,0.10622213780879974,-0.1009262353181839,0.08686021715402603,0.8547279238700867,0.8517045378684998,0.8638882637023926,0.9672690629959106,-1.7038905620574951,-1.6460542678833008,-1.4930193424224854,-1.478015422821045,-0.057449985295534134,-0.08197066187858582,-0.21545293927192688,-0.22970452904701233,0.07328589260578156,0.02374788373708725,0.280080646276474,0.05560757592320442,0.051092494279146194,0.025880662724375725,-0.13257476687431335,-0.17107459902763367,-0.16876894235610962,-0.10829395800828934,0.036519162356853485,-0.1834045648574829,0.08235705643892288,0.030372604727745056,0.255146861076355,-0.08864689618349075,0.033091746270656586,0.26300138235092163,0.13915008306503296,0.036153167486190796,0.03303771838545799,-0.0475333034992218,-0.001428096555173397,-0.07541302591562271,-0.13168808817863464,-0.028917143121361732,0.01644359715282917,-0.04485947638750076,-0.019361136481165886,-0.061070993542671204,-0.056820910423994064,0.0027687973342835903,0.06270095705986023,0.00037573371082544327,0.026965714991092682,0.08368734270334244,-0.13809747993946075,-0.00946358684450388,-0.016115007922053337,-0.0002592192031443119,0.013904953375458717,0.06706571578979492,0.12358956038951874,-0.00784897617995739
-0.001603487879037857,-0.0034257404040545225,0.338552325963974,-0.05804545059800148,-0.02415635995566845,0.006281381472945213,0.9980018734931946,0.004348225891590118,-0.03252307325601578,-0.00593498395755887,-0.18586961925029755,-0.021763112396001816,-0.008896718733012676,-0.2140708863735199,0.10553862899541855,-0.10272327810525894,0.0849442109465599,0.855339765548706,0.8519030809402466,0.8662248849868774,0.9677322506904602,-1.7034640312194824,-1.645838975906372,-1.4941257238388062,-1.4794416427612305,-0.06825431436300278,-0.08991516381502151,-0.27144134044647217,-0.2847057580947876,0.07570795714855194,0.026997802779078484,0.32897108793258667,0.018874641507864,0.04357074201107025,0.02612677589058876,-0.16175028681755066,-0.17089755833148956,-0.16878800094127655,-0.10830378532409668,0.03653465211391449,-0.18337944149971008,0.08238834142684937,0.030393168330192566,0.2553919851779938,-0.08867011219263077,0.033088721334934235,0.2628144323825836,0.13911201059818268,0.036209627985954285,0.03498707711696625,-0.06166534498333931,0.001857580617070198,-0.10344597697257996,-0.129842609167099,-0.029175255447626114,0.020176341757178307,-0.059578850865364075,-0.02363269403576851,-0.09083452820777893,-0.06373271346092224,0.0017728856764733791,0.07339802384376526,0.0007366137579083443,0.032860130071640015,0.10348648577928543,-0.15560398995876312,-0.010580705478787422,-0.026068590581417084,-0.0024429396726191044,0.009420763701200485,0.07971294969320297,0.16162556409835815,-0.010582679882645607
-0.001566542312502861,-0.0036967392079532146,0.3385023772716522,-0.057352207601070404,-0.0238934513181448,0.006525649689137936,0.9980466961860657,0.003742614993825555,-0.038725174963474274,-0.005083055235445499,-0.22350043058395386,-0.02585572376847267,-0.01057387050241232,-0.21464048326015472,0.1047884002327919,-0.10498778522014618,0.08256899565458298,0.8559709191322327,0.8521282076835632,0.8689687252044678,0.9678894281387329,-1.7031010389328003,-1.6456211805343628,-1.4954743385314941,-1.4808670282363892,-0.06923320144414902,-0.09464768320322037,-0.3085472583770752,-0.3349525034427643,0.06459413468837738,0.02626514993607998,0.34875646233558655,-0.030055487528443336,0.04094076156616211,0.023784559220075607,-0.14055421948432922,-0.15459583699703217,-0.16883660852909088,-0.10828182846307755,0.03655019402503967,-0.18330198526382446,0.0824536681175232,0.030409209430217743,0.25568777322769165,-0.08868904411792755,0.03309991955757141,0.26258593797683716,0.13905452191829681,0.036263346672058105,0.03195682913064957,-0.07896450906991959,0.006109234876930714,-0.14194054901599884,-0.12056555598974228,-0.028148913756012917,0.020242314785718918,-0.07548505812883377,-0.026221729815006256,-0.12415430694818497,-0.06438054889440536,-0.00011724806972779334,0.0824454128742218,-0.004379991441965103,0.03425111621618271,0.10736089944839478,-0.19633741676807404,-0.014616287313401699,-0.03859781473875046,-0.006477957591414452,0.0037227317225188017,0.08859433233737946,0.195233553647995,-0.012961294502019882
-0.0015356261283159256,-0.004019641317427158,0.3384604752063751,-0.056480392813682556,-0.023652952164411545,0.006773691158741713,0.9981005191802979,0.0028953386936336756,-0.04344308003783226,-0.004000576213002205,-0.24467693269252777,-0.02842283435165882,-0.01553841307759285,-0.21521727740764618,0.10399949550628662,-0.10756135731935501,0.07977549731731415,0.8565091490745544,0.8523467183113098,0.8718768358230591,0.9676389098167419,-1.7027587890625,-1.645422339439392,-1.4966464042663574,-1.4821560382843018,-0.0713118389248848,-0.09614478796720505,-0.34163978695869446,-0.37371453642845154,0.05459366738796234,0.020978614687919617,0.3528195321559906,-0.07831567525863647,0.032766666263341904,0.020518029108643532,-0.12582585215568542,-0.122919961810112,-0.16894245147705078,-0.10825283825397491,0.03656709939241409,-0.1831904649734497,0.0825442373752594,0.030429892241954803,0.2560332119464874,-0.0887446328997612,0.03310057520866394,0.2623058557510376,0.138966903090477,0.03632000833749771,0.027384962886571884,-0.08933653682470322,0.009905394166707993,-0.1634097397327423,-0.10535486042499542,-0.0294779222458601,0.01858137547969818,-0.08552553504705429,-0.027069082483649254,-0.14481975138187408,-0.05851064994931221,-0.006101418286561966,0.08477114886045456,-0.006032831966876984,0.03439425677061081,0.12094255536794662,-0.21428044140338898,-0.020353496074676514,-0.047695595771074295,-0.00840759463608265,-0.0018255501054227352,0.10445249825716019,0.21295522153377533,-0.017444564029574394
-0.0015118513256311417,-0.004382316954433918,0.33842653036117554,-0.05547834560275078,-0.023458607494831085,0.007010518107563257,0.998159646987915,0.0010392843978479505,-0.04611634835600853,-0.0035837218165397644,0.06296011060476303,-0.02822558395564556,-0.2594703733921051,-0.21581268310546875,0.10319700092077255,-0.11041104793548584,0.0766587108373642,0.8569645881652832,0.8525221943855286,0.8748194575309753,0.9669848084449768,-1.7024856805801392,-1.6452513933181763,-1.497695803642273,-1.4831817150115967,-0.07059850543737411,-0.09472684562206268,-0.35052573680877686,-0.3887476921081543,0.048026226460933685,0.01626005209982395,0.35360825061798096,-0.11872285604476929,0.024711154401302338,0.01898774690926075,-0.10777771472930908,-0.09277472645044327,-0.16908714175224304,-0.10821041464805603,0.03658130019903183,-0.18305116891860962,0.08265501260757446,0.03044837713241577,0.25640225410461426,-0.08880721777677536,0.033102162182331085,0.2620029151439667,0.13886921107769012,0.036378927528858185,-0.0021815216168761253,0.03391025960445404,-0.019798146560788155,0.14163348078727722,-0.09116657078266144,-0.2705971896648407,0.037005823105573654,0.04325450211763382,0.0008339593186974525,0.16069820523262024,-0.0525028370320797,-0.2508993148803711,0.06609645485877991,0.01842428371310234,0.007264506071805954,0.43921205401420593,-0.23240287601947784,-0.2663269639015198,-0.020795470103621483,0.014012906700372696,0.03840479254722595,0.42637234926223755,0.2243301272392273,-0.26124534010887146
-0.00150284543633461,-0.0047668227925896645,0.3383975923061371,-0.05440496280789375,-0.023313790559768677,0.007224183063954115,0.9982206225395203,0.0009899860015138984,-0.047246772795915604,-0.0029474955517798662,0.05579704791307449,-0.02577478438615799,-0.2697368264198303,-0.21640154719352722,0.10240701586008072,-0.11333451420068741,0.0734160915017128,0.8573650121688843,0.8526577353477478,0.877768874168396,0.9659945964813232,-1.7022796869277954,-1.645093321800232,-1.4985946416854858,-1.4839550256729126,-0.06622061878442764,-0.08992673456668854,-0.34983521699905396,-0.3940548300743103,0.04168727621436119,0.018703794106841087,0.3454577624797821,-0.1418856680393219,0.016256244853138924,0.018001366406679153,-0.10147840529680252,-0.0687384381890297,-0.16925525665283203,-0.10815636813640594,0.036588095128536224,-0.18289577960968018,0.08278116583824158,0.030458956956863403,0.2568022310733795,-0.08888614922761917,0.03311073035001755,0.2616795599460602,0.13875895738601685,0.03643583506345749,-0.006691082380712032,0.030310995876789093,-0.016710637137293816,0.12827028334140778,-0.07495886832475662,-0.2781734764575958,0.0380401685833931,0.040218666195869446,0.0011711567640304565,0.14886966347694397,-0.05222528427839279,-0.26125484704971313,0.06332055479288101,0.01162741333246231,0.007176836021244526,0.43073540925979614,-0.22894084453582764,-0.2771768867969513,-0.02234589122235775,0.00901252031326294,0.03386463224887848,0.4250771999359131,0.22576642036437988,-0.2706987261772156
-0.0014942903071641922,-0.00516109075397253,0.33837270736694336,-0.05330632999539375,-0.023187462240457535,0.00740756606683135,0.9982814192771912,-0.0018443978624418378,-0.04678790271282196,-0.0018435523379594088,0.04256957396864891,-0.016617922112345695,-0.26004257798194885,-0.21695314347743988,0.1016574576497078,-0.11625181138515472,0.07012931257486343,0.8577131032943726,0.852813720703125,0.880649983882904,0.9648106098175049,-1.7021448612213135,-1.644943356513977,-1.4994407892227173,-1.4845284223556519,-0.060180045664310455,-0.08253151923418045,-0.33510181307792664,-0.3803749680519104,0.033595677465200424,0.01104986947029829,0.32207950949668884,-0.16178427636623383,0.007257687393575907,0.017017807811498642,-0.08337289094924927,-0.034501876682043076,-0.16944101452827454,-0.10810032486915588,0.03659781068563461,-0.18271838128566742,0.08291415125131607,0.03047218918800354,0.25719839334487915,-0.08897367119789124,0.03312114626169205,0.2613539397716522,0.13865512609481812,0.03648620843887329,-0.014473620802164078,0.02302585542201996,-0.011446531862020493,0.10698932409286499,-0.049965206533670425,-0.2653988301753998,0.029661983251571655,0.032633550465106964,0.002119392156600952,0.1273714005947113,-0.03553171828389168,-0.2529599666595459,0.05526537448167801,0.005687233060598373,0.00488688237965107,0.4018627405166626,-0.21690112352371216,-0.2683556377887726,-0.027975011616945267,0.003851190209388733,0.025014199316501617,0.4002494215965271,0.21849581599235535,-0.2598511576652527
-0.0015105903148651123,-0.005551333539187908,0.338357150554657,-0.05222281068563461,-0.023104486986994743,0.007547788321971893,0.9983396530151367,-0.003784781089052558,-0.04622544348239899,0.0010158924851566553,0.021300051361322403,0.006720362231135368,-0.24326999485492706,-0.21745507419109344,0.10096839815378189,-0.11904682219028473,0.06695651262998581,0.8579925298690796,0.8529054522514343,0.8833360075950623,0.9634615778923035,-1.7020841836929321,-1.6448006629943848,-1.5001357793807983,-1.4848159551620483,-0.050719503313302994,-0.07305297255516052,-0.3198271095752716,-0.3620174527168274,0.009049108251929283,-0.0036125145852565765,0.2573184072971344,-0.21801581978797913,-0.007743499241769314,0.00863577425479889,-0.03487856686115265,0.02735491283237934,-0.16965049505233765,-0.1080385148525238,0.036605872213840485,-0.1825595647096634,0.08305253088474274,0.03048371523618698,0.2575702369213104,-0.08906355500221252,0.03313806653022766,0.2610348165035248,0.13855421543121338,0.036535121500492096,-0.03021799772977829,0.010675963014364243,-0.0007545133121311665,0.07183445990085602,0.010755357332527637,-0.24122923612594604,0.014130543917417526,0.020776374265551567,0.00713132182136178,0.09437218308448792,0.009399795904755592,-0.2393643707036972,0.03718336671590805,-0.0008963309228420258,-0.004753593355417252,0.36323386430740356,-0.1797890067100525,-0.25129327178001404,-0.04351836070418358,-0.004067216068506241,0.006678011268377304,0.36178526282310486,0.23360788822174072,-0.24292205274105072
-0.00154205784201622,-0.005936566740274429,0.33836570382118225,-0.051163334399461746,-0.02313281036913395,0.007641135714948177,0.9983930587768555,-0.00648492993786931,-0.04557009041309357,0.00442236103117466,-0.25026074051856995,-0.025818469002842903,-0.011436297558248043,-0.21787884831428528,0.10035981237888336,-0.12171400338411331,0.06393773853778839,0.8580687642097473,0.8528754115104675,0.8854816555976868,0.9616425633430481,-1.7021483182907104,-1.6447293758392334,-1.500426173210144,-1.484586238861084,-0.047145456075668335,-0.06719406694173813,-0.30074116587638855,-0.3505680561065674,-0.0142171960324049,-0.021789351478219032,0.1953888237476349,-0.2747463583946228,-0.0204311590641737,0.0028495080769062042,0.024284005165100098,0.09627766907215118,-0.16987529397010803,-0.10798326134681702,0.036609381437301636,-0.18239562213420868,0.08319041132926941,0.03049192577600479,0.257909893989563,-0.08914880454540253,0.03316204994916916,0.26072290539741516,0.1384454220533371,0.03658381104469299,-0.008258789777755737,-0.10537230968475342,0.026657449081540108,-0.20720848441123962,0.012759372591972351,-0.002411026507616043,-0.005714823491871357,-0.09991537779569626,-0.01938675157725811,-0.18531978130340576,-0.00021079721045680344,-0.010612540878355503,0.05534855276346207,-0.022587640210986137,0.021148525178432465,0.072036013007164,-0.2122122198343277,-0.02057630755007267,-0.0740082710981369,-0.02268218994140625,-0.032273560762405396,0.08049988001585007,0.18712405860424042,-0.010045874863862991
-0.0015955381095409393,-0.006316500715911388,0.33840230107307434,-0.050125740468502045,-0.023276424035429955,0.007697333116084337,0.9984419345855713,-0.008830235339701176,-0.043240632861852646,0.0076419878751039505,-0.24084119498729706,-0.024342069402337074,-0.011076187714934349,-0.218271866440773,0.09979899972677231,-0.12422279268503189,0.06101401895284653,0.8579490780830383,0.8526935577392578,0.887110710144043,0.9593508243560791,-1.7023186683654785,-1.6447049379348755,-1.5002233982086182,-1.48378324508667,-0.03967111185193062,-0.05753220617771149,-0.2754572629928589,-0.3226566016674042,-0.03456035256385803,-0.04343332350254059,0.11825456470251083,-0.33066338300704956,-0.03295813128352165,-0.005152546335011721,0.07924540340900421,0.16170790791511536,-0.1701170653104782,-0.10792434215545654,0.03660823404788971,-0.18223612010478973,0.08333204686641693,0.03049536794424057,0.2582370638847351,-0.08924099802970886,0.03319372236728668,0.26042160391807556,0.13834179937839508,0.03663429617881775,-0.018250472843647003,-0.1036406010389328,0.03091210313141346,-0.20867757499217987,0.04541108012199402,0.004173168912529945,-0.015657946467399597,-0.09830336272716522,-0.015085607767105103,-0.18825338780879974,0.02946958877146244,-0.014137296937406063,0.03971432149410248,-0.025764331221580505,0.014468563720583916,0.05363587290048599,-0.19196045398712158,-0.019457215443253517,-0.08025118708610535,-0.027198001742362976,-0.04068935289978981,0.0635114535689354,0.17570927739143372,-0.009603536687791348
-0.0016696024686098099,-0.006677315570414066,0.33846667408943176,-0.04915133863687515,-0.02353910729289055,0.00771259143948555,0.9984841346740723,-0.008841856382787228,-0.04052174091339111,0.009421300143003464,-0.23052085936069489,-0.02284586802124977,-0.010724990628659725,-0.21860219538211823,0.09931903332471848,-0.12651972472667694,0.058322470635175705,0.8576611876487732,0.852331280708313,0.8880966901779175,0.9565920233726501,-1.7025943994522095,-1.6447484493255615,-1.4995620250701904,-1.4824343919754028,-0.03412790223956108,-0.0495644137263298,-0.24746210873126984,-0.2963157594203949,-0.04858373478055,-0.053400322794914246,0.06510810554027557,-0.3595310151576996,-0.040684476494789124,-0.007521803956478834,0.11045841872692108,0.20244711637496948,-0.17035505175590515,-0.1078682690858841,0.03660200536251068,-0.18209581077098846,0.08346743136644363,0.030493706464767456,0.25851887464523315,-0.08932332694530487,0.03323383629322052,0.26012271642684937,0.13823863863945007,0.036681823432445526,-0.023522017523646355,-0.10027369856834412,0.03295382857322693,-0.20604218542575836,0.06748201698064804,0.008644945919513702,-0.01909930817782879,-0.09517212957143784,-0.01257830485701561,-0.18689055740833282,0.042279768735170364,-0.015540022403001785,0.02958875149488449,-0.029139351099729538,0.010402161628007889,0.033560995012521744,-0.172057643532753,-0.018320949748158455,-0.08084627240896225,-0.029812127351760864,-0.0457318089902401,0.04913698509335518,0.1622668355703354,-0.00894400104880333
-0.0017434172332286835,-0.007015179842710495,0.33854445815086365,-0.04824260249733925,-0.023866238072514534,0.00769303273409605,0.9985208511352539,-0.007566130720078945,-0.038126394152641296,0.007687231991440058,-0.21584691107273102,-0.02099613845348358,-0.010186471976339817,-0.21888691186904907,0.098906010389328,-0.12858331203460693,0.055851224809885025,0.8572563529014587,0.8518859148025513,0.8886396884918213,0.9535936713218689,-1.7029331922531128,-1.6448111534118652,-1.4986411333084106,-1.480745553970337,-0.026001354679465294,-0.042364701628685,-0.2247820794582367,-0.2751772403717041,-0.03997008129954338,-0.04257361218333244,0.07371510565280914,-0.3305489122867584,-0.038036245852708817,-0.0003272323519922793,0.08804372698068619,0.18741609156131744,-0.17058122158050537,-0.1078089028596878,0.036590173840522766,-0.18195270001888275,0.08360155671834946,0.030486486852169037,0.25876954197883606,-0.0894034206867218,0.03327586501836777,0.25984203815460205,0.13814501464366913,0.03672023117542267,-0.019713928923010826,-0.095631904900074,0.029996799305081367,-0.19812412559986115,0.05752130597829819,0.006605525501072407,-0.013928514905273914,-0.09026605635881424,-0.013981547206640244,-0.17761988937854767,0.025533024221658707,-0.013183817267417908,0.029807526618242264,-0.02985232323408127,0.011577378958463669,0.024033475667238235,-0.15918616950511932,-0.017521820962429047,-0.073598213493824,-0.028370605781674385,-0.043268851935863495,0.04440696910023689,0.14773930609226227,-0.007779833860695362
-0.001806214451789856,-0.0073337797075510025,0.33860889077186584,-0.047381721436977386,-0.02414071559906006,0.00764934066683054,0.9985557794570923,-0.006209844723343849,-0.03477441519498825,0.004558865912258625,-0.19051995873451233,-0.01820155791938305,-0.009098646230995655,-0.2191036492586136,0.09855254739522934,-0.13045834004878998,0.05355645716190338,0.8569229245185852,0.8515312671661377,0.8892555832862854,0.9508377909660339,-1.7032502889633179,-1.644814133644104,-1.497907042503357,-1.4791834354400635,-0.01862235739827156,-0.03294893726706505,-0.1907925009727478,-0.23808957636356354,-0.015399780124425888,-0.018973415717482567,0.10606532543897629,-0.2563314139842987,-0.03193105384707451,0.009639975614845753,0.04532335326075554,0.1309404969215393,-0.1707935333251953,-0.10775061696767807,0.03657941520214081,-0.18180206418037415,0.08373483270406723,0.03047923743724823,0.2590021789073944,-0.08949092775583267,0.033312030136585236,0.2595812976360321,0.13806287944316864,0.03674454987049103,-0.011128371581435204,-0.08617300540208817,0.024443544447422028,-0.176860973238945,0.02968755178153515,0.0012485869228839874,-0.004841791000217199,-0.0815899446606636,-0.015872294083237648,-0.15858790278434753,-0.005838112905621529,-0.008614310063421726,0.03376943618059158,-0.029922865331172943,0.014534490182995796,0.014305448159575462,-0.14974355697631836,-0.017070677131414413,-0.06022743508219719,-0.026621535420417786,-0.034412406384944916,0.03474951535463333,0.12896303832530975,-0.006695433519780636
-0.0018582139164209366,-0.00762301217764616,0.3386474549770355,-0.046602316200733185,-0.02429819479584694,0.0075776283629238605,0.9985892176628113,-0.005984606221318245,-0.029562130570411682,0.0023415053728967905,-0.1570979654788971,-0.014760997146368027,-0.0075544030405581,-0.21925857663154602,0.09827800840139389,-0.13204891979694366,0.05157171189785004,0.856794536113739,0.8513730764389038,0.8901402950286865,0.9487001299858093,-1.7035167217254639,-1.6447333097457886,-1.49752938747406,-1.4780912399291992,-0.012502588331699371,-0.024437962099909782,-0.15185822546482086,-0.19818037748336792,0.0027807634323835373,-0.004092393908649683,0.11995958536863327,-0.20632679760456085,-0.028628598898649216,0.01837412640452385,0.007729018107056618,0.12248845398426056,-0.1709837019443512,-0.10768803209066391,0.03657666593790054,-0.18165554106235504,0.0838625431060791,0.030480176210403442,0.25921422243118286,-0.08958926796913147,0.033331498503685,0.259345144033432,0.13798640668392181,0.03676215559244156,-0.006050716154277325,-0.07247024774551392,0.019402483478188515,-0.14728009700775146,0.011596144177019596,-0.0017806892283260822,0.00013697263784706593,-0.06867407262325287,-0.01592746376991272,-0.13154639303684235,-0.026608895510435104,-0.004738958086818457,0.031781379133462906,-0.027483193203806877,0.016165055334568024,0.006483356934040785,-0.12680016458034515,-0.014880366623401642,-0.046380046755075455,-0.02180926874279976,-0.03059953637421131,0.0324384979903698,0.08705522865056992,-0.0038499801885336637
-0.0019081775099039078,-0.007870020344853401,0.33866623044013977,-0.04595765098929405,-0.024387583136558533,0.007478686515241861,0.9986176490783691,-0.005679454654455185,-0.02386227436363697,0.0010054113809019327,-0.12142367660999298,-0.011250465176999569,-0.0058625442907214165,-0.2193632572889328,0.09807423502206802,-0.13331478834152222,0.049919016659259796,0.8568173050880432,0.851338803768158,0.8911406397819519,0.9469793438911438,-1.703755259513855,-1.644580364227295,-1.4974652528762817,-1.47706937789917,-0.005743768531829119,-0.012862796895205975,-0.10234600305557251,-0.1459961086511612,0.011289816349744797,0.003773430595174432,0.10252076387405396,-0.16905969381332397,-0.030205419287085533,0.021947430446743965,-0.006269445642828941,0.12270653247833252,-0.17113903164863586,-0.10762573033571243,0.03657383471727371,-0.18152496218681335,0.08397864550352097,0.030478663742542267,0.25939691066741943,-0.08967259526252747,0.03335360437631607,0.2591533362865448,0.1379459649324417,0.03674658387899399,-0.004295707680284977,-0.05830526724457741,0.0156690776348114,-0.11760220676660538,0.007713355589658022,-0.0017930541653186083,0.00241499999538064,-0.055714499205350876,-0.014452575705945492,-0.10641473531723022,-0.03551941737532616,-0.002289921510964632,0.02471490018069744,-0.0272087212651968,0.014556309208273888,-0.010278264991939068,-0.096964992582798,-0.01208616141229868,-0.03432340919971466,-0.020050885155797005,-0.0284653939306736,0.019663816317915916,0.04826882854104042,-0.0019569522701203823
-0.001955116167664528,-0.008068506605923176,0.3386750817298889,-0.04547122120857239,-0.024449806660413742,0.0073453509248793125,0.9986393451690674,-0.00507971690967679,-0.015948578715324402,0.0005183103494346142,-0.0754162147641182,-0.006913143675774336,-0.0036518953274935484,-0.219410702586174,0.09796744585037231,-0.134168803691864,0.04870127514004707,0.8569120168685913,0.8513708114624023,0.8919954895973206,0.945570170879364,-1.7040081024169922,-1.6443967819213867,-1.4975178241729736,-1.4760464429855347,0.0061849625781178474,0.0023221843875944614,-0.03460407629609108,-0.06608766317367554,0.018628910183906555,0.008351585827767849,0.061071187257766724,-0.11309814453125,-0.032552335411310196,0.024722300469875336,-0.014167808927595615,0.11744831502437592,-0.17125791311264038,-0.10756638646125793,0.03657045215368271,-0.18141183257102966,0.08407692611217499,0.030474483966827393,0.2595363259315491,-0.08974466472864151,0.03337521851062775,0.2590094208717346,0.13792972266674042,0.036707453429698944,-0.002754918998107314,-0.04053083062171936,0.012213563546538353,-0.08294752240180969,0.006092604715377092,-0.001152840326540172,0.003717596409842372,-0.038668423891067505,-0.011179547756910324,-0.07490865886211395,-0.03986024111509323,2.3098178644431755e-05,0.011919137090444565,-0.0276015717536211,0.011641120538115501,-0.03648131713271141,-0.05012072995305061,-0.007465819828212261,-0.016780177131295204,-0.021058281883597374,-0.024315468966960907,-0.009298293851315975,-0.005211350973695517,-0.00018387380987405777
-0.0019981805235147476,-0.008201798424124718,0.3386789858341217,-0.04521632567048073,-0.024479905143380165,0.00716501846909523,0.9986515641212463,-0.005231449380517006,-0.00797482579946518,-6.864622991997749e-05,-0.05382043868303299,-0.004905379842966795,-0.0026104149874299765,-0.21935902535915375,0.09798673540353775,-0.13445651531219482,0.04815050587058067,0.857067883014679,0.8514403104782104,0.8925038576126099,0.9446272850036621,-1.7042793035507202,-1.644190788269043,-1.4976354837417603,-1.475066900253296,0.01362583041191101,0.012576892040669918,0.02518019825220108,0.0074028982780873775,0.022159481421113014,0.015153403393924236,0.02136373147368431,-0.047328464686870575,-0.028193797916173935,0.0321999192237854,-0.029405122622847557,0.09892881661653519,-0.1713312268257141,-0.10752498358488083,0.03657393157482147,-0.18134114146232605,0.08414483815431595,0.030475489795207977,0.25959348678588867,-0.08979523926973343,0.033387042582035065,0.25893449783325195,0.13793107867240906,0.03664828836917877,-0.0015988604864105582,-0.028219500556588173,0.009486960247159004,-0.06796910613775253,-0.0002598059654701501,-0.002053748583421111,0.006307671777904034,-0.02723102644085884,-0.010974574834108353,-0.062320876866579056,-0.0529182143509388,0.0021880711428821087,-0.002045524539425969,-0.03319588303565979,0.011623435653746128,-0.07963777333498001,0.0007601933320984244,-0.002880378160625696,0.0011359038762748241,-0.027435390278697014,-0.02072734385728836,-0.0566706657409668,-0.056870996952056885,0.00036450146581046283
-0.002041773870587349,-0.008268053643405437,0.3386785686016083,-0.04519267380237579,-0.024474870413541794,0.006941186264157295,0.998654305934906,-0.0033825067803263664,-0.0044210380874574184,-0.0017379038035869598,-0.06159745156764984,-0.00561058335006237,-0.002988263266161084,-0.21924611926078796,0.09809120744466782,-0.1342461109161377,0.048212505877017975,0.8572520613670349,0.8515669107437134,0.8926823139190674,0.9442318677902222,-1.7045142650604248,-1.6439223289489746,-1.4978809356689453,-1.4742414951324463,0.021245058625936508,0.022800816223025322,0.05245327949523926,0.033513374626636505,0.03488870710134506,0.026000089943408966,0.018095815554261208,-0.030557900667190552,-0.027653131633996964,0.03745370730757713,-0.056018415838479996,0.11110743880271912,-0.17136740684509277,-0.1074889525771141,0.036576226353645325,-0.18130873143672943,0.08419472724199295,0.030479781329631805,0.2595538794994354,-0.08980456739664078,0.0333925262093544,0.25892481207847595,0.137967050075531,0.03658808022737503,0.004239523783326149,-0.028797874227166176,0.008853177540004253,-0.08201728761196136,-0.014586634933948517,-0.0054715946316719055,0.012665312737226486,-0.02872421219944954,-0.014634126797318459,-0.07890691608190536,-0.07048874348402023,0.00313284108415246,-0.005061868578195572,-0.04160357266664505,0.015139980241656303,-0.11740440130233765,0.02712036669254303,-0.0010545362019911408,0.01147479098290205,-0.033788640052080154,-0.02518380805850029,-0.08789107948541641,-0.08872132003307343,0.0005648512160405517
-0.0020700301975011826,-0.008305343799293041,0.3386637270450592,-0.04525524005293846,-0.024433862417936325,0.006694801617413759,0.9986541271209717,-0.0043036192655563354,-0.0013411992695182562,-0.0010669201146811247,-0.07107746601104736,-0.006482141558080912,-0.003443868365138769,-0.21906833350658417,0.09828217327594757,-0.13380834460258484,0.048492830246686935,0.8575437068939209,0.8517832159996033,0.892833411693573,0.9439772963523865,-1.704744577407837,-1.6436097621917725,-1.4983488321304321,-1.4733150005340576,0.028126945719122887,0.034538090229034424,0.08738153427839279,0.07154485583305359,0.04049073904752731,0.034460052847862244,0.0007828639354556799,-0.014418864622712135,-0.035449739545583725,0.02601085789501667,-0.058250654488801956,0.11686766892671585,-0.17136140167713165,-0.10745786875486374,0.03657624125480652,-0.18126478791236877,0.08423073589801788,0.030476875603199005,0.25947868824005127,-0.08980763703584671,0.03339753299951553,0.2589513957500458,0.13802573084831238,0.0364842489361763,0.004136011935770512,-0.030683569610118866,0.011812458746135235,-0.09855834394693375,-0.013945852406322956,-0.005816902965307236,0.013039842247962952,-0.03165604919195175,-0.013894446194171906,-0.1003062054514885,-0.06947626918554306,0.0017553168581798673,-0.010532062500715256,-0.053005874156951904,0.018074173480272293,-0.16350489854812622,0.04239222779870033,-0.0008859651279635727,0.018095018342137337,-0.04496169090270996,-0.02782103791832924,-0.13327336311340332,-0.11481702327728271,-0.00033773379982449114
-0.00210588239133358,-0.008316470310091972,0.3386547863483429,-0.045406367629766464,-0.02439429797232151,0.006441876292228699,0.9986498951911926,-0.0035865637473762035,0.002350754803046584,-0.0008922198321670294,-0.08980739861726761,-0.008216530084609985,-0.0043462179601192474,-0.21883389353752136,0.09857012331485748,-0.13307929039001465,0.04908996447920799,0.8578811883926392,0.8520705699920654,0.8928393125534058,0.9438570141792297,-1.7050409317016602,-1.6433931589126587,-1.498834490776062,-1.4723399877548218,0.03323905169963837,0.041757434606552124,0.11038501560688019,0.10372559726238251,0.033071234822273254,0.030775750055909157,-0.033281389623880386,0.017313767224550247,-0.02832375466823578,0.027339383959770203,-0.054575055837631226,0.09351450204849243,-0.17134040594100952,-0.10744655132293701,0.03659386187791824,-0.18123596906661987,0.08423720300197601,0.030489981174468994,0.2593707740306854,-0.0898313969373703,0.03341838717460632,0.25900495052337646,0.13806569576263428,0.03637009859085083,0.004370363429188728,-0.033751510083675385,0.012559586204588413,-0.1224001869559288,-0.015867171809077263,-0.006905701477080584,0.013737576082348824,-0.035718537867069244,-0.016483910381793976,-0.1263982504606247,-0.06954549252986908,0.0002277344756294042,-0.01850198395550251,-0.06310324370861053,0.01916152611374855,-0.20805054903030396,0.0685754269361496,0.0006693109753541648,0.025744326412677765,-0.05636793002486229,-0.027523603290319443,-0.18324588239192963,-0.1278272122144699,-0.002238490153104067
-0.0021354537457227707,-0.008297060616314411,0.33864808082580566,-0.045661065727472305,-0.02437036670744419,0.006164668593555689,0.9986406564712524,-0.0017800380010157824,0.007716591004282236,0.00036058598197996616,-0.12072532624006271,-0.011105683632194996,-0.0058395639061927795,-0.2185562402009964,0.09891857206821442,-0.13215866684913635,0.04995523765683174,0.8581569790840149,0.8523271083831787,0.8925617933273315,0.9440023303031921,-1.7052770853042603,-1.643165111541748,-1.4992890357971191,-1.471560001373291,0.04272332787513733,0.05781087279319763,0.16007448732852936,0.16756503283977509,0.027700889855623245,0.028378667309880257,-0.08766281604766846,0.050301868468523026,-0.027589671313762665,0.023394878953695297,-0.04443037882447243,0.08191081136465073,-0.1712915003299713,-0.10743802040815353,0.03659607470035553,-0.18121692538261414,0.08423176407814026,0.030498355627059937,0.25921890139579773,-0.08982270956039429,0.03343625366687775,0.25909528136253357,0.13812655210494995,0.036292411386966705,0.005737747065722942,-0.04018209129571915,0.016544656828045845,-0.16320869326591492,-0.015123159624636173,-0.007917552255094051,0.01574019342660904,-0.0442672073841095,-0.019091375172138214,-0.17379514873027802,-0.06764541566371918,-0.0027653733268380165,-0.029414938762784004,-0.08405962586402893,0.022285055369138718,-0.29270145297050476,0.10480868816375732,0.0019397721625864506,0.03855447843670845,-0.07960996776819229,-0.031050315126776695,-0.27571484446525574,-0.15785811841487885,-0.005388061515986919
-0.0021500010043382645,-0.008232382126152515,0.33865058422088623,-0.04606107249855995,-0.024347607046365738,0.0058563705533742905,0.9986247420310974,-1.631514896871522e-05,0.01010230090469122,-0.0016690893098711967,-0.13194730877876282,-0.012242645025253296,-0.00637981528416276,-0.2182004600763321,0.09940068423748016,-0.13082389533519745,0.05135316401720047,0.85838782787323,0.8525640368461609,0.8918306827545166,0.9444214701652527,-1.7055071592330933,-1.6429693698883057,-1.4996602535247803,-1.4708771705627441,0.04427982494235039,0.060330480337142944,0.1694592386484146,0.17779400944709778,0.03403255343437195,0.03872239217162132,-0.07776397466659546,0.0953904464840889,-0.01570606231689453,0.032824788242578506,-0.07067398726940155,0.052067436277866364,-0.17120856046676636,-0.10744057595729828,0.036603741347789764,-0.18121705949306488,0.08419618010520935,0.03051723539829254,0.25899291038513184,-0.08981455862522125,0.033447057008743286,0.25923967361450195,0.13816717267036438,0.036223068833351135,0.011318719014525414,-0.04077855870127678,0.013820087537169456,-0.17415082454681396,-0.03418111801147461,-0.012221976183354855,0.022455956786870956,-0.045656315982341766,-0.023615876212716103,-0.18577013909816742,-0.08862988650798798,-0.0011974077206104994,-0.02871902659535408,-0.08874458074569702,0.025622596964240074,-0.314935564994812,0.11883757263422012,0.002759129973128438,0.04917975515127182,-0.08274941146373749,-0.028582502156496048,-0.2956427037715912,-0.1752065271139145,-0.005317321978509426
-0.0021500326693058014,-0.008148116990923882,0.33863723278045654,-0.04651244357228279,-0.02426905743777752,0.005548221990466118,0.9986074566841125,-0.00013032733113504946,0.010789849795401096,-0.002738914918154478,-0.12892763316631317,-0.012077984400093555,-0.006216869689524174,-0.21783138811588287,0.09990327805280685,-0.12940970063209534,0.052835382521152496,0.8586721420288086,0.8528876304626465,0.8911819458007812,0.9452176690101624,-1.70563805103302,-1.6426955461502075,-1.5002493858337402,-1.4704433679580688,0.03930945321917534,0.05701058357954025,0.16184581816196442,0.17708122730255127,0.03777525946497917,0.047143176198005676,-0.06411556899547577,0.1262190341949463,-0.007653194945305586,0.031383831053972244,-0.0909370556473732,0.025114528834819794,-0.17110517621040344,-0.10744103044271469,0.03660162538290024,-0.18120846152305603,0.08415564894676208,0.03052903711795807,0.25874441862106323,-0.08979290723800659,0.03344801068305969,0.2594204545021057,0.13823530077934265,0.03615643084049225,0.013263145461678505,-0.03729243576526642,0.011161141097545624,-0.16497765481472015,-0.04507884383201599,-0.014211323112249374,0.02438882179558277,-0.04283793270587921,-0.023750223219394684,-0.17877069115638733,-0.09511281549930573,-8.622358291177079e-05,-0.028456702828407288,-0.08501344174146652,0.026984024792909622,-0.30510449409484863,0.12610162794589996,0.00395548390224576,0.053287383168935776,-0.08014856278896332,-0.023996993899345398,-0.29142773151397705,-0.17896437644958496,-0.004710839595645666
-0.002151263877749443,-0.008058005943894386,0.3386136293411255,-0.04696352407336235,-0.02414655312895775,0.005275434348732233,0.9985908269882202,-0.000896342215128243,0.01105416938662529,-0.0013701199786737561,-0.12174911051988602,-0.01151465903967619,-0.005843621212989092,-0.21750274300575256,0.10037901252508163,-0.12806004285812378,0.05431296303868294,0.8589867353439331,0.8532803058624268,0.8906470537185669,0.9462704658508301,-1.7057013511657715,-1.6424342393875122,-1.5010085105895996,-1.4702332019805908,0.03029230237007141,0.051161833107471466,0.14957328140735626,0.16808654367923737,0.03186933696269989,0.04472895339131355,-0.07672048360109329,0.12593770027160645,-0.004479071591049433,0.024680079892277718,-0.0823407843708992,0.0322490818798542,-0.17101143300533295,-0.10744194686412811,0.036599740386009216,-0.18120940029621124,0.08410858362913132,0.030543938279151917,0.2584720849990845,-0.08977143466472626,0.033445388078689575,0.25961077213287354,0.13829384744167328,0.03609004616737366,0.010955903679132462,-0.03231872618198395,0.011031499132514,-0.14908277988433838,-0.04103797301650047,-0.012850378639996052,0.021497292444109917,-0.03875857591629028,-0.020329957827925682,-0.1665046662092209,-0.08502005785703659,-0.00045431696344166994,-0.03194504231214523,-0.07865343987941742,0.0252904761582613,-0.286234587430954,0.13164012134075165,0.005286223255097866,0.053301289677619934,-0.07473096996545792,-0.021672448143363,-0.2745416462421417,-0.1845000833272934,-0.0032670062500983477
-0.0021593384444713593,-0.007966285571455956,0.3386026620864868,-0.047406286001205444,-0.024041932076215744,0.005045707803219557,0.9985736012458801,-0.0012659257045015693,0.013194036670029163,-0.0011150939390063286,-0.1285160630941391,-0.012268061749637127,-0.006143970414996147,-0.21725045144557953,0.1008058562874794,-0.1268129199743271,0.05571407079696655,0.8592528104782104,0.8536538481712341,0.890007495880127,0.9473208785057068,-1.7057384252548218,-1.6422280073165894,-1.5016945600509644,-1.4699645042419434,0.03404448926448822,0.053038500249385834,0.1538899540901184,0.17887277901172638,0.02766077034175396,0.04195503890514374,-0.09141543507575989,0.135482519865036,0.002169860526919365,0.02482781559228897,-0.07964837551116943,0.0366622656583786,-0.17092597484588623,-0.10744094103574753,0.03660469502210617,-0.18121877312660217,0.08405473083257675,0.03056701272726059,0.2581824064254761,-0.0897468775510788,0.03345315158367157,0.2598171532154083,0.13834890723228455,0.036035023629665375,0.01067406591027975,-0.03302653878927231,0.010923780500888824,-0.15930554270744324,-0.044546712189912796,-0.013824493624269962,0.020679786801338196,-0.03923064097762108,-0.02101176790893078,-0.17530617117881775,-0.08339186012744904,-0.0011316622840240598,-0.03594120219349861,-0.08026537299156189,0.02549790032207966,-0.29861021041870117,0.14221224188804626,0.006052603013813496,0.057328350841999054,-0.07764890044927597,-0.022563086822628975,-0.29061174392700195,-0.20026829838752747,-0.002948878798633814
-0.0021694153547286987,-0.007855393923819065,0.3385929465293884,-0.04789111018180847,-0.023950548842549324,0.004829764366149902,0.9985536932945251,-0.001400200417265296,0.01612362079322338,-0.0002378491044510156,-0.14307145774364471,-0.013796094805002213,-0.00681626982986927,-0.21696637570858002,0.10124824941158295,-0.12552936375141144,0.05720650032162666,0.8594828844070435,0.8540037870407104,0.8892446756362915,0.9484511017799377,-1.7057206630706787,-1.64202082157135,-1.502359390258789,-1.4696590900421143,0.036934033036231995,0.059825967997312546,0.17563456296920776,0.2066045105457306,0.027201935648918152,0.0406954400241375,-0.11571270227432251,0.1634431928396225,0.00852377712726593,0.021525021642446518,-0.06747995316982269,0.02102275937795639,-0.1708267629146576,-0.10745104402303696,0.03660120815038681,-0.18123513460159302,0.08399122208356857,0.030582040548324585,0.25787368416786194,-0.0897042378783226,0.0334651842713356,0.2600520849227905,0.13841170072555542,0.03598104417324066,0.011802027933299541,-0.03485466539859772,0.012158125638961792,-0.17609353363513947,-0.052120141685009,-0.015830665826797485,0.020414317026734352,-0.04261493310332298,-0.021696627140045166,-0.19695189595222473,-0.08110065013170242,-0.0026296693831682205,-0.04025815799832344,-0.08897952735424042,0.026605352759361267,-0.33614781498908997,0.15044257044792175,0.005602278281003237,0.06424808502197266,-0.08707547932863235,-0.021545540541410446,-0.3314290940761566,-0.2168375849723816,-0.003869824344292283
-0.0021816398948431015,-0.007721390575170517,0.33859115839004517,-0.04844473674893379,-0.023850740864872932,0.0046209366992115974,0.9985303282737732,-0.0022658584639430046,0.019011208787560463,0.00045500544365495443,-0.15579567849636078,-0.01519573200494051,-0.007394128479063511,-0.21665850281715393,0.10174710303544998,-0.12406417727470398,0.058929964900016785,0.8597098588943481,0.8543428778648376,0.8882787823677063,0.949813961982727,-1.7056496143341064,-1.6418416500091553,-1.5029224157333374,-1.4694833755493164,0.03903810679912567,0.06118284538388252,0.18232361972332,0.22003310918807983,0.02629978209733963,0.03629179671406746,-0.12649565935134888,0.1687815934419632,0.015188566409051418,0.024439796805381775,-0.06457792222499847,0.02947608381509781,-0.1707133948802948,-0.1074710562825203,0.03660324960947037,-0.18127691745758057,0.08390362560749054,0.030606642365455627,0.2575308382511139,-0.0896681472659111,0.033471062779426575,0.26031410694122314,0.1384630799293518,0.03594358265399933,0.01207295898348093,-0.03596261516213417,0.012975314632058144,-0.19026623666286469,-0.05936934053897858,-0.017676640301942825,0.019279172644019127,-0.04398997128009796,-0.022986331954598427,-0.2110864371061325,-0.08121713995933533,-0.0034224828705191612,-0.04326261207461357,-0.0923776850104332,0.02830798178911209,-0.3564947843551636,0.15599527955055237,0.005431950557976961,0.06760752201080322,-0.0919782966375351,-0.02354363724589348,-0.35600316524505615,-0.23342713713645935,-0.003829563269391656
-0.002200564369559288,-0.007562527898699045,0.33859559893608093,-0.049059417098760605,-0.02375933714210987,0.004422380588948727,0.9985034465789795,-0.0052637699991464615,0.021440522745251656,0.002024882473051548,-0.16741503775119781,-0.016535431146621704,-0.007917842827737331,-0.21633312106132507,0.10225768387317657,-0.12254345417022705,0.06076539680361748,0.8599298000335693,0.8546459078788757,0.8872236609458923,0.9512221813201904,-1.705523133277893,-1.6416374444961548,-1.5034606456756592,-1.4692376852035522,0.042353931814432144,0.061705563217401505,0.19346611201763153,0.23262445628643036,0.01906086504459381,0.02584185265004635,-0.1471152901649475,0.1718086302280426,0.01932157576084137,0.02167651802301407,-0.0405709408223629,0.037938281893730164,-0.17058271169662476,-0.10749613493680954,0.03660288453102112,-0.18133676052093506,0.08380751311779022,0.030627064406871796,0.2571760416030884,-0.0896022617816925,0.03348614275455475,0.2605881690979004,0.13853269815444946,0.03590361028909683,0.008103534579277039,-0.03785422444343567,0.014905945397913456,-0.2054579257965088,-0.05805325508117676,-0.017719727009534836,0.013326030224561691,-0.045422010123729706,-0.022555554285645485,-0.22436495125293732,-0.06960303336381912,-0.005446195602416992,-0.047536931931972504,-0.09689806401729584,0.028112052008509636,-0.3790408670902252,0.14999358355998993,0.0038225522730499506,0.0680990070104599,-0.09680414944887161,-0.024608366191387177,-0.3787996172904968,-0.24763600528240204,-0.003794689429923892
-0.0022440850734710693,-0.0073838140815496445,0.3386121094226837,-0.04973364993929863,-0.023687992244958878,0.004240893758833408,0.9984725117683411,-0.006777544971555471,0.023177005350589752,0.003727006260305643,-0.17566406726837158,-0.01758817955851555,-0.008285732008516788,-0.21597933769226074,0.10277202725410461,-0.12093003839254379,0.06270546466112137,0.8600882887840271,0.8548606634140015,0.8859965801239014,0.9526551961898804,-1.7053622007369995,-1.6414575576782227,-1.5037983655929565,-1.468921184539795,0.04089383780956268,0.06118805333971977,0.19960346817970276,0.24026985466480255,0.013232224620878696,0.01765599474310875,-0.1702786087989807,0.1641465723514557,0.021927760913968086,0.01744239032268524,-0.006093118339776993,0.05193376541137695,-0.17046311497688293,-0.10753986239433289,0.0366060733795166,-0.18144769966602325,0.08369571715593338,0.030649997293949127,0.2568056285381317,-0.0895245373249054,0.03350125998258591,0.26085802912712097,0.13861295580863953,0.03587055951356888,0.005592648405581713,-0.03810543194413185,0.016767583787441254,-0.2125462144613266,-0.055875830352306366,-0.017357338219881058,0.009143048897385597,-0.046184659004211426,-0.0212964229285717,-0.23319220542907715,-0.058394599705934525,-0.007179792504757643,-0.04946550726890564,-0.09924409538507462,0.026075495406985283,-0.3924248516559601,0.13688932359218597,0.0017132082721218467,0.06762466579675674,-0.1000388041138649,-0.026138953864574432,-0.39374738931655884,-0.25599727034568787,-0.003690698416903615
-0.0023006293922662735,-0.007190265692770481,0.33864280581474304,-0.0504511334002018,-0.023664025589823723,0.004077705554664135,0.9984378218650818,-0.008333751931786537,0.024347970262169838,0.005813965108245611,-0.17985685169696808,-0.018267780542373657,-0.00847762543708086,-0.21563878655433655,0.10328274220228195,-0.11926452815532684,0.06470905989408493,0.8601990342140198,0.8550080060958862,0.884576678276062,0.9540234804153442,-1.7051787376403809,-1.6413116455078125,-1.5038490295410156,-1.4684882164001465,0.041463933885097504,0.058874018490314484,0.19968946278095245,0.2455464005470276,-0.003777705831453204,-0.0006049494841136038,-0.206866055727005,0.13570471107959747,0.02319357357919216,0.01019824668765068,0.039149120450019836,0.07226654887199402,-0.17032870650291443,-0.10758966952562332,0.03660600632429123,-0.18157443404197693,0.0835719034075737,0.030670396983623505,0.2564530670642853,-0.08943349123001099,0.03351934999227524,0.261136919260025,0.13870081305503845,0.03585262596607208,-0.00030492967925965786,-0.03872378543019295,0.01878221333026886,-0.21895816922187805,-0.04134597256779671,-0.014369826763868332,0.0013537431368604302,-0.04609576612710953,-0.018904700875282288,-0.237452894449234,-0.03369797393679619,-0.010147037915885448,-0.05391358584165573,-0.09903331845998764,0.021654099225997925,-0.3960016965866089,0.1273631602525711,0.00034704894642345607,0.06181811913847923,-0.1025247871875763,-0.028925595805048943,-0.40365123748779297,-0.24944785237312317,-0.0043615177273750305
-0.002369571477174759,-0.006986973807215691,0.3386916518211365,-0.05118998512625694,-0.02371913008391857,0.003939753398299217,0.9983994364738464,-0.007822629064321518,0.02488100528717041,0.00822748988866806,-0.1816900372505188,-0.018724806606769562,-0.008586641401052475,-0.2152923345565796,0.10377353429794312,-0.11759911477565765,0.06675784289836884,0.8601670265197754,0.8550027012825012,0.882850706577301,0.9551551938056946,-1.7049850225448608,-1.6412261724472046,-1.503522515296936,-1.4678847789764404,0.03899076581001282,0.053905025124549866,0.193827286362648,0.24028384685516357,-0.021476464346051216,-0.016760505735874176,-0.23597632348537445,0.10548600554466248,0.024756956845521927,0.005244689993560314,0.07611808180809021,0.08679968118667603,-0.1701917052268982,-0.10765478760004044,0.03659789264202118,-0.1817212700843811,0.08343823999166489,0.030682355165481567,0.2561146020889282,-0.08933238685131073,0.03354177623987198,0.261409193277359,0.1387769728899002,0.03585132956504822,-0.004426876083016396,-0.03842724859714508,0.020764073356986046,-0.22007215023040771,-0.02590925246477127,-0.011084623634815216,-0.003563598496839404,-0.04511633515357971,-0.016042044386267662,-0.23636354506015778,-0.012857847847044468,-0.012427397072315216,-0.05573748052120209,-0.09696336090564728,0.01830883137881756,-0.3913768231868744,0.11944590508937836,-0.0005888206069357693,0.05601290613412857,-0.10179300606250763,-0.029934179037809372,-0.40148186683654785,-0.23410674929618835,-0.005082673393189907
-0.0024353880435228348,-0.006780197843909264,0.338760107755661,-0.05193580314517021,-0.02382608689367771,0.0038312149699777365,0.9983588457107544,-0.007150664925575256,0.026557985693216324,0.009331884793937206,-0.18895485997200012,-0.019758353009819984,-0.008972729556262493,-0.21496707201004028,0.10422348976135254,-0.1159827709197998,0.06876171380281448,0.8599874377250671,0.8548633456230164,0.8808826208114624,0.9560350179672241,-1.7047785520553589,-1.641182541847229,-1.5028877258300781,-1.467160701751709,0.03942551091313362,0.052984580397605896,0.1970641314983368,0.25258493423461914,-0.023080503568053246,-0.026149597018957138,-0.25781723856925964,0.1084892675280571,0.028280427679419518,0.00424911780282855,0.09124134480953217,0.08193201571702957,-0.1700572371482849,-0.1077318862080574,0.03659205883741379,-0.18187935650348663,0.08329693228006363,0.030695267021656036,0.255792498588562,-0.08922354876995087,0.03356538712978363,0.26166096329689026,0.1388511061668396,0.03586259484291077,-0.0033972207456827164,-0.03886580467224121,0.021950962021946907,-0.22754381597042084,-0.028912445530295372,-0.011889162473380566,-0.005411621183156967,-0.04560195654630661,-0.015734652057290077,-0.24373894929885864,-0.0036108840722590685,-0.013968623243272305,-0.05864233151078224,-0.09885261952877045,0.01772932894527912,-0.40278470516204834,0.12442898750305176,-0.0006904671317897737,0.05759374424815178,-0.10613573342561722,-0.029521990567445755,-0.42085251212120056,-0.23487097024917603,-0.005897174589335918
-0.002494465559720993,-0.0065579889342188835,0.338838130235672,-0.05271177366375923,-0.02395458146929741,0.0037368268240243196,0.9983154535293579,-0.004129693377763033,0.029616443440318108,0.00920519046485424,-0.19586887955665588,-0.020788855850696564,-0.009353657253086567,-0.2146386355161667,0.10466473549604416,-0.1143389493227005,0.07086863368749619,0.8597956299781799,0.854645311832428,0.8787325024604797,0.956940770149231,-1.7045427560806274,-1.641147255897522,-1.5021260976791382,-1.466477632522583,0.04848175123333931,0.058239441365003586,0.20961450040340424,0.2617146670818329,-0.02744889073073864,-0.028480006381869316,-0.2755630910396576,0.11471027135848999,0.03325473889708519,0.001827448490075767,0.09360753744840622,0.06775578111410141,-0.16989505290985107,-0.10781154036521912,0.03658656030893326,-0.18204569816589355,0.08315186947584152,0.030707158148288727,0.25546371936798096,-0.08910348266363144,0.03359094262123108,0.2619291841983795,0.13891728222370148,0.035891950130462646,-0.0003256527706980705,-0.04035613685846329,0.021936440840363503,-0.2433699369430542,-0.03154708817601204,-0.012831874191761017,-0.0028927118983119726,-0.04622403159737587,-0.016628660261631012,-0.2563685476779938,-0.0005838246433995664,-0.015162141062319279,-0.05992111191153526,-0.10251741856336594,0.018190529197454453,-0.42407169938087463,0.13697287440299988,-0.0003669511352200061,0.06061968579888344,-0.10798172652721405,-0.028881283476948738,-0.43732890486717224,-0.2293078601360321,-0.007045271806418896
-0.002529498189687729,-0.006310945842415094,0.3389149606227875,-0.05351818725466728,-0.024090083315968513,0.003659716108813882,0.9982695579528809,-0.0012775432551279664,0.032012779265642166,0.008497732691466808,-0.19832275807857513,-0.02137322537600994,-0.009526630863547325,-0.21423442661762238,0.10515102744102478,-0.11259056627750397,0.07305113226175308,0.8595665097236633,0.8544070720672607,0.8764338493347168,0.9578971862792969,-1.7042651176452637,-1.6411324739456177,-1.5013455152511597,-1.4659124612808228,0.05356808006763458,0.060435593128204346,0.21227876842021942,0.26899826526641846,-0.023855801671743393,-0.025399474427103996,-0.27080395817756653,0.12612415850162506,0.040370769798755646,0.0018316067289561033,0.0780966728925705,0.04040719196200371,-0.16969946026802063,-0.10790805518627167,0.036576807498931885,-0.18219542503356934,0.0829956978559494,0.030711397528648376,0.25513067841529846,-0.08899229019880295,0.033620066940784454,0.26221469044685364,0.138991579413414,0.035931169986724854,0.004882262088358402,-0.03972374275326729,0.02063709683716297,-0.24963007867336273,-0.043167635798454285,-0.015429474413394928,0.0011435884516686201,-0.0451178178191185,-0.017640121281147003,-0.260722279548645,-0.004550383426249027,-0.015112080611288548,-0.05805743485689163,-0.10228012502193451,0.020285714417696,-0.43061578273773193,0.14639459550380707,7.914646266726777e-05,0.06230933964252472,-0.1084756851196289,-0.02645847201347351,-0.44833990931510925,-0.21523728966712952,-0.008577353321015835
-0.00254032202064991,-0.006044630892574787,0.33898547291755676,-0.0543416328728199,-0.024185143411159515,0.0036053876392543316,0.9982229471206665,0.0020319579634815454,0.032006923109292984,0.006778701674193144,-0.20017032325267792,-0.021906418725848198,-0.009654971770942211,-0.21378779411315918,0.1056550070643425,-0.11082068085670471,0.07529453933238983,0.8593672513961792,0.8541952967643738,0.8741754293441772,0.9589493274688721,-1.703928828239441,-1.6411166191101074,-1.5006941556930542,-1.4655762910842896,0.05085257440805435,0.05315409600734711,0.21477985382080078,0.26924654841423035,-0.01009336393326521,-0.01883784867823124,-0.23994871973991394,0.15769892930984497,0.0487738698720932,0.009419257752597332,0.04922247305512428,-0.002997713629156351,-0.16948112845420837,-0.10801433026790619,0.03657250851392746,-0.18233852088451385,0.08283257484436035,0.03071838617324829,0.25479134917259216,-0.0888805016875267,0.03364711254835129,0.26248472929000854,0.1390613317489624,0.03596373647451401,0.013323077000677586,-0.0386640727519989,0.017963217571377754,-0.24616926908493042,-0.06504547595977783,-0.019915737211704254,0.007485192734748125,-0.04330424219369888,-0.02000817470252514,-0.2539144456386566,-0.018376410007476807,-0.013284770771861076,-0.05011308565735817,-0.10384934395551682,0.024249976500868797,-0.4349890649318695,0.14328283071517944,-0.0007360800518654287,0.06719415634870529,-0.10836273431777954,-0.021249597892165184,-0.4513690769672394,-0.20445860922336578,-0.00941079668700695
-0.002523314207792282,-0.005777306854724884,0.339042603969574,-0.05518030747771263,-0.02420905977487564,0.0035690879449248314,0.9981765151023865,0.004622843116521835,0.029461126774549484,0.004454285372048616,-0.18801897764205933,-0.020896289497613907,-0.0090787960216403,-0.2133631408214569,0.1060982346534729,-0.10902903974056244,0.07753995805978775,0.8592837452888489,0.8540389537811279,0.8721741437911987,0.9602644443511963,-1.7035220861434937,-1.6410385370254517,-1.5002837181091309,-1.4656016826629639,0.038052093237638474,0.03891938179731369,0.18971297144889832,0.24485422670841217,0.0025179365184158087,-0.013847201131284237,-0.19144734740257263,0.18387150764465332,0.05276290327310562,0.012305079959332943,0.01729634776711464,-0.06354711204767227,-0.16923180222511292,-0.10812421143054962,0.03657318651676178,-0.1824750155210495,0.08267102390527725,0.03072930872440338,0.2544773519039154,-0.08878262341022491,0.03367317467927933,0.26274770498275757,0.13913287222385406,0.035997629165649414,0.019388899207115173,-0.03338319808244705,0.013782372698187828,-0.2192821204662323,-0.07884370535612106,-0.02206513099372387,0.011123321019113064,-0.0378899946808815,-0.020407896488904953,-0.22681643068790436,-0.023667003959417343,-0.011122569441795349,-0.0392838791012764,-0.09439297020435333,0.025555582717061043,-0.39631807804107666,0.13031494617462158,-0.0009416930261068046,0.06492139399051666,-0.09908692538738251,-0.012208213098347187,-0.41835492849349976,-0.16709932684898376,-0.010331427678465843
-0.002484366297721863,-0.005531727336347103,0.3390791118144989,-0.05596782639622688,-0.02416309341788292,0.003572458401322365,0.9981337189674377,0.004399532452225685,0.02490156516432762,0.0028578771743923426,-0.16021157801151276,-0.018061824142932892,-0.007721287664026022,-0.21304622292518616,0.10642293095588684,-0.10744719952344894,0.07958195358514786,0.8593048453330994,0.8539234399795532,0.8705779910087585,0.9617980122566223,-1.7030822038650513,-1.6409357786178589,-1.500139594078064,-1.4661309719085693,0.02846580184996128,0.02634204924106598,0.15445846319198608,0.2032303661108017,0.010535643436014652,-0.006673330906778574,-0.1383104771375656,0.17517130076885223,0.05341598764061928,0.013754002749919891,0.008772537112236023,-0.07676122337579727,-0.16898083686828613,-0.10822714865207672,0.03657699376344681,-0.1826096475124359,0.08251698315143585,0.030741281807422638,0.25420647859573364,-0.08869076520204544,0.03369142860174179,0.26297008991241455,0.1391969621181488,0.03604453057050705,0.020505579188466072,-0.02682097628712654,0.009553471580147743,-0.18083539605140686,-0.08341957628726959,-0.021973831579089165,0.01177082397043705,-0.030296362936496735,-0.018236692994832993,-0.18560901284217834,-0.028002478182315826,-0.008160908706486225,-0.026560219004750252,-0.07787185907363892,0.022600268945097923,-0.32856476306915283,0.09269662946462631,-0.0025016528088599443,0.05695880576968193,-0.08235429227352142,-0.006993812508881092,-0.35136863589286804,-0.13825008273124695,-0.008664080873131752
-0.0024479199200868607,-0.005324020981788635,0.33910343050956726,-0.05663509666919708,-0.024096304550766945,0.0036078263074159622,0.9980976581573486,0.00284319999627769,0.018279431387782097,0.001066145719960332,-0.11859651654958725,-0.013531032018363476,-0.005699316971004009,-0.21280859410762787,0.10664187371730804,-0.10615944117307663,0.08127700537443161,0.8593919277191162,0.8538672924041748,0.8694246411323547,0.9632595181465149,-1.7026362419128418,-1.6408206224441528,-1.5000665187835693,-1.4667716026306152,0.011125832796096802,0.009536853060126305,0.09475938975811005,0.13314256072044373,0.010562811978161335,-0.0017370949499309063,-0.07027816027402878,0.14209353923797607,0.04741501063108444,0.0061355894431471825,-0.004264232702553272,-0.08598542958498001,-0.16875115036964417,-0.10832002758979797,0.036578573286533356,-0.18272118270397186,0.08238333463668823,0.03074868768453598,0.2540157437324524,-0.08861446380615234,0.03370635211467743,0.26315781474113464,0.1392461061477661,0.03608965873718262,0.016414470970630646,-0.016627375036478043,0.004541454371064901,-0.12264710664749146,-0.07115048170089722,-0.017897829413414,0.008266335353255272,-0.019516777247190475,-0.013278143480420113,-0.1275901347398758,-0.018954118713736534,-0.005643098149448633,-0.012694531120359898,-0.0509994775056839,0.01745755970478058,-0.22138816118240356,0.049420133233070374,-0.003065606579184532,0.03931788355112076,-0.05546487867832184,-0.001100631314329803,-0.24463869631290436,-0.08414888381958008,-0.006943951826542616
-0.0024238061159849167,-0.005171916447579861,0.339111864566803,-0.05711673945188522,-0.024013102054595947,0.0036951047368347645,0.9980718493461609,0.003064493415877223,0.010320750065147877,-0.00044834340224042535,-0.07643890380859375,-0.008796146139502525,-0.003659826470538974,-0.21271614730358124,0.10672129690647125,-0.10536954551935196,0.08238708227872849,0.8594807982444763,0.8538532853126526,0.8688385486602783,0.9644445776939392,-1.7022405862808228,-1.6407701969146729,-1.5001025199890137,-1.4674893617630005,-0.003688883502036333,-0.00786060281097889,0.03518953546881676,0.0702197328209877,0.012897824868559837,0.003841828554868698,-0.01118744257837534,0.13116544485092163,0.04548252373933792,0.0021102738101035357,-0.0069872066378593445,-0.12166300415992737,-0.16859114170074463,-0.10839502513408661,0.03658057749271393,-0.18282300233840942,0.08227452635765076,0.030755192041397095,0.2539120018482208,-0.08854833245277405,0.033717088401317596,0.2632589042186737,0.13928259909152985,0.0361214354634285,0.015340947546064854,-0.008079109713435173,-0.0007283240556716919,-0.06568638980388641,-0.06512264907360077,-0.015217551030218601,0.007196780759841204,-0.009710051119327545,-0.008455374278128147,-0.06799560785293579,-0.013775063678622246,-0.0025932095013558865,0.0019206675933673978,-0.025230158120393753,0.01072342973202467,-0.11350813508033752,0.005149821285158396,-0.003605369245633483,0.02525823935866356,-0.03146585449576378,0.008872506208717823,-0.14507925510406494,-0.02621912583708763,-0.006119170691817999
-0.002398017793893814,-0.005085877608507872,0.33910810947418213,-0.057384394109249115,-0.023904306814074516,0.003829853143543005,0.998058557510376,0.002579173306003213,0.0025379201397299767,-0.002355697099119425,-0.05603634938597679,-0.006479073781520128,-0.0026698228903114796,-0.21274682879447937,0.10665625333786011,-0.10507572442293167,0.08297239989042282,0.8595877885818481,0.8538854122161865,0.8687456846237183,0.9655378460884094,-1.7018613815307617,-1.6407524347305298,-1.500161051750183,-1.4685044288635254,-0.018159830942749977,-0.023273387923836708,-0.0198210459202528,0.0012092893011868,0.01793183758854866,0.011797892861068249,0.054073989391326904,0.1082039475440979,0.04529246687889099,0.003968109842389822,-0.020021585747599602,-0.1320786327123642,-0.16848871111869812,-0.10845499485731125,0.03658497333526611,-0.1828964799642563,0.08219478279352188,0.03076460212469101,0.25389087200164795,-0.0885143056511879,0.03370721638202667,0.26330530643463135,0.13926957547664642,0.03617178648710251,0.015180755406618118,-0.005575953517109156,-0.0047749681398272514,-0.030306531116366386,-0.0658511146903038,-0.014503171667456627,0.007928287610411644,-0.006632804870605469,-0.0072922674007713795,-0.031230857595801353,-0.019373422488570213,0.0002696964656934142,0.016667766496539116,-0.007630698382854462,0.00778939388692379,-0.03232366219162941,-0.037863098084926605,-0.004948268178850412,0.012301156297326088,-0.012364242225885391,0.012889997102320194,-0.059861987829208374,0.01700764335691929,-0.004950492177158594
-0.002376522868871689,-0.005064666271209717,0.3390882909297943,-0.057449061423540115,-0.023758720606565475,0.003999191336333752,0.9980576634407043,0.0037769179325550795,-0.004467634484171867,-0.004451605025678873,-0.07092955708503723,-0.008210789412260056,-0.003357202745974064,-0.21289876103401184,0.10646190494298935,-0.10524224489927292,0.08298186212778091,0.8597382307052612,0.853983998298645,0.8691973090171814,0.9664408564567566,-1.7014840841293335,-1.6407192945480347,-1.500327706336975,-1.4696061611175537,-0.03255600109696388,-0.0409390926361084,-0.07528423517942429,-0.05004318431019783,0.028410855680704117,0.020511476323008537,0.12890398502349854,0.12274686247110367,0.042390286922454834,0.009196856990456581,-0.06044623255729675,-0.18701986968517303,-0.16844546794891357,-0.10849423706531525,0.03658795356750488,-0.18294274806976318,0.08214520663022995,0.03077191859483719,0.25394272804260254,-0.08851003646850586,0.033679328858852386,0.2632889449596405,0.13923512399196625,0.036208637058734894,0.018862031400203705,-0.012487447820603848,-0.005553147755563259,-0.02998621203005314,-0.07329345494508743,-0.016029322519898415,0.012383969500660896,-0.012470194138586521,-0.010466301813721657,-0.027076179161667824,-0.032835934311151505,0.0020351523999124765,0.03227278217673302,-0.0007083568489179015,0.012298275716602802,0.011911110952496529,-0.06722847372293472,-0.0062751201912760735,0.0059680817648768425,-0.008018569089472294,0.0189000703394413,-0.028351053595542908,0.06113642826676369,-0.007014233618974686
-0.0023450609296560287,-0.0051016854122281075,0.33905160427093506,-0.0573389045894146,-0.02356214076280594,0.004193182103335857,0.9980679154396057,0.004773610271513462,-0.009327216073870659,-0.00580613361671567,-0.09222860634326935,-0.0106562664732337,-0.00432671420276165,-0.2131701409816742,0.1061200276017189,-0.10586981475353241,0.08256442844867706,0.8599749803543091,0.8541547656059265,0.8702735900878906,0.9674643278121948,-1.7011305093765259,-1.6406424045562744,-1.5008323192596436,-1.4711658954620361,-0.04055124521255493,-0.05017118155956268,-0.10799326747655869,-0.08750498294830322,0.03197246044874191,0.026697799563407898,0.17655789852142334,0.1136702299118042,0.04054373502731323,0.01142529770731926,-0.07579094171524048,-0.19315634667873383,-0.168441504240036,-0.10851103067398071,0.036595575511455536,-0.1829565167427063,0.08213287591934204,0.030780546367168427,0.254061758518219,-0.08851411938667297,0.03365460783243179,0.26323580741882324,0.13916786015033722,0.03627730906009674,0.02095942199230194,-0.021150536835193634,-0.005080295726656914,-0.04316204786300659,-0.07650014758110046,-0.016978086903691292,0.015997691079974174,-0.020645352080464363,-0.013737971894443035,-0.03830351307988167,-0.042539097368717194,0.0024620129261165857,0.04470169544219971,-0.0008945357985794544,0.015457922592759132,0.02688959799706936,-0.09787513315677643,-0.008825967088341713,0.0024574417620897293,-0.008219288662075996,0.01741587370634079,-0.014135731384158134,0.07803104817867279,-0.007677977439016104
-0.002305174246430397,-0.005179576575756073,0.33900266885757446,-0.05710434913635254,-0.023338153958320618,0.004404204897582531,0.9980856776237488,0.004606917500495911,-0.013633414171636105,-0.005714253522455692,-0.11140894144773483,-0.012819989584386349,-0.005173541139811277,-0.21350815892219543,0.10570209473371506,-0.10677089542150497,0.08183403313159943,0.8602409362792969,0.854377031326294,0.8717461824417114,0.9684122204780579,-1.7007925510406494,-1.6405470371246338,-1.501464605331421,-1.4727767705917358,-0.051511216908693314,-0.06308566778898239,-0.14865224063396454,-0.12762847542762756,0.029123621061444283,0.02457171306014061,0.2156260907649994,0.09268561005592346,0.03504359722137451,0.01284452248364687,-0.09677804261445999,-0.20200450718402863,-0.16846682131290436,-0.10851673781871796,0.03660309314727783,-0.18294113874435425,0.08213967084884644,0.030786745250225067,0.2542419135570526,-0.08853842318058014,0.033624447882175446,0.2631665766239166,0.13907767832279205,0.03633484989404678,0.019417259842157364,-0.028162704780697823,-0.003007791470736265,-0.05251409113407135,-0.0693197175860405,-0.015662243589758873,0.015703875571489334,-0.026837743818759918,-0.015188589692115784,-0.04475570097565651,-0.04255500063300133,0.0021031375508755445,0.052014097571372986,0.0021564271301031113,0.019546397030353546,0.05015433579683304,-0.11331812292337418,-0.009620302356779575,-0.0064923884347081184,-0.0069159711711108685,0.017031552270054817,0.0032717783469706774,0.1099381372332573,-0.009466108866035938
-0.002267139032483101,-0.005293728318065405,0.33895519375801086,-0.0567624568939209,-0.02311559021472931,0.004631448071449995,0.9981093406677246,0.007023034151643515,-0.016245825216174126,-0.0069361114874482155,-0.1295427680015564,-0.014817584306001663,-0.005954212509095669,-0.21393804252147675,0.10517538338899612,-0.10801057517528534,0.08076908439397812,0.8604838848114014,0.8545826077461243,0.8735442161560059,0.9691852927207947,-1.700499415397644,-1.6404403448104858,-1.502272129058838,-1.474461555480957,-0.05265653878450394,-0.06609663367271423,-0.15967696905136108,-0.153691828250885,0.03384634107351303,0.030669929459691048,0.23937445878982544,0.08805719017982483,0.039872631430625916,0.021417606621980667,-0.1101781576871872,-0.215776726603508,-0.16853037476539612,-0.10850711911916733,0.03661686182022095,-0.1829138547182083,0.08217263221740723,0.030795641243457794,0.2544613182544708,-0.08855187147855759,0.03361494094133377,0.26304900646209717,0.13898205757141113,0.0364057794213295,0.02433730475604534,-0.03531181812286377,-0.0033931408543139696,-0.06840413063764572,-0.08051446825265884,-0.018330903723835945,0.021807756274938583,-0.03369076922535896,-0.019273320212960243,-0.05833955481648445,-0.0587414912879467,0.0031379605643451214,0.05949674919247627,-0.002383272163569927,0.022495564073324203,0.04411103203892708,-0.1243928000330925,-0.011057461611926556,-0.008354279212653637,-0.007373280357569456,0.01641366444528103,0.009077870287001133,0.12903931736946106,-0.010747217573225498
-0.0022081471979618073,-0.005428867414593697,0.3388980031013489,-0.05635010823607445,-0.022843971848487854,0.004859137814491987,0.9981379508972168,0.011548517271876335,-0.01858004555106163,-0.00937189906835556,-0.15035389363765717,-0.01707298681139946,-0.0068246955052018166,-0.21437688171863556,0.10462459176778793,-0.10934294760227203,0.07948720455169678,0.8607668876647949,0.8548378944396973,0.8755412101745605,0.9699194431304932,-1.7001676559448242,-1.6402608156204224,-1.5031911134719849,-1.476261854171753,-0.05159405246376991,-0.06704611331224442,-0.17286303639411926,-0.17229878902435303,0.04939844459295273,0.04026893153786659,0.2848285436630249,0.11160342395305634,0.04516315460205078,0.03346290439367294,-0.1553281545639038,-0.2522633671760559,-0.1686004102230072,-0.10849006474018097,0.03663196414709091,-0.18285807967185974,0.08221794664859772,0.030804336071014404,0.25469836592674255,-0.08859268575906754,0.03358878940343857,0.2629014551639557,0.13889138400554657,0.03646349161863327,0.03459560126066208,-0.043251097202301025,-0.004587223753333092,-0.08783970028162003,-0.10320691019296646,-0.023460905998945236,0.03174404054880142,-0.041554342955350876,-0.025404077023267746,-0.07592643052339554,-0.08232070505619049,0.004787864629179239,0.07014570385217667,-0.007168452255427837,0.029234085232019424,0.036335062235593796,-0.12559334933757782,-0.0115725202485919,-0.003560362383723259,-0.00983178336173296,0.0183608029037714,0.005444529466331005,0.14158634841442108,-0.011939490213990211
-0.0021123383194208145,-0.005584194324910641,0.33881938457489014,-0.05587765574455261,-0.022488124668598175,0.005077690351754427,0.9981713891029358,0.01295129768550396,-0.021608658134937286,-0.01067899540066719,-0.17158140242099762,-0.019319435581564903,-0.0076612005941569805,-0.21480777859687805,0.10406515002250671,-0.1107848510146141,0.07805011421442032,0.8611786961555481,0.8551738262176514,0.8779177069664001,0.9708507061004639,-1.6997910737991333,-1.6399818658828735,-1.5044866800308228,-1.4783660173416138,-0.058064840734004974,-0.07424800843000412,-0.20275890827178955,-0.19887743890285492,0.056355394423007965,0.05005888268351555,0.33188414573669434,0.11206553131341934,0.04079663008451462,0.03637612611055374,-0.19614984095096588,-0.27562469244003296,-0.16865390539169312,-0.108465775847435,0.036648109555244446,-0.18276788294315338,0.08227387070655823,0.030811160802841187,0.2549569010734558,-0.08864802122116089,0.033554211258888245,0.26275336742401123,0.1388043910264969,0.03651346266269684,0.03770570084452629,-0.05054323747754097,-0.0035980315878987312,-0.10242979228496552,-0.10730846226215363,-0.024573493748903275,0.03694131597876549,-0.04838135093450546,-0.028766926378011703,-0.08871021866798401,-0.09637772291898727,0.005686534568667412,0.0783541277050972,-0.007370125036686659,0.0356609933078289,0.04540613293647766,-0.13082242012023926,-0.011957697570323944,-0.006603349931538105,-0.01141645573079586,0.01872749999165535,0.008280369453132153,0.16484829783439636,-0.013647626154124737
-0.002003772184252739,-0.0057638827711343765,0.3387305736541748,-0.05532338470220566,-0.022089196369051933,0.005304781720042229,0.998210072517395,0.011668224819004536,-0.027263766154646873,-0.009831327944993973,-0.19565707445144653,-0.02181072160601616,-0.008574356324970722,-0.2152915894985199,0.103445865213871,-0.11247599124908447,0.07639151811599731,0.8616489768028259,0.8555920720100403,0.8806852698326111,0.9717848300933838,-1.6994502544403076,-1.6396783590316772,-1.5061224699020386,-1.480664849281311,-0.07271264493465424,-0.08745507150888443,-0.24371904134750366,-0.2520114481449127,0.04148164764046669,0.04467575252056122,0.32618841528892517,0.05275793746113777,0.03021007776260376,0.023162120953202248,-0.1562405526638031,-0.2410726398229599,-0.16872715950012207,-0.10842816531658173,0.036674581468105316,-0.18265052139759064,0.08235017210245132,0.030823439359664917,0.25524017214775085,-0.08869778364896774,0.03353431075811386,0.2625727951526642,0.13871048390865326,0.036563239991664886,0.030953222885727882,-0.05985875055193901,6.381236016750336e-05,-0.11505705118179321,-0.08349142968654633,-0.01979738660156727,0.03241150081157684,-0.057403117418289185,-0.027967553585767746,-0.10169898718595505,-0.07913225144147873,0.0031083282083272934,0.08165575563907623,-0.006664459593594074,0.031703170388936996,0.06579691916704178,-0.16282129287719727,-0.014823388308286667,-0.02012377604842186,-0.009943260811269283,0.012154600583016872,0.03451358154416084,0.19257114827632904,-0.014412971213459969
-0.0019066184759140015,-0.005991975776851177,0.3386480510234833,-0.054620563983917236,-0.021760711446404457,0.00556772667914629,0.9982545375823975,0.007445376832038164,-0.033702053129673004,-0.006441699806600809,-0.22284556925296783,-0.02452496998012066,-0.009612548165023327,-0.21589842438697815,0.10271647572517395,-0.11450883001089096,0.07428902387619019,0.8619940876960754,0.8559638857841492,0.8834054470062256,0.9722242951393127,-1.699198603630066,-1.639485478401184,-1.50742506980896,-1.482674479484558,-0.09071502834558487,-0.10217294842004776,-0.296109676361084,-0.31249046325683594,0.009540731087327003,0.025167901068925858,0.2961401045322418,-0.05791439861059189,0.011176640167832375,0.004901901353150606,-0.08432089537382126,-0.16235503554344177,-0.16884957253932953,-0.10837849974632263,0.036695368587970734,-0.1825074553489685,0.08244527876377106,0.030831925570964813,0.25556498765945435,-0.08877521008253098,0.03350100666284561,0.2623592019081116,0.1385936439037323,0.03661181032657623,0.015235869213938713,-0.07077676802873611,0.007394731976091862,-0.13036035001277924,-0.03476366028189659,-0.009887205436825752,0.02012019231915474,-0.0681358128786087,-0.02447456866502762,-0.11826026439666748,-0.0430622436106205,-0.001752021024003625,0.07997780293226242,-0.0038347961381077766,0.024923047050833702,0.0951797142624855,-0.20153717696666718,-0.01826634630560875,-0.04371747747063637,-0.009395026601850986,-0.00025012996047735214,0.06430362910032272,0.2278226763010025,-0.015522263944149017
-0.0018451455980539322,-0.006272963248193264,0.3385946452617645,-0.05374974384903908,-0.02159438095986843,0.005861035082489252,0.9983036518096924,0.003950037527829409,-0.03748778626322746,-0.0028854862321168184,-0.2396804243326187,-0.025956671684980392,-0.010251724161207676,-0.21665538847446442,0.10186415165662766,-0.11697950214147568,0.07168196886777878,0.8620737791061401,0.8561736345291138,0.885875403881073,0.9717407822608948,-1.6991052627563477,-1.6394450664520264,-1.508128046989441,-1.484028935432434,-0.09750255197286606,-0.10938887298107147,-0.32198429107666016,-0.34548133611679077,-0.02125447802245617,0.003174673765897751,0.25618618726730347,-0.1455189287662506,-0.0033411909826099873,-0.004618403036147356,-0.023685796186327934,-0.08807814121246338,-0.1690433919429779,-0.10830753296613693,0.03670801222324371,-0.1823432743549347,0.08256831020116806,0.030832365155220032,0.2559424936771393,-0.08885542303323746,0.03347540646791458,0.2620883285999298,0.13845300674438477,0.036667197942733765,0.0012388464529067278,-0.07904282957315445,0.013782979920506477,-0.1456352323293686,0.008461527526378632,-0.0011642472818493843,0.009082992561161518,-0.07545685768127441,-0.02145504392683506,-0.13117296993732452,-0.012763208709657192,-0.0057710930705070496,0.0746355876326561,-0.0041107190772891045,0.019686967134475708,0.1060524508357048,-0.22113661468029022,-0.020442403852939606,-0.0598856583237648,-0.010581424459815025,-0.010722317732870579,0.07926878333091736,0.24268479645252228,-0.015554835088551044
-0.001811835914850235,-0.006585008464753628,0.3385705053806305,-0.05278949439525604,-0.02155022695660591,0.0061536310240626335,0.9983541369438171,0.0024753056932240725,-0.03894943743944168,-0.0010698590194806457,-0.242881178855896,-0.025833336636424065,-0.010360628366470337,-0.21746844053268433,0.10095129162073135,-0.1196647360920906,0.06880102306604385,0.8618968725204468,0.8562005758285522,0.888011634349823,0.9705262184143066,-1.6991336345672607,-1.6394834518432617,-1.5083258152008057,-1.4847625494003296,-0.09394282102584839,-0.10534051805734634,-0.3154986500740051,-0.3444076478481293,-0.03763758763670921,-0.0038485568948090076,0.21924613416194916,-0.1845501959323883,-0.012921452522277832,-0.009264776483178139,0.0218871608376503,-0.04931583255529404,-0.16929951310157776,-0.10822884738445282,0.03671900928020477,-0.18218201398849487,0.082709901034832,0.030830197036266327,0.25633397698402405,-0.08893483877182007,0.0334530845284462,0.2617793679237366,0.13830535113811493,0.03671957552433014,-0.0060869017615914345,-0.08337973803281784,0.01715778559446335,-0.155216246843338,0.03329217806458473,0.0037993041332811117,0.005029124207794666,-0.07928512990474701,-0.01974220760166645,-0.13953961431980133,-0.0017423232784494758,-0.0074065327644348145,0.0702524483203888,-0.008353645913302898,0.015171806327998638,0.09699476510286331,-0.2308390885591507,-0.02226082794368267,-0.06551026552915573,-0.01427016407251358,-0.016165610402822495,0.075458824634552,0.2423941045999527,-0.015223590657114983
