Huisouan/isaac-rl-lab/source/vqvae/data/quad_walkrun_005.csv
rootstate0,rootstate1,rootstate2,rootstate3,rootstate4,rootstate5,rootstate6,rootstate7,rootstate8,rootstate9,rootstate10,rootstate11,rootstate12,joint_pos_0,joint_pos_1,joint_pos_2,joint_pos_3,joint_pos_4,joint_pos_5,joint_pos_6,joint_pos_7,joint_pos_8,joint_pos_9,joint_pos_10,joint_pos_11,joint_vel_0,joint_vel_1,joint_vel_2,joint_vel_3,joint_vel_4,joint_vel_5,joint_vel_6,joint_vel_7,joint_vel_8,joint_vel_9,joint_vel_10,joint_vel_11,foot_pos_0_x,foot_pos_0_y,foot_pos_0_z,foot_pos_1_x,foot_pos_1_y,foot_pos_1_z,foot_pos_2_x,foot_pos_2_y,foot_pos_2_z,foot_pos_3_x,foot_pos_3_y,foot_pos_3_z,foot_vel_0_x,foot_vel_0_y,foot_vel_0_z,foot_vel_0_rx,foot_vel_0_ry,foot_vel_0_rz,foot_vel_1_x,foot_vel_1_y,foot_vel_1_z,foot_vel_1_rx,foot_vel_1_ry,foot_vel_1_rz,foot_vel_2_x,foot_vel_2_y,foot_vel_2_z,foot_vel_2_rx,foot_vel_2_ry,foot_vel_2_rz,foot_vel_3_x,foot_vel_3_y,foot_vel_3_z,foot_vel_3_rx,foot_vel_3_ry,foot_vel_3_rz
0.0,0.0,0.3467380106449127,0.32173117995262146,0.026626015082001686,-0.014630008488893509,0.9463435411453247,0.0,0.0,0.0,0.0,0.0,0.0,-0.2785240113735199,-0.1509920060634613,-0.3107120096683502,0.08057399839162827,0.6009029746055603,0.7160500288009644,0.9649019837379456,1.0188419818878174,-1.6355270147323608,-1.567566990852356,-1.6206059455871582,-1.535446047782898,-0.0012049999786540866,-0.0038509999867528677,-0.003237999975681305,0.0015920000150799751,0.0008950000046752393,-0.007817000150680542,0.005495000164955854,0.002966000000014901,-0.001478999969549477,0.010576000437140465,-0.007019000127911568,-0.0038920000661164522,-0.2516343891620636,0.12154306471347809,0.06218169257044792,-0.06733424961566925,0.29029884934425354,0.07878311723470688,0.14665326476097107,-0.1700405329465866,0.027080290019512177,0.2727537453174591,-0.056969620287418365,0.02880578488111496,0.00026621855795383453,0.00017401977675035596,0.00018729123985394835,0.0013027616078034043,-0.0002950142661575228,9.412494546268135e-05,7.786655623931438e-05,0.0016198002267628908,-0.0009118746966123581,0.0013682253193110228,-0.004485178738832474,-0.0006733582704328001,0.0007556951604783535,0.00020466864225454628,0.0010774587281048298,0.0034668787848204374,-0.000840088352560997,0.0002867407747544348,-0.00011576272663660347,-0.0004630136245395988,0.0005047245649620891,-0.0007004529470577836,0.0017030475428327918,3.056653440580703e-05
9.084120392799377e-06,2.8935261070728302e-05,0.3467279076576233,0.32182982563972473,0.02659166045486927,-0.014593577943742275,0.9463115334510803,1.2019646167755127,3.8257734775543213,-1.3380764722824097,11.846441268920898,-2.5748438835144043,-27.942790985107422,-0.27847811579704285,-0.15096664428710938,-0.31066685914993286,0.08065435290336609,0.6009281277656555,0.7160016298294067,0.9649579524993896,1.0189075469970703,-1.6355173587799072,-1.567452311515808,-1.6205973625183105,-1.5354623794555664,7.389699935913086,7.583527565002441,9.538910865783691,8.906493186950684,2.264103412628174,2.2010059356689453,1.3175488710403442,5.3747711181640625,2.866684913635254,3.5325520038604736,8.807655334472656,2.188178777694702,-0.25159117579460144,0.12158170342445374,0.06214746832847595,-0.06725787371397018,0.2903124690055847,0.07872206717729568,0.14664453268051147,-0.17009447515010834,0.027092069387435913,0.2727613151073456,-0.05705629289150238,0.02881094068288803,4.450346946716309,11.538201332092285,-1.2753084897994995,2.931617259979248,-1.925529956817627,-28.961105346679688,9.221917152404785,6.099161148071289,0.06510191410779953,2.352257013320923,-2.414748191833496,-28.410139083862305,-3.2415711879730225,-0.14466822147369385,-4.235082149505615,-1.7092479467391968,-4.27298641204834,-30.56389617919922,-0.02611452341079712,-3.87924861907959,-2.026451587677002,0.22496777772903442,-3.157637119293213,-26.881866455078125
0.010018501430749893,0.03191307187080383,0.33557987213134766,0.42765724658966064,-0.011375753208994865,0.02555849403142929,0.9035079479217529,0.03310372307896614,0.0046367887407541275,-0.009194806218147278,-0.10319922864437103,0.12570300698280334,-0.006904811132699251,-0.2168968766927719,-0.0877697765827179,-0.23117423057556152,0.15487772226333618,0.6197956204414368,0.7343443036079407,0.9759368300437927,1.0636998414993286,-1.6116278171539307,-1.5380140542984009,-1.5472016334533691,-1.5172282457351685,0.07321669906377792,0.08068139106035233,0.18347546458244324,0.3118518590927124,0.03983656316995621,0.08859145641326904,-0.0775737538933754,0.25105154514312744,0.01384785957634449,-0.0013898778706789017,-0.17665237188339233,-0.14814214408397675,-0.20741137862205505,0.15744104981422424,0.02467361092567444,0.010571770370006561,0.27949070930480957,0.024858176708221436,0.1160917580127716,-0.2271687537431717,0.03697843849658966,0.2648555636405945,-0.14590516686439514,0.03861480951309204,-0.012516608461737633,-0.049126699566841125,0.004213130101561546,-0.1901756376028061,0.14841368794441223,-0.019634012132883072,-0.00497572124004364,-0.06333658844232559,-0.04338216781616211,-0.2215370088815689,0.13259944319725037,-0.014792211353778839,-0.08736969530582428,-0.02147989347577095,0.023725878447294235,-0.028059910982847214,0.4272625148296356,0.034448739141225815,-0.045190587639808655,-0.11807779967784882,0.003722885623574257,-0.3795139789581299,0.3030502498149872,-0.0005760553758591413
0.010294802486896515,0.031952083110809326,0.3355037569999695,0.4271196126937866,-0.01123642735183239,0.02527116984128952,0.9037720561027527,0.03536003828048706,0.003693319857120514,-0.010776945389807224,-0.11075176298618317,0.13457807898521423,-0.0073088388890028,-0.21628648042678833,-0.0870961919426918,-0.22964408993721008,0.1574791669845581,0.6201283931732178,0.7350830435752869,0.975290060043335,1.0657933950424194,-1.6115127801895142,-1.5380257368087769,-1.5486764907836914,-1.5184645652770996,0.06697879731655121,0.07981057465076447,0.17219525575637817,0.31621041893959045,0.06050126999616623,0.08995921909809113,-0.044461458921432495,0.28435611724853516,0.012667059898376465,0.006932264659553766,-0.2384774386882782,-0.15864506363868713,-0.20736446976661682,0.15722055733203888,0.02467847615480423,0.010527823120355606,0.27942487597465515,0.024869181215763092,0.1159837543964386,-0.22677172720432281,0.03689652681350708,0.2649964690208435,-0.1461286097764969,0.038637734949588776,-0.007555418182164431,-0.055544041097164154,0.00275743892416358,-0.20850881934165955,0.14008428156375885,-0.023214884102344513,-0.003950039390474558,-0.0676780492067337,-0.047894544899463654,-0.23600822687149048,0.13450074195861816,-0.015585430897772312,-0.08739377558231354,-0.022499606013298035,0.03189370408654213,-0.007132343482226133,0.4456171691417694,0.03984306380152702,-0.04098214581608772,-0.12743668258190155,0.005659101530909538,-0.40740707516670227,0.300917387008667,0.0036071427166461945
0.010590088553726673,0.0319831520318985,0.33541369438171387,0.42656001448631287,-0.01102431956678629,0.024962974712252617,0.904047429561615,0.03598219156265259,0.004918753169476986,-0.009786270558834076,-0.11437849700450897,0.13863758742809296,-0.007416465785354376,-0.21572813391685486,-0.08643142133951187,-0.22820760309696198,0.16011694073677063,0.6206327080726624,0.7358328700065613,0.9749190807342529,1.0681653022766113,-1.6114068031311035,-1.5379679203033447,-1.5506649017333984,-1.519787311553955,0.061398204416036606,0.08515796065330505,0.1785660982131958,0.32922184467315674,0.05616621673107147,0.09440416097640991,-0.06308085471391678,0.27662894129753113,0.011592169292271137,0.0062484052032232285,-0.22754578292369843,-0.14390435814857483,-0.2072952687740326,0.15698562562465668,0.024699166417121887,0.010467521846294403,0.27937278151512146,0.024881862103939056,0.11587555706501007,-0.22633054852485657,0.03683571517467499,0.26516959071159363,-0.14636991918087006,0.03863631188869476,-0.007757121697068214,-0.05330034717917442,0.004367734305560589,-0.20452281832695007,0.14314764738082886,-0.022065619006752968,-0.00491707818582654,-0.06955741345882416,-0.04821491613984108,-0.24593286216259003,0.14013542234897614,-0.016020311042666435,-0.09131079167127609,-0.02074277400970459,0.031372878700494766,-0.00933664757758379,0.459566205739975,0.040757324546575546,-0.04433257877826691,-0.1304350346326828,0.004041891545057297,-0.4248133599758148,0.31034448742866516,0.0048207975924015045
0.01089037861675024,0.032024260610342026,0.3353317081928253,0.42596006393432617,-0.010835311375558376,0.024676885455846786,0.9043404459953308,0.03648274019360542,0.006966015789657831,-0.008065924979746342,-0.11892296373844147,0.14375948905944824,-0.007584919687360525,-0.2152157574892044,-0.0857207328081131,-0.22671878337860107,0.1628628373146057,0.6211007833480835,0.7366202473640442,0.974393367767334,1.0704727172851562,-1.6113104820251465,-1.5379152297973633,-1.5525625944137573,-1.5209873914718628,0.059202827513217926,0.08624019473791122,0.19097496569156647,0.33989784121513367,0.04712948203086853,0.08419521152973175,-0.09550335258245468,0.2600911259651184,0.012489465065300465,-0.006452332716435194,-0.2023877650499344,-0.11704868078231812,-0.20722252130508423,0.1567399948835373,0.02471698448061943,0.010393418371677399,0.27929434180259705,0.024883612990379333,0.11577342450618744,-0.22587479650974274,0.03678406774997711,0.26534679532051086,-0.14662274718284607,0.03863977640867233,-0.00989909190684557,-0.05026780441403389,0.00683214794844389,-0.20154976844787598,0.1516164392232895,-0.02064143866300583,-0.009451196528971195,-0.06524382531642914,-0.04581889510154724,-0.23357383906841278,0.16054148972034454,-0.01499222032725811,-0.09771562367677689,-0.01820768415927887,0.0294527318328619,-0.01667083241045475,0.478976845741272,0.04124463349580765,-0.04797409474849701,-0.13255292177200317,0.0012455859687179327,-0.4441852271556854,0.31693634390830994,0.006765016820281744
0.011194697581231594,0.03208240121603012,0.3352647125720978,0.425309419631958,-0.01068315003067255,0.02443091571331024,0.9046550989151001,0.03749589994549751,0.00895927008241415,-0.006844013929367065,-0.12295819073915482,0.14820510149002075,-0.007730333600193262,-0.21472185850143433,-0.0850018784403801,-0.22512516379356384,0.16569752991199493,0.6214938163757324,0.7373229265213013,0.9735962152481079,1.07264244556427,-1.6112061738967896,-1.5379685163497925,-1.5542511940002441,-1.5219639539718628,0.04750403016805649,0.02523474395275116,0.19501882791519165,0.3423398733139038,0.04018569737672806,0.06482776254415512,-0.10560192912817001,0.25079652667045593,0.0182788223028183,0.07507488876581192,-0.18002411723136902,-0.11049171537160873,-0.20715905725955963,0.1564737856388092,0.024731315672397614,0.010276120156049728,0.279230535030365,0.024889163672924042,0.11566656827926636,-0.2254069298505783,0.03674206882715225,0.26553523540496826,-0.1468847543001175,0.03865022957324982,-0.008195415139198303,-0.046143922954797745,0.007406264543533325,-0.1972697377204895,0.14768320322036743,-0.02006949856877327,0.008964767679572105,-0.05727492645382881,-0.05076216906309128,-0.2464165985584259,0.07817712426185608,-0.01570822298526764,-0.0977785587310791,-0.018828554078936577,0.028560124337673187,-0.0328935943543911,0.47893235087394714,0.03833942487835884,-0.04975290223956108,-0.13122448325157166,0.0007991476450115442,-0.4478963017463684,0.3245416581630707,0.006506683770567179
0.011506980285048485,0.03215659409761429,0.3352077007293701,0.4246222674846649,-0.010526218451559544,0.024229878559708595,0.9049850702285767,0.03742301091551781,0.011172542348504066,-0.00555367860943079,-0.12950468063354492,0.1556161642074585,-0.008029427379369736,-0.2143257111310959,-0.0847904309630394,-0.22349874675273895,0.1685536503791809,0.6218289136886597,0.7378637194633484,0.9727150201797485,1.0747332572937012,-1.611053228378296,-1.537344217300415,-1.5557522773742676,-1.5228856801986694,0.04324479401111603,0.10514424741268158,0.21274495124816895,0.3527652323246002,0.036057502031326294,0.08855198323726654,-0.13147863745689392,0.23267552256584167,0.01423242874443531,-0.061126723885536194,-0.1553860455751419,-0.088572196662426,-0.20709505677223206,0.156209796667099,0.024746552109718323,0.010287865996360779,0.2792181968688965,0.024842120707035065,0.1155753806233406,-0.22495026886463165,0.03670231252908707,0.26571881771087646,-0.14712974429130554,0.03866088390350342,-0.010682817548513412,-0.04383473098278046,0.010263564065098763,-0.1949530392885208,0.15690380334854126,-0.01870858483016491,-0.021099582314491272,-0.06277098506689072,-0.03982335701584816,-0.21772931516170502,0.21880850195884705,-0.013561435975134373,-0.10567021369934082,-0.01927497610449791,0.027244634926319122,-0.05025791749358177,0.5008987188339233,0.037265222519636154,-0.055443789809942245,-0.13267597556114197,-0.0023338226601481438,-0.4641989469528198,0.3371655344963074,0.007091540843248367
0.01181931421160698,0.0322498120367527,0.3351617753505707,0.42388448119163513,-0.010403220541775227,0.024054065346717834,0.9053370356559753,0.03833279758691788,0.01342443935573101,-0.003936347551643848,-0.13497532904148102,0.16165491938591003,-0.008267860859632492,-0.21396493911743164,-0.08391381800174713,-0.22172389924526215,0.17149558663368225,0.6221297383308411,0.738602340221405,0.9716190099716187,1.0766738653182983,-1.610935091972351,-1.5378538370132446,-1.5570478439331055,-1.523624300956726,0.033929839730262756,0.08554644882678986,0.21672147512435913,0.35734379291534424,0.028125640004873276,0.088346928358078,-0.14895099401474,0.2139863818883896,0.015540300868451595,-0.028126321732997894,-0.1301053762435913,-0.07119914144277573,-0.20703452825546265,0.15593388676643372,0.024761267006397247,0.010052509605884552,0.2791532278060913,0.024880968034267426,0.11547668278217316,-0.22449231147766113,0.036667704582214355,0.2659059762954712,-0.1473637819290161,0.03867408633232117,-0.010786464437842369,-0.03976902738213539,0.012326174415647984,-0.18949081003665924,0.1599070280790329,-0.017375877127051353,-0.014019723981618881,-0.06203996762633324,-0.04209020361304283,-0.23585720360279083,0.1886313110589981,-0.014579858630895615,-0.10728944092988968,-0.018709314987063408,0.026138801127672195,-0.06460077315568924,0.5051820874214172,0.03505810722708702,-0.05898234248161316,-0.13179460167884827,-0.004436616785824299,-0.4718445837497711,0.3470485508441925,0.006934779230505228
0.01213853806257248,0.032362062484025955,0.3351287841796875,0.4231053590774536,-0.010295444168150425,0.023924347013235092,0.9057061076164246,0.037219442427158356,0.01567697897553444,-0.0026890411972999573,-0.13908173143863678,0.16599294543266296,-0.008429259061813354,-0.21368210017681122,-0.08320025354623795,-0.21991661190986633,0.17447632551193237,0.6223646402359009,0.7393391132354736,0.9703754782676697,1.07845938205719,-1.6108051538467407,-1.5380882024765015,-1.558132529258728,-1.5242172479629517,0.027658632025122643,0.05520979315042496,0.2264142483472824,0.3576936721801758,0.024568956345319748,0.06069779396057129,-0.16967365145683289,0.19484342634677887,0.013905194588005543,-0.01771501637995243,-0.09736064821481705,-0.04631555452942848,-0.2069750726222992,0.15565548837184906,0.024777282029390335,0.009864136576652527,0.2790773808956146,0.024886921048164368,0.1153968870639801,-0.22403551638126373,0.036640070378780365,0.266090452671051,-0.1475832611322403,0.03868696838617325,-0.012577402405440807,-0.0366213284432888,0.014273760840296745,-0.18567989766597748,0.16265852749347687,-0.016350891441106796,-0.013796440325677395,-0.049773044884204865,-0.03997931629419327,-0.20736834406852722,0.1806447058916092,-0.012660685926675797,-0.11139965057373047,-0.01905050501227379,0.02367856167256832,-0.08443129807710648,0.5094407200813293,0.03191514313220978,-0.06230752170085907,-0.130825936794281,-0.007224755361676216,-0.4807693362236023,0.34756726026535034,0.008471441455185413
0.012449746020138264,0.032492440193891525,0.3351059854030609,0.4222922623157501,-0.010227779857814312,0.02384481392800808,0.9060883522033691,0.036410991102457047,0.01912171207368374,-0.00028567248955368996,-0.1435413360595703,0.17069292068481445,-0.008631618693470955,-0.21345172822475433,-0.08273996412754059,-0.21802747249603271,0.177459716796875,0.6225690841674805,0.7398446202278137,0.9689604043960571,1.080083966255188,-1.6106891632080078,-1.5382360219955444,-1.5589450597763062,-1.524604082107544,0.016575954854488373,0.05337038263678551,0.23200222849845886,0.3535875678062439,0.014057604596018791,0.06157348304986954,-0.19347888231277466,0.15678508579730988,0.009762235917150974,-0.02786841429769993,-0.053473152220249176,-0.013378728181123734,-0.20691807568073273,0.15535765886306763,0.02478337660431862,0.009680304676294327,0.2790740728378296,0.024886853992938995,0.11532149463891983,-0.22360286116600037,0.03662180155515671,0.26628100872039795,-0.14780308306217194,0.038708530366420746,-0.014677693136036396,-0.02975015714764595,0.017935775220394135,-0.17203614115715027,0.16815829277038574,-0.01350689958781004,-0.016421327367424965,-0.04637293145060539,-0.03686005622148514,-0.20359140634536743,0.18979372084140778,-0.012316163629293442,-0.11345052719116211,-0.018173644319176674,0.020842790603637695,-0.10803494602441788,0.5057317018508911,0.02740505337715149,-0.06732231378555298,-0.12530876696109772,-0.011378565803170204,-0.47899290919303894,0.3517729341983795,0.007855355739593506
0.012752881273627281,0.0326518639922142,0.33510416746139526,0.42144930362701416,-0.010204244405031204,0.02382541634142399,0.9064815044403076,0.034581296145915985,0.022428203374147415,0.0023683328181505203,-0.14561444520950317,0.17250584065914154,-0.008716344833374023,-0.2133135050535202,-0.08229448646306992,-0.2160930037498474,0.1804087609052658,0.6226866841316223,0.7403584718704224,0.9673466086387634,1.0813912153244019,-1.6106075048446655,-1.5384678840637207,-1.5593904256820679,-1.5247153043746948,0.005800114944577217,0.054266445338726044,0.22839631140232086,0.3339836001396179,0.00820718053728342,0.05362648889422417,-0.20966361463069916,0.10944963246583939,0.006049103103578091,-0.03478214517235756,-0.016982682049274445,0.033578548580408096,-0.20686669647693634,0.15506824851036072,0.024791888892650604,0.009477857500314713,0.27906370162963867,0.024885721504688263,0.11526414752006531,-0.223189115524292,0.03661529719829559,0.26646047830581665,-0.14799316227436066,0.03873228281736374,-0.016067305579781532,-0.023418938741087914,0.021261001005768776,-0.1600104123353958,0.16781066358089447,-0.011472117155790329,-0.021248094737529755,-0.041232965886592865,-0.033697616308927536,-0.1949533224105835,0.20177502930164337,-0.011707331985235214,-0.1130995899438858,-0.015744902193546295,0.018890824168920517,-0.1234968975186348,0.49190574884414673,0.023344483226537704,-0.06923409551382065,-0.11655637621879578,-0.016625534743070602,-0.4684225022792816,0.33829769492149353,0.008894601836800575
0.013041861355304718,0.03283919766545296,0.3351233899593353,0.4205959141254425,-0.010229980573058128,0.02386919967830181,0.9068763256072998,0.03161626309156418,0.02417464554309845,0.0044546909630298615,-0.1449437439441681,0.17105644941329956,-0.008668331429362297,-0.21326501667499542,-0.08184225112199783,-0.21418751776218414,0.1831943690776825,0.6227546334266663,0.7408056855201721,0.9655978083610535,1.082303762435913,-1.6105576753616333,-1.5387579202651978,-1.5595316886901855,-1.5244346857070923,-0.00022333252127282321,0.04120447859168053,0.2258177250623703,0.3236364722251892,-0.004221418406814337,0.04039362445473671,-0.24458588659763336,0.07452081143856049,0.0037679928354918957,-0.04393836855888367,0.037947602570056915,0.059501711279153824,-0.2068122774362564,0.15478375554084778,0.024798307567834854,0.009247072041034698,0.2790525257587433,0.02487468719482422,0.11523064225912094,-0.22279495000839233,0.03663194179534912,0.26664459705352783,-0.14814603328704834,0.038748517632484436,-0.019874032586812973,-0.01744377613067627,0.02386910654604435,-0.1444610357284546,0.17117702960968018,-0.008579236455261707,-0.024377040565013885,-0.03258182853460312,-0.028585750609636307,-0.16886413097381592,0.20476339757442474,-0.010093346238136292,-0.11415485292673111,-0.012200167402625084,0.012736616656184196,-0.13662053644657135,0.4757401645183563,0.019466044381260872,-0.07336193323135376,-0.10960196703672409,-0.019396796822547913,-0.4545656740665436,0.3340480625629425,0.00778175937011838
0.013304959051311016,0.03304138034582138,0.33516067266464233,0.4197545349597931,-0.010320436209440231,0.023979835212230682,0.9072621464729309,0.030030231922864914,0.024276504293084145,0.007144609931856394,-0.13939853012561798,0.16389353573322296,-0.008366929367184639,-0.21326673030853271,-0.08149874955415726,-0.21230396628379822,0.18589328229427338,0.622719407081604,0.7411425113677979,0.9635570645332336,1.0829253196716309,-1.6105256080627441,-1.5391254425048828,-1.55921471118927,-1.5239378213882446,-0.007403142284601927,0.02318282052874565,0.2139883041381836,0.2976701259613037,-0.01668524369597435,0.015279151499271393,-0.26422950625419617,0.03375813737511635,0.0030579508747905493,-0.044888678938150406,0.0742841511964798,0.08296503871679306,-0.20677083730697632,0.15449842810630798,0.024792909622192383,0.009011372923851013,0.2790568470954895,0.024861231446266174,0.1151944249868393,-0.2224283218383789,0.036649078130722046,0.26680368185043335,-0.14830181002616882,0.03878732770681381,-0.020185258239507675,-0.011574244126677513,0.026098426431417465,-0.12445094436407089,0.16701899468898773,-0.0056630526669323444,-0.02484259009361267,-0.021273057907819748,-0.02240379899740219,-0.13191169500350952,0.20074301958084106,-0.007888991385698318,-0.10963788628578186,-0.008222308941185474,0.009193960577249527,-0.13636170327663422,0.44889670610427856,0.016816647723317146,-0.07227730005979538,-0.09814249724149704,-0.0209798626601696,-0.41950753331184387,0.317436546087265,0.005607530940324068
0.01355594489723444,0.033243440091609955,0.3352208733558655,0.41895872354507446,-0.010443019680678844,0.024136478081345558,0.9076244235038757,0.027898315340280533,0.022943779826164246,0.00820772536098957,-0.13167814910411835,0.1542658507823944,-0.007952917367219925,-0.21332930028438568,-0.08130569010972977,-0.21051965653896332,0.18837620317935944,0.6225807070732117,0.7412697076797485,0.961353063583374,1.083206295967102,-1.6105005741119385,-1.5394994020462036,-1.5585945844650269,-1.52324640750885,-0.012345434166491032,0.04047199338674545,0.19209815561771393,0.2662007510662079,-0.021898603066802025,0.016117729246616364,-0.27314293384552,0.0017509041354060173,0.004600201733410358,-0.06068442761898041,0.09780586510896683,0.1010296642780304,-0.20672820508480072,0.15423545241355896,0.02479514479637146,0.008787933737039566,0.27910539507865906,0.024860277771949768,0.1151592880487442,-0.2220870554447174,0.036673031747341156,0.2669432759284973,-0.14843590557575226,0.038831621408462524,-0.019174646586179733,-0.008674601092934608,0.025817645713686943,-0.110798679292202,0.15602728724479675,-0.004404744599014521,-0.02955710142850876,-0.02211357280611992,-0.018959835171699524,-0.12412486970424652,0.21398936212062836,-0.007481630425900221,-0.10230398178100586,-0.003887447062879801,0.005394794978201389,-0.12576256692409515,0.41326090693473816,0.015097429044544697,-0.06861444562673569,-0.08731195330619812,-0.022507360205054283,-0.3811801075935364,0.2921912372112274,0.004377568140625954
0.013787883333861828,0.03343532606959343,0.33528903126716614,0.418222039937973,-0.010602080263197422,0.024331839755177498,0.9079569578170776,0.025335615500807762,0.02053290419280529,0.009332733228802681,-0.11897562444210052,0.138925239443779,-0.007249712012708187,-0.21343198418617249,-0.08096833527088165,-0.20891772210597992,0.19059613347053528,0.6223978400230408,0.7414042353630066,0.9590749740600586,1.0832210779190063,-1.6104621887207031,-1.5400059223175049,-1.5577788352966309,-1.522403359413147,-0.017602546140551567,0.023307472467422485,0.16965962946414948,0.22997282445430756,-0.028058504685759544,0.0019284208538010716,-0.26516464352607727,-0.017371593043208122,0.0075758276507258415,-0.052232399582862854,0.10702493786811829,0.10374923795461655,-0.20667441189289093,0.15397590398788452,0.024782873690128326,0.008544422686100006,0.2790968120098114,0.024846069514751434,0.11513693630695343,-0.2217719703912735,0.03670182079076767,0.2670760452747345,-0.1485617607831955,0.03888092190027237,-0.016858022660017014,-0.005238013342022896,0.024704238399863243,-0.09231693297624588,0.13878770172595978,-0.0029271040111780167,-0.02567090466618538,-0.014920425601303577,-0.014093048870563507,-0.09601564705371857,0.18937020003795624,-0.005880705546587706,-0.09231933951377869,-0.0011261263862252235,0.003584883874282241,-0.11164239048957825,0.36982712149620056,0.013319622725248337,-0.061707720160484314,-0.07523973286151886,-0.0207731444388628,-0.33288562297821045,0.2592850923538208,0.002978275762870908
0.013999728485941887,0.03360624983906746,0.33536621928215027,0.41756701469421387,-0.010755238123238087,0.024541374295949936,0.9082509279251099,0.022451257333159447,0.018547529354691505,0.009937049821019173,-0.10499805957078934,0.12224481999874115,-0.006456255912780762,-0.2135782390832901,-0.08077331632375717,-0.2075023204088211,0.19251467287540436,0.6221632361412048,0.7414207458496094,0.9568633437156677,1.0830763578414917,-1.6103994846343994,-1.540441632270813,-1.5568859577178955,-1.521538257598877,-0.018491124734282494,0.013971928507089615,0.13744279742240906,0.1869547963142395,-0.03136704862117767,-0.010193618945777416,-0.24509286880493164,-0.0387161523103714,0.013530686497688293,-0.04625578597187996,0.11659012734889984,0.10555368661880493,-0.20662158727645874,0.1537463366985321,0.02477748692035675,0.008336368948221207,0.27910858392715454,0.024840667843818665,0.11510840803384781,-0.22149132192134857,0.036732420325279236,0.26719143986701965,-0.1486724317073822,0.03892999887466431,-0.014599084854125977,-0.0026937322691082954,0.0224639680236578,-0.07972501218318939,0.11976279318332672,-0.002561389934271574,-0.023350585252046585,-0.008668098598718643,-0.009965179488062859,-0.07138241082429886,0.1696557253599167,-0.004470377694815397,-0.07762295752763748,0.0016178172081708908,0.0013401007745414972,-0.0990077406167984,0.3095860779285431,0.010000975802540779,-0.05374234914779663,-0.0603596530854702,-0.01953049749135971,-0.2764967381954193,0.2219919115304947,0.0011643078178167343
0.014187250286340714,0.03376128152012825,0.33544936776161194,0.417007714509964,-0.010909462347626686,0.02477390691637993,0.9084997773170471,0.017473896965384483,0.01781165413558483,0.010636281222105026,-0.09182139486074448,0.1066361516714096,-0.005701672285795212,-0.21373283863067627,-0.08065732568502426,-0.2063560038805008,0.1940733641386032,0.6219018697738647,0.7413353323936462,0.9548192620277405,1.0827525854110718,-1.6102861166000366,-1.5408272743225098,-1.555914044380188,-1.5206573009490967,-0.02201412431895733,0.012912912294268608,0.10831944644451141,0.1422976851463318,-0.03177304565906525,-0.012958536855876446,-0.22282220423221588,-0.05699911341071129,0.014918262138962746,-0.05698854476213455,0.1308949887752533,0.11345816403627396,-0.2065688520669937,0.15353786945343018,0.024767663329839706,0.00815526768565178,0.2791254222393036,0.024831771850585938,0.1151021420955658,-0.22125613689422607,0.03677017241716385,0.26728957891464233,-0.14876006543636322,0.038980402052402496,-0.014049924910068512,0.0010932434815913439,0.020981814712285995,-0.06497658789157867,0.1008838340640068,-0.0018322078976780176,-0.025215018540620804,-0.0033446860034018755,-0.004384797066450119,-0.0473710261285305,0.1621045023202896,-0.0031011009123176336,-0.06500664353370667,0.0037087174132466316,-0.0010377914877608418,-0.09420236200094223,0.24824406206607819,0.005489304196089506,-0.04653403162956238,-0.04572885483503342,-0.01853383332490921,-0.2265922576189041,0.1789039820432663,0.0013997748028486967
0.01433281134814024,0.033909253776073456,0.33553841710090637,0.4165453016757965,-0.011069159023463726,0.025028303265571594,0.9087029695510864,0.013286406174302101,0.016571613028645515,0.010750267654657364,-0.07693826407194138,0.08916649222373962,-0.004828922916203737,-0.21391642093658447,-0.08054971694946289,-0.2054532915353775,0.19525934755802155,0.6216369271278381,0.7412275671958923,0.9529609680175781,1.0822770595550537,-1.610161542892456,-1.5413026809692383,-1.5548216104507446,-1.519710898399353,-0.025445954874157906,0.0019394484115764499,0.07079774886369705,0.09730278700590134,-0.022894348949193954,-0.017851635813713074,-0.17641402781009674,-0.06620316207408905,0.01825549267232418,-0.04926639050245285,0.12052309513092041,0.10370119661092758,-0.20652568340301514,0.15336109697818756,0.024756111204624176,0.007972143590450287,0.2791389524936676,0.024831920862197876,0.11510583758354187,-0.22107230126857758,0.03681372106075287,0.26736897230148315,-0.14882756769657135,0.039033710956573486,-0.010129987262189388,0.002716631395742297,0.017978254705667496,-0.05689384788274765,0.07292542606592178,-0.002967545995488763,-0.021985873579978943,0.0023933749180287123,-0.0006322099361568689,-0.02751743607223034,0.13452988862991333,-0.0019421466859057546,-0.047780804336071014,0.005022973287850618,-0.0003638881316874176,-0.08169037848711014,0.17900677025318146,0.0016716565005481243,-0.03804141655564308,-0.029962634667754173,-0.015651347115635872,-0.16831403970718384,0.13919781148433685,-0.00021670368732884526
0.014443394728004932,0.0340472087264061,0.3356279134750366,0.41618627309799194,-0.011201631277799606,0.025292914360761642,0.9088584780693054,0.009719104506075382,0.015276013873517513,0.013103317469358444,-0.07383597642183304,0.08543306589126587,-0.004680476151406765,-0.21412864327430725,-0.08053310215473175,-0.20486272871494293,0.19607074558734894,0.6214456558227539,0.741077721118927,0.9514899253845215,1.0817245244979858,-1.6100093126296997,-1.5417133569717407,-1.553816795349121,-1.5188462734222412,-0.03921744227409363,-0.0009162717033177614,0.03628427907824516,0.04639129340648651,-0.030067581683397293,-0.029549002647399902,-0.18027925491333008,-0.10021620988845825,0.026006586849689484,-0.05126572027802467,0.16092605888843536,0.1226644292473793,-0.20648187398910522,0.1532139778137207,0.024748198688030243,0.00781320035457611,0.2791656255722046,0.024834275245666504,0.11513455957174301,-0.2209363877773285,0.036872945725917816,0.26741790771484375,-0.14885804057121277,0.03908213973045349,-0.010030369274318218,0.006008866708725691,0.018289292231202126,-0.04520929977297783,0.05842314288020134,-0.002340121893212199,-0.026372432708740234,0.005529743619263172,0.003052104962989688,-0.012248293496668339,0.13764438033103943,-0.001103648217394948,-0.03746291249990463,0.0075050764717161655,-0.004659897182136774,-0.08319330215454102,0.12543965876102448,-0.002946619875729084,-0.03357592970132828,-0.016240227967500687,-0.016723953187465668,-0.12081098556518555,0.10638166218996048,-0.0014281596522778273
0.014523905701935291,0.03417501226067543,0.3357376754283905,0.4159231185913086,-0.011353217996656895,0.02563641034066677,0.9089674353599548,0.005882911384105682,0.013242260552942753,0.010962746106088161,-0.05507933720946312,0.06365441530942917,-0.0035355619620531797,-0.21445614099502563,-0.08054061979055405,-0.20456083118915558,0.19645759463310242,0.6211957335472107,0.7408313751220703,0.9499865770339966,1.080889344215393,-1.6097919940948486,-1.542141079902649,-1.552474856376648,-1.5178229808807373,-0.033797215670347214,-0.0104498490691185,0.007536564487963915,0.010390321724116802,-0.007632816676050425,-0.023706678301095963,-0.11365032196044922,-0.06846216320991516,0.0332917794585228,-0.03958304226398468,0.1264553666114807,0.08522031456232071,-0.20642869174480438,0.1530846357345581,0.024733655154705048,0.007653173059225082,0.27916261553764343,0.024822786450386047,0.1151777133345604,-0.22085581719875336,0.03693845123052597,0.26744845509529114,-0.1488829106092453,0.03914182633161545,-0.003393228631466627,0.0030270793940871954,0.011666045524179935,-0.0519593209028244,0.021449243649840355,-0.006637631915509701,-0.019298484548926353,0.008453243412077427,0.004737266339361668,-0.0005078725516796112,0.09721992164850235,-0.0003574711736291647,-0.019965481013059616,0.005791467614471912,-0.0024983491748571396,-0.06949581205844879,0.0610191747546196,-0.005982986651360989,-0.020214561372995377,-0.005672495812177658,-0.009457658976316452,-0.07430686801671982,0.06096038967370987,-9.483691974310204e-05
0.014573514461517334,0.034285638481378555,0.3358287811279297,0.41575855016708374,-0.011418180540204048,0.025932159274816513,0.9090335369110107,0.003203792730346322,0.010295720770955086,0.004726311191916466,-0.029710324481129646,0.03431003540754318,-0.0019225478172302246,-0.2147376984357834,-0.08062809705734253,-0.20449784398078918,0.19654405117034912,0.6211321353912354,0.7406339049339294,0.9490397572517395,1.0803183317184448,-1.6095141172409058,-1.542471170425415,-1.5514204502105713,-1.5171130895614624,-0.01690942794084549,-0.0004279708955436945,0.0006571491248905659,-0.00010052059951703995,0.026076970621943474,-0.0007237369427457452,-0.026255393400788307,-0.003899838076904416,0.03658180683851242,-0.0073602451011538506,0.08554868400096893,0.029851866886019707,-0.20638227462768555,0.15298223495483398,0.02472822368144989,0.007519088685512543,0.2791869640350342,0.02482692152261734,0.11522340774536133,-0.22081132233142853,0.03699101507663727,0.26746365427970886,-0.1488754153251648,0.03918663412332535,0.005856289062649012,-0.0033292777370661497,0.0007663574069738388,-0.06497257947921753,-0.0191907100379467,-0.012232431210577488,-0.007641062140464783,0.0023089530877768993,-0.0011946852318942547,-0.023334478959441185,0.03928491845726967,-0.001557780778966844,-0.0010466455714777112,-0.0032471867743879557,-0.002354404190555215,-0.07406872510910034,-0.0037841759622097015,-0.011786029674112797,-0.004554580431431532,-0.002874069381505251,-0.0013044985244050622,-0.04889444634318352,0.017902163788676262,0.0040998319163918495
0.014600140042603016,0.03437133878469467,0.3358684480190277,0.41568443179130554,-0.011374310590326786,0.026097485795617104,0.9090632200241089,0.0007467670948244631,0.007975536398589611,0.0027827592566609383,-0.02375376783311367,0.027421992272138596,-0.001538786105811596,-0.21487928926944733,-0.08063124120235443,-0.20449204742908478,0.19654317200183868,0.6213492751121521,0.7406278252601624,0.9488202929496765,1.080285906791687,-1.6092098951339722,-1.5425324440002441,-1.550706148147583,-1.5168644189834595,-0.013819237239658833,0.01035261806100607,-0.01260185893625021,-0.01759154722094536,0.04403708502650261,0.0052113099955022335,0.008807589299976826,0.01726195216178894,0.030840417370200157,-0.015341509133577347,0.08321499824523926,-0.003810132620856166,-0.20633509755134583,0.15291059017181396,0.024718843400478363,0.007432173937559128,0.2791983187198639,0.024812795221805573,0.11527539789676666,-0.2208278477191925,0.036982275545597076,0.2674741744995117,-0.1488630622625351,0.03919544816017151,0.007713760249316692,-0.007960761897265911,-0.001604354940354824,-0.07006201148033142,-0.031696707010269165,-0.014114010147750378,-0.010166151449084282,-0.0008270856342278421,-0.0016983214300125837,-0.022887956351041794,0.04188048467040062,-0.0015465130563825369,0.008031267672777176,-0.008890950120985508,-0.0031855199486017227,-0.08368124812841415,-0.042001254856586456,-0.016238145530223846,-0.0003125637012999505,0.0013262075372040272,0.002785374643281102,-0.02222205512225628,0.005671216174960136,0.002330522518604994
0.01460672914981842,0.034438006579875946,0.3358912169933319,0.4156983196735382,-0.011288878507912159,0.026221327483654022,0.9090543985366821,-0.0015973501140251756,0.0057598743587732315,0.0012385592563077807,-0.02979291044175625,0.03439563512802124,-0.001927701523527503,-0.21499420702457428,-0.08054487407207489,-0.20459748804569244,0.196396142244339,0.6217172145843506,0.7406718730926514,0.948894202709198,1.080430030822754,-1.6089526414871216,-1.5426604747772217,-1.5500125885009766,-1.5168966054916382,-0.01288443524390459,0.0006048609502613544,-0.03234359249472618,-0.04630604386329651,0.05327552556991577,0.004987647756934166,0.04211892560124397,0.028659004718065262,0.02480299584567547,-0.01429146621376276,0.08321654051542282,-0.03245297819375992,-0.20627732574939728,0.15286269783973694,0.02471659705042839,0.007344327867031097,0.2792043089866638,0.024809308350086212,0.11532621085643768,-0.22089259326457977,0.03694145381450653,0.26745736598968506,-0.14884662628173828,0.03920309245586395,0.004268778022378683,-0.013668028637766838,-0.00162594486027956,-0.0790831670165062,-0.026097629219293594,-0.01509198360145092,-0.012292321771383286,-0.0029981478583067656,-0.0037665010895580053,-0.023173239082098007,0.040950968861579895,-0.0015610246919095516,0.014476925134658813,-0.016606919467449188,-0.0026077653747051954,-0.10149190574884415,-0.07162180542945862,-0.021283306181430817,0.001014938112348318,0.0053845541551709175,0.004788828082382679,0.0033110524527728558,0.001813298324123025,-0.0008494137437082827
0.014592846855521202,0.034485846757888794,0.33590131998062134,0.4158015549182892,-0.011186892166733742,0.026332661509513855,0.9090051651000977,-0.006470897700637579,0.004678577650338411,0.0016954387538135052,-0.043315589427948,0.05003013461828232,-0.002797516994178295,-0.21510106325149536,-0.08054015785455704,-0.20486752688884735,0.1960102915763855,0.6221615076065063,0.7407135367393494,0.949245810508728,1.0806689262390137,-1.6087455749511719,-1.5427789688110352,-1.5493181943893433,-1.517167329788208,-0.016860075294971466,-0.006324388086795807,-0.06971137225627899,-0.09308673441410065,0.057553768157958984,0.002618913073092699,0.07106976211071014,0.021074004471302032,0.007992172613739967,-0.005766581278294325,0.0812750905752182,-0.04554018750786781,-0.2062131017446518,0.15283630788326263,0.02471504732966423,0.00729866698384285,0.2792198061943054,0.02480948716402054,0.11539337038993835,-0.22101595997810364,0.03688785433769226,0.2674277424812317,-0.14882035553455353,0.03922286629676819,-0.005289233755320311,-0.017597338184714317,0.003196428529918194,-0.08075560629367828,-0.005309236701577902,-0.013583160005509853,-0.019747572019696236,-0.007231258787214756,-0.007015848066657782,-0.036805689334869385,0.047315772622823715,-0.0023985865991562605,0.01882067322731018,-0.020633619278669357,0.0001759515143930912,-0.11061684787273407,-0.10177350789308548,-0.025041982531547546,-0.0007726544281467795,0.013260051608085632,0.005148498807102442,0.03570745512843132,-0.004888215102255344,-0.004548648837953806
0.014539074152708054,0.03452470526099205,0.33591538667678833,0.41600796580314636,-0.011090205982327461,0.026455232873558998,0.9089083671569824,-0.010219148360192776,0.0036584963090717793,0.0019219695823267102,-0.060396790504455566,0.06982281059026718,-0.0038967090658843517,-0.21524187922477722,-0.08059335500001907,-0.20544983446598053,0.195232555270195,0.6226415038108826,0.7407352328300476,0.9498386979103088,1.080844521522522,-1.6086785793304443,-1.5428276062011719,-1.548640251159668,-1.5175464153289795,-0.015205041505396366,-0.00734364939853549,-0.1002466157078743,-0.14079970121383667,0.050169993191957474,-0.01438513956964016,0.09391961246728897,-0.00750472117215395,0.00817380752414465,-0.024227580055594444,0.09425187855958939,-0.034777991473674774,-0.20615963637828827,0.15285255014896393,0.024733800441026688,0.007287055253982544,0.27922874689102173,0.024803392589092255,0.11548158526420593,-0.22116918861865997,0.0368490144610405,0.2673841416835785,-0.14875808358192444,0.039264366030693054,-0.01679162308573723,-0.022359497845172882,0.006104679778218269,-0.09361787140369415,0.020429586991667747,-0.013481120578944683,-0.034405432641506195,-0.007261508144438267,-0.008075917139649391,-0.026463249698281288,0.08956389129161835,-0.0019793384708464146,0.022233858704566956,-0.027509227395057678,0.0015027131885290146,-0.1343594491481781,-0.12832292914390564,-0.03083518147468567,-0.004102523438632488,0.020680729299783707,0.0007704788586124778,0.06301096081733704,-0.009976844303309917,-0.00776017876341939
0.014453737065196037,0.03455499932169914,0.335932195186615,0.41632384061813354,-0.011010360904037952,0.026598090305924416,0.9087605476379395,-0.011615492403507233,-0.00011617457494139671,0.0010904115624725819,-0.07717408239841461,0.08934329450130463,-0.00498163141310215,-0.21536865830421448,-0.08065430819988251,-0.20628580451011658,0.19405806064605713,0.6230593323707581,0.7406148910522461,0.9506226778030396,1.0807825326919556,-1.6086105108261108,-1.543029546737671,-1.5478538274765015,-1.5178366899490356,-0.013391031883656979,-0.011657674796879292,-0.12176887691020966,-0.17360526323318481,0.04247164726257324,-0.010892145335674286,0.11095572263002396,-0.006642969325184822,0.017713027074933052,-0.00310450978577137,0.09689638763666153,-0.04973648488521576,-0.20611825585365295,0.15290793776512146,0.024747632443904877,0.0072665102779865265,0.2792665362358093,0.02481026202440262,0.11559320986270905,-0.22137731313705444,0.03681774437427521,0.26732417941093445,-0.1486668586730957,0.039300791919231415,-0.0249759703874588,-0.030445918440818787,0.006351476069539785,-0.11297851800918579,0.04014877602458,-0.014954417012631893,-0.03759758546948433,-0.018479473888874054,-0.015501368790864944,-0.058993276208639145,0.08968910574913025,-0.003910900093615055,0.02347751334309578,-0.03628486022353172,0.0029334593564271927,-0.15179859101772308,-0.13780643045902252,-0.03438099846243858,-0.005262807942926884,0.020592857152223587,0.0002125814207829535,0.07807812839746475,-0.006477688439190388,-0.010684224776923656
0.01435725949704647,0.034554045647382736,0.3359408974647522,0.4167424738407135,-0.010897474363446236,0.026728691533207893,0.9085661768913269,-0.013409825973212719,-0.004804728552699089,-0.0004327469796407968,-0.09272237867116928,0.10754282772541046,-0.005980511195957661,-0.2154809534549713,-0.08075142651796341,-0.20730139315128326,0.19261036813259125,0.623414158821106,0.7405236959457397,0.9515475630760193,1.0807267427444458,-1.6084624528884888,-1.543055534362793,-1.5470463037490845,-1.518251895904541,-0.00959132518619299,-0.007103894837200642,-0.14448310434818268,-0.20476150512695312,0.04514547809958458,-0.01611032709479332,0.135599747300148,0.0034759584814310074,0.0219618808478117,-0.007672795560210943,0.08129851520061493,-0.07317521423101425,-0.20608201622962952,0.1530020534992218,0.024758517742156982,0.007309477776288986,0.27927061915397644,0.024799637496471405,0.11569425463676453,-0.22162427008152008,0.03676104545593262,0.2672494649887085,-0.1485755741596222,0.039326995611190796,-0.0321231409907341,-0.04132413491606712,0.0063141812570393085,-0.13618212938308716,0.05676673725247383,-0.017313126474618912,-0.047257740050554276,-0.027107980102300644,-0.02055835910141468,-0.07011742889881134,0.11771558970212936,-0.004702403210103512,0.024002516642212868,-0.04489060118794441,0.005986860953271389,-0.15942902863025665,-0.14258520305156708,-0.036086954176425934,-0.005835372488945723,0.019101647660136223,0.0007344747427850962,0.0926792323589325,-0.0036177083384245634,-0.013385104946792126
0.014244777150452137,0.034514449536800385,0.3359367549419403,0.41725486516952515,-0.010753093287348747,0.02683836780488491,0.908329427242279,-0.015339480713009834,-0.0072667342610657215,-0.0011982149444520473,-0.10431256890296936,0.12126139551401138,-0.006713048554956913,-0.21556076407432556,-0.08081033825874329,-0.20850685238838196,0.19090214371681213,0.6237908601760864,0.7403895854949951,0.9526796340942383,1.0807561874389648,-1.6082799434661865,-1.5431195497512817,-1.5463685989379883,-1.5188627243041992,-0.008400002494454384,-0.011474384926259518,-0.16065245866775513,-0.23176896572113037,0.0466153658926487,-0.02108071930706501,0.15967385470867157,0.00018018364789895713,0.019511142745614052,-0.006111437454819679,0.06767591834068298,-0.0882958471775055,-0.20604726672172546,0.1531091332435608,0.024766117334365845,0.007355451583862305,0.2792639136314392,0.024793386459350586,0.1157824844121933,-0.22190603613853455,0.03669218719005585,0.2671670913696289,-0.14848993718624115,0.03935207426548004,-0.03841071203351021,-0.04755638539791107,0.007575384806841612,-0.14788168668746948,0.07207193970680237,-0.017911499366164207,-0.05303753539919853,-0.0312616266310215,-0.023862916976213455,-0.07626966387033463,0.13032390177249908,-0.005118817090988159,0.024364115670323372,-0.05154576152563095,0.009302614256739616,-0.1685008853673935,-0.1477946788072586,-0.03811051324009895,-0.007956551387906075,0.021580085158348083,0.00025802699383348227,0.11228132247924805,0.0010123392567038536,-0.01712789759039879
0.014117265120148659,0.03445349633693695,0.3359268307685852,0.4178381860256195,-0.01059908140450716,0.026931995525956154,0.9080603718757629,-0.01714394800364971,-0.0068036410957574844,-0.000870593823492527,-0.11031478643417358,0.12857221066951752,-0.007080049719661474,-0.215630441904068,-0.08090612292289734,-0.20984643697738647,0.18896909058094025,0.6241790056228638,0.740213930606842,0.9540108442306519,1.0807573795318604,-1.6081172227859497,-1.5431702136993408,-1.5458042621612549,-1.5195984840393066,-0.01112331822514534,-0.02765313722193241,-0.18006931245326996,-0.25995972752571106,0.04544386640191078,-0.03258486092090607,0.1816519945859909,-0.01661873050034046,0.01733924075961113,0.03758631646633148,0.04924861714243889,-0.07463721185922623,-0.20601099729537964,0.15323737263679504,0.02477555349469185,0.007426232099533081,0.2792636454105377,0.024792172014713287,0.11586926877498627,-0.22221985459327698,0.03662881255149841,0.26707425713539124,-0.14838345348834991,0.03937850892543793,-0.042245928198099136,-0.04791839048266411,0.009058784693479538,-0.14969603717327118,0.07953623682260513,-0.01756984367966652,-0.05102165415883064,-0.03167571872472763,-0.029693787917494774,-0.09611079096794128,0.10434303432703018,-0.006129229906946421,0.026549071073532104,-0.05188429728150368,0.013210464268922806,-0.1648215651512146,-0.15739929676055908,-0.038533687591552734,-0.007256889715790749,0.02700856141746044,-0.002195754088461399,0.12682610750198364,-0.011334553360939026,-0.01692872680723667
0.013974267989397049,0.034396618604660034,0.33591997623443604,0.4184570014476776,-0.010450572706758976,0.027046209201216698,0.9077736735343933,-0.020883185788989067,-0.00624118372797966,-0.00014984066365286708,-0.11723386496305466,0.13701336085796356,-0.007509544491767883,-0.21572349965572357,-0.08113669604063034,-0.21134856343269348,0.18680010735988617,0.6245580315589905,0.7399420738220215,0.9555263519287109,1.080618143081665,-1.6079726219177246,-1.5428566932678223,-1.5453929901123047,-1.5202211141586304,-0.011015867814421654,-0.01628763973712921,-0.18405325710773468,-0.2741745114326477,0.03556405380368233,-0.039499226957559586,0.18299242854118347,-0.03490300476551056,0.01509705651551485,-0.041566040366888046,0.06655262410640717,-0.06672353297472,-0.205980584025383,0.1533815562725067,0.02478659525513649,0.007549159228801727,0.2792627215385437,0.024744518101215363,0.11597076058387756,-0.22254249453544617,0.03660210222005844,0.26698940992355347,-0.14824846386909485,0.03939781337976456,-0.05073268711566925,-0.04711224138736725,0.011547545902431011,-0.14774256944656372,0.09593963623046875,-0.01587998867034912,-0.06948229670524597,-0.024944625794887543,-0.02028021588921547,-0.045199204236269,0.17741215229034424,-0.0035335649736225605,0.023687291890382767,-0.05519983172416687,0.013037671335041523,-0.18337620794773102,-0.16392768919467926,-0.042265571653842926,-0.013003172352910042,0.030680373311042786,-0.00441344827413559,0.1367141753435135,-0.007480901665985584,-0.01897336170077324
0.013799463398754597,0.03434520214796066,0.3359189033508301,0.4191210865974426,-0.010324093513190746,0.027164878323674202,0.9074652194976807,-0.0237258393317461,-0.007705225143581629,-0.0003670606529340148,-0.13260768353939056,0.15544019639492035,-0.008488262072205544,-0.2158154845237732,-0.08127282559871674,-0.21288438141345978,0.1845133751630783,0.6248545050621033,0.7396124005317688,0.9570532441139221,1.0803273916244507,-1.6078468561172485,-1.5432038307189941,-1.5448379516601562,-1.520777940750122,-0.010767551138997078,-0.016515804454684258,-0.21146364510059357,-0.3108806908130646,0.03186766803264618,-0.036866456270217896,0.20222143828868866,-0.04181799665093422,0.022050397470593452,-0.0037493209820240736,0.06861318647861481,-0.06798672676086426,-0.20597612857818604,0.15356338024139404,0.024798065423965454,0.007574751973152161,0.27932843565940857,0.0247822105884552,0.11605526506900787,-0.22289325296878815,0.036577120423316956,0.26687100529670715,-0.1480979174375534,0.03942078351974487,-0.05915576592087746,-0.052850887179374695,0.012471331283450127,-0.16576416790485382,0.11250023543834686,-0.017427196726202965,-0.0731489509344101,-0.03593913093209267,-0.02970852702856064,-0.09106835722923279,0.1692771315574646,-0.006156489718705416,0.02551991492509842,-0.060647621750831604,0.014979279600083828,-0.19722741842269897,-0.17993982136249542,-0.046075522899627686,-0.014302970841526985,0.03338092193007469,-0.005957846529781818,0.1510738730430603,-0.012173077091574669,-0.02008337527513504
0.013601791113615036,0.03428099304437637,0.3359159529209137,0.41987377405166626,-0.010184799320995808,0.027303339913487434,0.907114565372467,-0.02580229565501213,-0.008199984207749367,-0.00012261276424396783,-0.14318500459194183,0.16840292513370514,-0.00916038453578949,-0.21590495109558105,-0.08141129463911057,-0.21464796364307404,0.18191999197006226,0.6251210570335388,0.7393052577972412,0.9587395787239075,1.0799784660339355,-1.607662320137024,-1.5432347059249878,-1.5442652702331543,-1.521344780921936,-0.012343510054051876,-0.026443051174283028,-0.23225583136081696,-0.3404886722564697,0.02468988299369812,-0.04489942267537117,0.21775823831558228,-0.0534294992685318,0.02375170961022377,0.004676711745560169,0.06539707630872726,-0.06045590713620186,-0.20598171651363373,0.15376895666122437,0.0248032845556736,0.007653810083866119,0.27933380007743835,0.024766065180301666,0.11614154279232025,-0.22327961027622223,0.03655419498682022,0.26674312353134155,-0.14794351160526276,0.0394430011510849,-0.06598956137895584,-0.05471666529774666,0.014158842153847218,-0.17131225764751434,0.12784135341644287,-0.017070233821868896,-0.0774674117565155,-0.036780692636966705,-0.03222355991601944,-0.0954960361123085,0.17435936629772186,-0.00644303672015667,0.02682683616876602,-0.06354504823684692,0.01737646944820881,-0.20403316617012024,-0.19059032201766968,-0.0484163723886013,-0.014776505529880524,0.03661401569843292,-0.007875987328588963,0.16247175633907318,-0.01962375082075596,-0.020221415907144547
0.01338622160255909,0.03421229496598244,0.33591434359550476,0.4206884503364563,-0.0100405840203166,0.02745387889444828,0.9067339897155762,-0.03130717948079109,-0.006721912417560816,0.0014401437947526574,-0.15180495381355286,0.17726446688175201,-0.01674860343337059,-0.21600794792175293,-0.08163154125213623,-0.21658597886562347,0.17907916009426117,0.6253270506858826,0.7389304041862488,0.9605559706687927,1.0795327425003052,-1.6074647903442383,-1.5431956052780151,-1.5437203645706177,-1.5218489170074463,-0.015809405595064163,-0.03830411657691002,-0.2609509527683258,-0.38898780941963196,0.007784965913742781,-0.05878060311079025,0.2320425659418106,-0.09820514172315598,0.024676425382494926,-0.018771905452013016,0.08362417668104172,-0.02315625734627247,-0.20600035786628723,0.1540088951587677,0.02481062337756157,0.007756885141134262,0.27935338020324707,0.02474508434534073,0.11623075604438782,-0.2236841320991516,0.03654231131076813,0.2666143476963043,-0.14777621626853943,0.03945964574813843,-0.07582662254571915,-0.05004505068063736,0.016941938549280167,-0.16583554446697235,0.1443706750869751,-0.021730441600084305,-0.08640697598457336,-0.02975315786898136,-0.0280744805932045,-0.06802487373352051,0.19825026392936707,-0.012048744596540928,0.028526488691568375,-0.06556794792413712,0.018353857100009918,-0.2189713418483734,-0.22432763874530792,-0.06094462424516678,-0.017818275839090347,0.04630543291568756,-0.013097484596073627,0.19048596918582916,-0.04357000067830086,-0.02719762548804283
0.013125616125762463,0.034155767410993576,0.33592677116394043,0.42158153653144836,-0.00992784183472395,0.027652552351355553,0.9063144326210022,-0.03251904621720314,-0.004861561581492424,0.00304051348939538,-0.0010782643221318722,-0.06143335998058319,-0.22806838154792786,-0.2161397933959961,-0.08195067942142487,-0.21876190602779388,0.1758350133895874,0.6253913640975952,0.7384403944015503,0.9624917507171631,1.078713059425354,-1.607258677482605,-1.5433521270751953,-1.5430225133895874,-1.5220417976379395,-0.014926155097782612,-0.0378618985414505,-0.2675812244415283,-0.4041493237018585,-0.006588946562260389,-0.06472080200910568,0.2124851942062378,-0.13271267712116241,0.02434977889060974,-0.02753705345094204,0.11868920177221298,0.005024357233196497,-0.2060559093952179,0.15429887175559998,0.024816293269395828,0.007844135165214539,0.2794184684753418,0.024748899042606354,0.11633487790822983,-0.22413070499897003,0.036560460925102234,0.2664698660373688,-0.14756840467453003,0.039466023445129395,0.014732981100678444,0.044171273708343506,-0.014213528484106064,-0.004747038707137108,-0.08420874923467636,-0.23052987456321716,0.031524673104286194,0.018599621951580048,0.011271558701992035,0.09367252886295319,-0.030780280008912086,-0.22280432283878326,0.04198840260505676,-0.04300627112388611,0.0014740768820047379,-0.07626689970493317,-0.4778410792350769,-0.2752639353275299,0.008409598842263222,0.040974974632263184,0.01726725697517395,0.35535305738449097,-0.2905184030532837,-0.23891966044902802
0.012854067608714104,0.03411579132080078,0.3359517753124237,0.4225064516067505,-0.009858570992946625,0.027897676452994347,0.9058768153190613,-0.029923059046268463,-0.0045130145736038685,0.002826794283464551,-0.1523849219083786,0.18134203553199768,-0.009823078289628029,-0.21626414358615875,-0.08226695656776428,-0.22099405527114868,0.1724643111228943,0.6253362894058228,0.7378999590873718,0.9642635583877563,1.077605962753296,-1.6070555448532104,-1.5435824394226074,-1.5420318841934204,-1.5219992399215698,-0.019220544025301933,-0.04484367370605469,-0.24898110330104828,-0.3835829496383667,-0.013999448157846928,-0.06795632094144821,0.1909981071949005,-0.14387887716293335,0.01664109341800213,-0.01637359708547592,0.10904757678508759,0.0219451654702425,-0.20612573623657227,0.1546078473329544,0.024816200137138367,0.007933337241411209,0.27948176860809326,0.024745814502239227,0.11644342541694641,-0.22459456324577332,0.036584556102752686,0.26631397008895874,-0.14735285937786102,0.039474695920944214,-0.08070496469736099,-0.043448641896247864,0.021018212661147118,-0.14200995862483978,0.1649514138698578,-0.009483613073825836,-0.08783090859651566,-0.024505559355020523,-0.026648392900824547,-0.05914004147052765,0.20135581493377686,-0.0045951665379107,0.023530827835202217,-0.05923938751220703,0.015018878504633904,-0.21697354316711426,-0.20075742900371552,-0.05280330404639244,-0.02129112370312214,0.051087386906147,-0.02074107900261879,0.18607474863529205,-0.03625261411070824,-0.019888557493686676
0.012604949995875359,0.034077856689691544,0.3359754681587219,0.4233717620372772,-0.009813563898205757,0.028138918802142143,0.9054657220840454,-0.025813806802034378,-0.004206127021461725,0.00184124824590981,-0.13844963908195496,0.16539710760116577,-0.008980300277471542,-0.21642503142356873,-0.08264084160327911,-0.22307096421718597,0.16926461458206177,0.6252192854881287,0.7373331785202026,0.9658562541007996,1.0764063596725464,-1.606916904449463,-1.5437183380126953,-1.5411226749420166,-1.5218162536621094,-0.014653042890131474,-0.032271988689899445,-0.22359827160835266,-0.35342511534690857,-0.013964341022074223,-0.054766155779361725,0.18027988076210022,-0.1382768303155899,0.014630290679633617,-0.005675610154867172,0.08632170408964157,0.0283297598361969,-0.206184983253479,0.15491078794002533,0.024815332144498825,0.008044425398111343,0.2795484662055969,0.024730265140533447,0.11653956770896912,-0.22502824664115906,0.036620549857616425,0.26617658138275146,-0.14714385569095612,0.039471812546253204,-0.07308211177587509,-0.03981373831629753,0.018682973459362984,-0.1295522302389145,0.15374605357646942,-0.008485772646963596,-0.07817817479372025,-0.026717424392700195,-0.027252065017819405,-0.07150710374116898,0.17951421439647675,-0.005226376932114363,0.021439582109451294,-0.05462699756026268,0.015071659348905087,-0.19489045441150665,-0.17578601837158203,-0.04746485501527786,-0.01740034855902195,0.047432564198970795,-0.020807240158319473,0.1712481528520584,-0.03712265565991402,-0.017388997599482536
0.012389292009174824,0.03404302895069122,0.33599069714546204,0.4241603910923004,-0.00977005623281002,0.02835029549896717,0.9050905108451843,-0.023954784497618675,-0.003388397628441453,0.002322714775800705,-0.13256973028182983,0.15893268585205078,-0.008645347319543362,-0.21654751896858215,-0.08290984481573105,-0.22493572533130646,0.16631686687469482,0.6251034736633301,0.7368765473365784,0.967360258102417,1.0752530097961426,-1.6067949533462524,-1.5437662601470947,-1.5404024124145508,-1.5215805768966675,-0.008933532051742077,-0.024529624730348587,-0.20581240952014923,-0.3257771134376526,-0.01987573876976967,-0.05875737592577934,0.1654256135225296,-0.12917941808700562,0.011101632378995419,-0.03266357257962227,0.09120770543813705,0.023593805730342865,-0.2062339186668396,0.15518945455551147,0.02481156587600708,0.008161727339029312,0.2795768976211548,0.024694986641407013,0.11662697792053223,-0.22542481124401093,0.03666146844625473,0.2660684287548065,-0.14694146811962128,0.03945184499025345,-0.07213440537452698,-0.03681548684835434,0.019474217668175697,-0.12025617808103561,0.1576627939939499,-0.006759436335414648,-0.07972915470600128,-0.021612701937556267,-0.02227364294230938,-0.04681994765996933,0.19874152541160583,-0.003984651993960142,0.018934672698378563,-0.05289857089519501,0.01407992746680975,-0.19343678653240204,-0.16213902831077576,-0.04642803594470024,-0.018601497635245323,0.0434071384370327,-0.019058553501963615,0.15581992268562317,-0.025569472461938858,-0.016977960243821144
0.012189316563308239,0.034014277160167694,0.33601075410842896,0.4249216616153717,-0.009742273017764091,0.02853774093091488,0.9047277569770813,-0.023244010284543037,-0.0025775167159736156,0.002742609241977334,-0.12480475008487701,0.15013477206230164,-0.008183779194951057,-0.21662181615829468,-0.08311472088098526,-0.2266523241996765,0.1636001616716385,0.6249372363090515,0.736386239528656,0.9687399864196777,1.0741748809814453,-1.606702208518982,-1.5440380573272705,-1.539642095565796,-1.5213829278945923,-0.005990893580019474,-0.026193495839834213,-0.1846621185541153,-0.3154042661190033,-0.023421378806233406,-0.058297935873270035,0.16304698586463928,-0.13953518867492676,0.013434110209345818,-0.007275890558958054,0.08357100188732147,0.042293157428503036,-0.20628361403942108,0.15547394752502441,0.024814944714307785,0.008250456303358078,0.27964112162590027,0.02469794452190399,0.11670622229576111,-0.22580735385417938,0.036699168384075165,0.26595956087112427,-0.14676418900489807,0.03944879770278931,-0.06991693377494812,-0.03370072692632675,0.01872539520263672,-0.11345925182104111,0.15187616646289825,-0.006213114596903324,-0.07332080602645874,-0.02110154740512371,-0.023591360077261925,-0.05775858834385872,0.1719788908958435,-0.0044861831702291965,0.01578437350690365,-0.05258658155798912,0.015095267444849014,-0.19213221967220306,-0.14820443093776703,-0.04534875974059105,-0.01752059906721115,0.04364755004644394,-0.020568136125802994,0.15035909414291382,-0.03200530260801315,-0.014943490736186504
0.011996024288237095,0.03399336338043213,0.33603280782699585,0.42564114928245544,-0.009721995331346989,0.028703723102808,0.904384434223175,-0.02021399326622486,-0.0021272909361869097,0.0027491000946611166,-0.11351237446069717,0.1369919627904892,-0.0074823410250246525,-0.21667173504829407,-0.08333279937505722,-0.2281915545463562,0.16096946597099304,0.624741792678833,0.7359001040458679,0.9701000452041626,1.0730116367340088,-1.6065905094146729,-1.5440993309020996,-1.5389450788497925,-1.5210304260253906,0.004492487758398056,-0.005790732800960541,-0.14965760707855225,-0.2855786383152008,-0.024542149156332016,-0.056833792477846146,0.14539897441864014,-0.13683182001113892,0.015302272513508797,-0.014039788395166397,0.0810188353061676,0.052922967821359634,-0.2063376009464264,0.15575596690177917,0.024816986173391342,0.008357986807823181,0.2797001004219055,0.02468114346265793,0.11676958203315735,-0.22618678212165833,0.03674732893705368,0.2658645510673523,-0.14657044410705566,0.03942660987377167,-0.06542889028787613,-0.0318615697324276,0.017370542511343956,-0.10941022634506226,0.14630700647830963,-0.0060821957886219025,-0.07149424403905869,-0.02075670287013054,-0.022093651816248894,-0.05536585673689842,0.17781206965446472,-0.004432950168848038,0.010850702412426472,-0.05133577808737755,0.01409671176224947,-0.18838131427764893,-0.12149827927350998,-0.04269371181726456,-0.01568722538650036,0.039372291415929794,-0.020664162933826447,0.13225476443767548,-0.0308441873639822,-0.012520806863904
0.011827560141682625,0.03397556394338608,0.3360559642314911,0.42630013823509216,-0.009722143411636353,0.028836043551564217,0.9040697813034058,-0.017750920727849007,-0.0013716616667807102,0.0030967167112976313,-0.0991377979516983,0.11999867111444473,-0.006568907760083675,-0.216633602976799,-0.08338109403848648,-0.22944018244743347,0.15858833491802216,0.6245371699333191,0.735426127910614,0.971312403678894,1.0718703269958496,-1.6064624786376953,-1.5442157983779907,-1.53826904296875,-1.520588755607605,0.01162978820502758,0.002800631569698453,-0.10863932222127914,-0.24534116685390472,-0.025797465816140175,-0.04637621343135834,0.12948381900787354,-0.1276186853647232,0.014894180931150913,0.004530107602477074,0.07223449647426605,0.050858188420534134,-0.20638445019721985,0.15600913763046265,0.024813223630189896,0.008434273302555084,0.27974534034729004,0.024665996432304382,0.11681099981069565,-0.22655721008777618,0.03679603338241577,0.2657940983772278,-0.14639467000961304,0.03940144181251526,-0.05983884632587433,-0.027966182678937912,0.016155000776052475,-0.09830806404352188,0.13585853576660156,-0.005186968017369509,-0.06206658482551575,-0.0218553077429533,-0.021945521235466003,-0.06872883439064026,0.14884112775325775,-0.005036922637373209,0.004559551365673542,-0.049600210040807724,0.01399189792573452,-0.18184888362884521,-0.09116245806217194,-0.03916671872138977,-0.01585380919277668,0.03501531854271889,-0.01867653988301754,0.11536725610494614,-0.021586118265986443,-0.011647839099168777
0.01167865190654993,0.0339638888835907,0.33608201146125793,0.4268818497657776,-0.009726636111736298,0.028918461874127388,0.9037925601005554,-0.013856017962098122,-0.0003899798612110317,0.003270682180300355,-0.0843740776181221,0.1023959070444107,-0.005613556131720543,-0.21653690934181213,-0.0833575576543808,-0.23034578561782837,0.15654177963733673,0.6243218183517456,0.7350395321846008,0.9723918437957764,1.0708060264587402,-1.6063377857208252,-1.5441780090332031,-1.5376672744750977,-1.520164966583252,0.019947445020079613,-0.0005985184106975794,-0.07542189210653305,-0.1986413300037384,-0.026370108127593994,-0.055694546550512314,0.10511378943920135,-0.1184893324971199,0.01312231458723545,0.018822841346263885,0.06342665106058121,0.05429397150874138,-0.20643460750579834,0.15624897181987762,0.0248168483376503,0.008518341928720474,0.27977076172828674,0.024644650518894196,0.11681314557790756,-0.2269052267074585,0.03684201091527939,0.2657235562801361,-0.14622235298156738,0.03937447816133499,-0.052924785763025284,-0.023999366909265518,0.014953860081732273,-0.08703664690256119,0.12615033984184265,-0.004184674005955458,-0.05258325859904289,-0.015133874490857124,-0.019981680437922478,-0.05559895932674408,0.12541113793849945,-0.004139560740441084,0.00024547241628170013,-0.04392629489302635,0.012695863842964172,-0.16343538463115692,-0.062101300805807114,-0.03361909091472626,-0.015384210273623466,0.028875991702079773,-0.017522549256682396,0.09072718769311905,-0.011181262321770191,-0.009994419291615486
0.011563066393136978,0.03396115452051163,0.3361090123653412,0.4273802936077118,-0.009744216687977314,0.028955882415175438,0.9035555720329285,-0.009125853888690472,0.0005315275629982352,0.0031928641255944967,-0.0673833042383194,0.08195982873439789,-0.004498493857681751,-0.21637043356895447,-0.08336205780506134,-0.2309747189283371,0.1548852175474167,0.6241020560264587,0.7345747947692871,0.9732683300971985,1.0698180198669434,-1.6062291860580444,-1.5440210103988647,-1.5371379852294922,-1.5197124481201172,0.02729145996272564,0.030897878110408783,-0.03942040354013443,-0.1395346075296402,-0.025157591328024864,-0.03547239303588867,0.07905388623476028,-0.09715327620506287,0.009235573001205921,0.006814352236688137,0.055674079805612564,0.0427730567753315,-0.20647521317005157,0.1564679741859436,0.024823561310768127,0.008611001074314117,0.2798367738723755,0.02462681382894516,0.11680027842521667,-0.22720152139663696,0.0368804931640625,0.2656640410423279,-0.14606991410255432,0.03934299945831299,-0.0439755842089653,-0.019484583288431168,0.013417694717645645,-0.07265638560056686,0.11307347565889359,-0.002926884451881051,-0.04639668017625809,-0.018526241183280945,-0.017534345388412476,-0.06489849835634232,0.1240282729268074,-0.004682042170315981,-0.003191126976162195,-0.03788101673126221,0.010677549988031387,-0.14395558834075928,-0.0333540104329586,-0.02784356102347374,-0.015422925353050232,0.020788302645087242,-0.01428530365228653,0.06261850893497467,0.0077752829529345036,-0.009325253777205944
0.011487051844596863,0.0339655801653862,0.33613598346710205,0.42777982354164124,-0.009776479564607143,0.028951749205589294,0.9033662676811218,-0.00591817032545805,0.0019279184052720666,0.003038489492610097,-0.05126221105456352,0.062463872134685516,-0.0034319511614739895,-0.21614256501197815,-0.08310488611459732,-0.23130328953266144,0.1537219136953354,0.6238920092582703,0.7342793941497803,0.9739282131195068,1.0690077543258667,-1.606151819229126,-1.543964147567749,-1.5366734266281128,-1.5193551778793335,0.03524715080857277,0.019421041011810303,-0.021718908101320267,-0.09676828235387802,-0.0276167169213295,-0.038037996739149094,0.06152760982513428,-0.08285436034202576,0.012824314646422863,0.02110852114856243,0.03198487311601639,0.04466461390256882,-0.20650185644626617,0.15665429830551147,0.02483363077044487,0.008668843656778336,0.27984941005706787,0.024611353874206543,0.11678055673837662,-0.22744856774806976,0.03691086173057556,0.2656092345714569,-0.14595437049865723,0.0393238365650177,-0.03691394254565239,-0.01463518850505352,0.010824006982147694,-0.06240496039390564,0.09901441633701324,-0.0023960156831890345,-0.033888641744852066,-0.010991649702191353,-0.014666013419628143,-0.050512708723545074,0.08821645379066467,-0.0035947563592344522,-0.004593060351908207,-0.027938663959503174,0.010255115106701851,-0.10804976522922516,-0.013166902586817741,-0.019907798618078232,-0.013369427993893623,0.015431182458996773,-0.012524954974651337,0.03921923041343689,0.01123709324747324,-0.0068207294680178165
0.011438600718975067,0.0339808389544487,0.3361608386039734,0.4280817210674286,-0.009813797660171986,0.028918445110321045,0.9032239317893982,-0.0009089504019357264,0.0024833509232848883,0.002450296189635992,-0.03755255788564682,0.045820899307727814,-0.0025193397887051105,-0.21584895253181458,-0.08294282853603363,-0.23148399591445923,0.15291468799114227,0.6236615777015686,0.7339614629745483,0.9744409918785095,1.0683168172836304,-1.6060445308685303,-1.543788194656372,-1.5364069938659668,-1.518983244895935,0.03617648407816887,0.033385492861270905,-0.0019238387467339635,-0.046828120946884155,-0.02241913415491581,-0.02537916600704193,0.0470183901488781,-0.053696904331445694,0.010526028461754322,0.02649449184536934,0.010616368614137173,0.0233816746622324,-0.20653502643108368,0.15680885314941406,0.02484028786420822,0.008738990873098373,0.2798979580402374,0.0245983824133873,0.11676451563835144,-0.22761592268943787,0.03694475442171097,0.2655705511569977,-0.14585557579994202,0.03929946571588516,-0.026381278410553932,-0.011223104782402515,0.008516531437635422,-0.051454998552799225,0.08127029240131378,-0.0020231648813933134,-0.02421894483268261,-0.012553736567497253,-0.01420519221574068,-0.05955638363957405,0.07091133296489716,-0.003981295041739941,-0.004722156561911106,-0.02096245065331459,0.009754011407494545,-0.07983957976102829,0.008088955655694008,-0.013176443055272102,-0.011703078635036945,0.007695377338677645,-0.008312150835990906,0.015257639810442924,0.0282851941883564,-0.006452171131968498
0.01143079437315464,0.03400189429521561,0.3361816704273224,0.4282956123352051,-0.009833814576268196,0.0288527961820364,0.9031243324279785,0.0055649313144385815,0.002580337692052126,0.0019317450933158398,-0.021952461451292038,0.026811949908733368,-0.0014732739655300975,-0.2155466079711914,-0.08266457170248032,-0.23150020837783813,0.1525246500968933,0.6234748959541321,0.7337499260902405,0.9748327136039734,1.0678683519363403,-1.6059573888778687,-1.543567180633545,-1.5363188982009888,-1.5187879800796509,0.037409450858831406,0.028347626328468323,0.02450769580900669,0.010241635143756866,-0.021122902631759644,-0.01787225529551506,0.022155053913593292,-0.03019297495484352,0.008581453002989292,0.02938956208527088,-0.028695890679955482,0.02345067821443081,-0.2065502107143402,0.15694016218185425,0.024856172502040863,0.008797284215688705,0.27992185950279236,0.02458076924085617,0.11675170063972473,-0.2277156263589859,0.036970093846321106,0.2655351161956787,-0.14578397572040558,0.039280638098716736,-0.014463028870522976,-0.006945329252630472,0.006109436973929405,-0.03612684831023216,0.06362955272197723,-0.0009202136425301433,-0.009278482757508755,-0.008804211392998695,-0.010810032486915588,-0.048787180334329605,0.041420359164476395,-0.00312513648532331,-0.008512003347277641,-0.010381125845015049,0.010395875200629234,-0.032525062561035156,0.049868348985910416,-0.0012945284834131598,-0.008345507085323334,-0.003585350699722767,-0.006408597808331251,-0.023282716050744057,0.03887520357966423,-0.0032219537533819675
0.011477171443402767,0.03402375057339668,0.3361974060535431,0.42837992310523987,-0.009852290153503418,0.02874707244336605,0.9030876159667969,0.012184252962470055,0.0021917473059147596,0.0010517691262066364,-0.026136446744203568,0.031934481114149094,-0.0017522802809253335,-0.21523457765579224,-0.08242781460285187,-0.23129548132419586,0.1526106894016266,0.6232988834381104,0.7336015701293945,0.9750180840492249,1.0676169395446777,-1.6058847904205322,-1.543322205543518,-1.5365583896636963,-1.5185924768447876,0.05926525965332985,0.044597312808036804,0.06270258128643036,0.0702892392873764,-0.025974847376346588,-0.01448163390159607,0.011493266560137272,-0.007034677546471357,0.02632776089012623,0.042094483971595764,-0.08019068092107773,0.022650564089417458,-0.2065412700176239,0.15702950954437256,0.02487364038825035,0.008870076388120651,0.27995941042900085,0.02457728236913681,0.11674106866121292,-0.2277136892080307,0.03700008988380432,0.2655387222766876,-0.1457512080669403,0.03925233334302902,-0.013639328069984913,-0.013025980442762375,0.003986217547208071,-0.06390620768070221,0.07753395289182663,-0.004326808266341686,-0.005952904932200909,-0.015889033675193787,-0.01632181741297245,-0.07568050920963287,0.04890463873744011,-0.004717007279396057,-0.021524008363485336,-0.010330267250537872,0.01606271043419838,-0.01393059827387333,0.12358007580041885,0.008399078622460365,-0.01299986056983471,-0.02182832546532154,-0.0075316340662539005,-0.08254913985729218,0.07667862623929977,-0.0016936211613938212
0.01157853938639164,0.034041762351989746,0.33620649576187134,0.42835304141044617,-0.009834080003201962,0.02857963927090168,0.9031058549880981,0.015702001750469208,0.0021903549786657095,-0.0015528136864304543,-0.034671321511268616,0.04235800728201866,-0.0023145913146436214,-0.21473993360996246,-0.08205615729093552,-0.23077189922332764,0.15319782495498657,0.6230818033218384,0.7334807515144348,0.975114107131958,1.0675586462020874,-1.605665922164917,-1.5429706573486328,-1.5372281074523926,-1.5184040069580078,0.07072187215089798,0.06404627859592438,0.0824069231748581,0.12166253477334976,-0.01973593607544899,0.011373801156878471,0.006044825538992882,0.04052336513996124,0.028377173468470573,0.03736351057887077,-0.11142846196889877,-0.012459458783268929,-0.2065502554178238,0.15706893801689148,0.024891678243875504,0.008915875107049942,0.27999237179756165,0.024572506546974182,0.11669310927391052,-0.2276322990655899,0.037033699452877045,0.26555439829826355,-0.14575506746768951,0.039188772439956665,-0.014531590044498444,-0.01923948898911476,0.002523113042116165,-0.085975781083107,0.09159421175718307,-0.006775689776986837,-0.005441313609480858,-0.027843210846185684,-0.02234923094511032,-0.11283713579177856,0.06096561625599861,-0.0069095678627491,-0.03113025426864624,-0.011432463303208351,0.018196605145931244,-0.007228064350783825,0.1722915917634964,0.013832703232765198,-0.019233930855989456,-0.0389498770236969,-0.005228777416050434,-0.1331089437007904,0.11916476488113403,-0.0019816849380731583
0.011710179969668388,0.03405974060297012,0.33619338274002075,0.42826125025749207,-0.009787039831280708,0.02838212065398693,0.903156042098999,0.019972166046500206,0.0020165215246379375,-0.004578995984047651,-0.04434742406010628,0.054157555103302,-0.0029417010955512524,-0.21415071189403534,-0.08152180910110474,-0.23008474707603455,0.15421265363693237,0.6229172348976135,0.7335752844810486,0.975163996219635,1.0678969621658325,-1.60542893409729,-1.5426597595214844,-1.5381572246551514,-1.5185075998306274,0.07337523996829987,0.059058308601379395,0.09290146082639694,0.14767497777938843,-0.006904647685587406,0.029271317645907402,0.011439919471740723,0.09325238317251205,0.022266613319516182,0.0311419814825058,-0.14595626294612885,-0.04211268573999405,-0.20656637847423553,0.15707063674926758,0.02490314468741417,0.00894702598452568,0.2799721360206604,0.024554036557674408,0.11662129312753677,-0.22749975323677063,0.03705097734928131,0.26556214690208435,-0.1458195447921753,0.03913111984729767,-0.012574729509651661,-0.02510654367506504,0.0015340533573180437,-0.10243558138608932,0.10120262205600739,-0.008637670427560806,-0.0006473362445831299,-0.033524155616760254,-0.026238661259412766,-0.12837593257427216,0.06148852780461311,-0.0077499584294855595,-0.036654889583587646,-0.013393649831414223,0.020889636129140854,-0.0015611439011991024,0.21052008867263794,0.018163321539759636,-0.017480377107858658,-0.05360550433397293,-0.0024583314079791307,-0.1768914759159088,0.13686634600162506,0.0008657346479594707
0.011876617558300495,0.0340767502784729,0.33615541458129883,0.4281258285045624,-0.009694356471300125,0.02815117873251438,0.9032285213470459,0.023472793400287628,0.002065269509330392,-0.007045641075819731,-0.06251191347837448,0.07629476487636566,-0.0041083963587880135,-0.2135382890701294,-0.08102907985448837,-0.22930970788002014,0.15544480085372925,0.6228597164154053,0.7338203191757202,0.9752597212791443,1.0686752796173096,-1.6052429676055908,-1.5424000024795532,-1.5393751859664917,-1.5188597440719604,0.09386399388313293,0.07367397099733353,0.12040308862924576,0.2034205198287964,0.010429187677800655,0.05033348128199577,0.02109338529407978,0.14772546291351318,0.019101817160844803,0.03448650985956192,-0.19329693913459778,-0.08642802387475967,-0.20656730234622955,0.1570572555065155,0.024919789284467697,0.009005315601825714,0.27995994687080383,0.02454765886068344,0.11654096841812134,-0.22731898725032806,0.037048473954200745,0.26561376452445984,-0.14592669904232025,0.039075128734111786,-0.017510222271084785,-0.037855543196201324,0.0024348036386072636,-0.1443265676498413,0.1302320659160614,-0.013033710420131683,-0.002575572347268462,-0.04723404720425606,-0.03513532131910324,-0.17463955283164978,0.07941111922264099,-0.010430129244923592,-0.051177311688661575,-0.020387321710586548,0.027608517557382584,-0.008710548281669617,0.2776187062263489,0.02281813696026802,-0.027888456359505653,-0.07443641126155853,0.00013659708201885223,-0.2381294071674347,0.19580599665641785,-0.0005239645252004266
0.012072154320776463,0.03409399837255478,0.33609697222709656,0.4279192388057709,-0.009565841406583786,0.027838144451379776,0.9033375382423401,0.02697776071727276,0.002638417761772871,-0.00806308351457119,-0.07404101639986038,0.09028352797031403,-0.004803802352398634,-0.2127554714679718,-0.0804145485162735,-0.22830545902252197,0.15714126825332642,0.622947096824646,0.7342402935028076,0.9754358530044556,1.0699076652526855,-1.6050838232040405,-1.5421122312545776,-1.5409879684448242,-1.5195798873901367,0.09675198048353195,0.09397716075181961,0.13704098761081696,0.23240754008293152,0.022028448060154915,0.07041459530591965,0.023365996778011322,0.17718522250652313,0.016434457153081894,0.0260520800948143,-0.22061775624752045,-0.10084965825080872,-0.20657342672348022,0.15700262784957886,0.02494422346353531,0.009062662720680237,0.2799353003501892,0.024548031389713287,0.11643809080123901,-0.22708119451999664,0.03703530132770538,0.2656635642051697,-0.14606724679470062,0.0390283465385437,-0.016901087015867233,-0.04356761276721954,0.003198218997567892,-0.16448062658309937,0.14078830182552338,-0.015305457636713982,-0.004807745106518269,-0.057909052819013596,-0.03983120247721672,-0.20802409946918488,0.10164397209882736,-0.012353621423244476,-0.05916883051395416,-0.023581599816679955,0.03190155327320099,-0.01193357352167368,0.3202398121356964,0.02603849023580551,-0.031132176518440247,-0.08694735169410706,0.0009853832889348269,-0.2795421779155731,0.2228689044713974,0.0007426979136653244
0.012297559529542923,0.03411652892827988,0.33602944016456604,0.42765283584594727,-0.00940691027790308,0.027487684041261673,0.9034759998321533,0.03023972176015377,0.004087681416422129,-0.009321168065071106,-0.08271840959787369,0.10074570029973984,-0.005284723825752735,-0.2119481861591339,-0.07963073253631592,-0.2271619290113449,0.1590798944234848,0.6231311559677124,0.734826922416687,0.9756301045417786,1.0713859796524048,-1.6049468517303467,-1.5418950319290161,-1.5428282022476196,-1.5204215049743652,0.09850069880485535,0.09660209715366364,0.15181121230125427,0.26365652680397034,0.03439491242170334,0.08576581627130508,0.01790430024266243,0.20119699835777283,0.015791501849889755,0.025492630898952484,-0.2421056032180786,-0.11079086363315582,-0.20656345784664154,0.15692904591560364,0.02497788518667221,0.009095251560211182,0.279880553483963,0.02455514669418335,0.11633120477199554,-0.22679872810840607,0.0370170921087265,0.26573771238327026,-0.14622069895267487,0.038976311683654785,-0.014848753809928894,-0.04768618941307068,0.0028839525766670704,-0.18318046629428864,0.1451585292816162,-0.017772268503904343,-0.002290803473442793,-0.06318201869726181,-0.0433344766497612,-0.2297862023115158,0.10466225445270538,-0.013416933827102184,-0.06644392758607864,-0.023615563288331032,0.03437504172325134,-0.009732072241604328,0.3591043949127197,0.029881209135055542,-0.03464149311184883,-0.09768335521221161,0.0010036085732281208,-0.318821519613266,0.24869698286056519,0.0020475273486226797
0.012549060396850109,0.03415040299296379,0.3359520137310028,0.4273196756839752,-0.009232173673808575,0.027134260162711143,0.9036461710929871,0.033227648586034775,0.006313307676464319,-0.010096671991050243,-0.08917120099067688,0.10844428837299347,-0.005602870136499405,-0.21112708747386932,-0.07882432639598846,-0.22589610517024994,0.16127915680408478,0.6234174966812134,0.7355427742004395,0.9757791757583618,1.0730639696121216,-1.6048150062561035,-1.541682243347168,-1.5448472499847412,-1.5213462114334106,0.10413088649511337,0.09594353288412094,0.17308862507343292,0.3008582592010498,0.03702223673462868,0.09410329163074493,0.004909179173409939,0.2284403145313263,0.009889613837003708,0.01915959268808365,-0.24450352787971497,-0.12437370419502258,-0.20653879642486572,0.1568155139684677,0.025008153170347214,0.00912800058722496,0.2798079252243042,0.024555616080760956,0.11621871590614319,-0.22647503018379211,0.037002481520175934,0.265825480222702,-0.1463991105556488,0.03892289102077484,-0.015570312738418579,-0.04856600612401962,0.004190586507320404,-0.19076739251613617,0.15920118987560272,-0.017682360485196114,-0.00042576203122735023,-0.06403851509094238,-0.04460776224732399,-0.23737436532974243,0.11047559976577759,-0.013686356134712696,-0.07349763810634613,-0.02418224699795246,0.03478427231311798,-0.018215911462903023,0.39297303557395935,0.03146251291036606,-0.03871104121208191,-0.10818232595920563,0.002301444299519062,-0.3593730032444,0.27654263377189636,0.003310670144855976
0.012826358899474144,0.03420241177082062,0.3358670771121979,0.4269297420978546,-0.009066165424883366,0.0267798975110054,0.9038428068161011,0.033329058438539505,0.008582429960370064,-0.00981045886874199,-0.09116590023040771,0.11067796498537064,-0.005633141845464706,-0.2102585881948471,-0.07802456617355347,-0.2244524508714676,0.1637887954711914,0.6237269043922424,0.7363277673721313,0.9758203625679016,1.0749692916870117,-1.6047331094741821,-1.5415226221084595,-1.5468863248825073,-1.522383451461792,0.10338418185710907,0.09539079666137695,0.17877694964408875,0.3040790259838104,0.03932329639792442,0.10194437950849533,-0.009574931114912033,0.21781104803085327,0.0046543884091079235,0.010926310904324055,-0.2349502146244049,-0.10544010251760483,-0.20651115477085114,0.1566801369190216,0.025036942213773727,0.009169567376375198,0.2797423303127289,0.024555839598178864,0.11610416322946548,-0.2261297106742859,0.03698576241731644,0.2659262716770172,-0.14661936461925507,0.0388895645737648,-0.016030164435505867,-0.046863917261362076,0.00553599838167429,-0.19011849164962769,0.1626306027173996,-0.017106398940086365,-0.000150938518345356,-0.06316916644573212,-0.0434652678668499,-0.2387225329875946,0.1124105155467987,-0.013585079461336136,-0.07666052877902985,-0.021503986790776253,0.03372170403599739,-0.020294396206736565,0.4027658700942993,0.03199139982461929,-0.039919089525938034,-0.1078585609793663,-0.00017224391922354698,-0.36984390020370483,0.27594080567359924,0.005232660099864006
0.013104903511703014,0.034274064004421234,0.3357850909233093,0.4265104830265045,-0.00890321470797062,0.026445871219038963,0.9040521383285522,0.034238290041685104,0.009958402253687382,-0.00961875170469284,-0.08892656862735748,0.10775793343782425,-0.005404897965490818,-0.20939594507217407,-0.07722847908735275,-0.2229609191417694,0.16632512211799622,0.6240548491477966,0.7371780276298523,0.9757402539253235,1.076785922050476,-1.6046940088272095,-1.5414308309555054,-1.5488464832305908,-1.523262619972229,0.10305427759885788,0.08483868837356567,0.18142153322696686,0.30179959535598755,0.03095577470958233,0.1057773232460022,-0.022188715636730194,0.21564315259456635,0.005257805809378624,0.009408276528120041,-0.22199933230876923,-0.0964849665760994,-0.20649343729019165,0.1565382480621338,0.025072988122701645,0.009199470281600952,0.2796767055988312,0.024560116231441498,0.1159810721874237,-0.2257617861032486,0.03696737438440323,0.2660306692123413,-0.1468268781900406,0.038841135799884796,-0.0156985092908144,-0.042998578399419785,0.005640334915369749,-0.18185338377952576,0.16427968442440033,-0.015479827299714088,0.004654912278056145,-0.05977044627070427,-0.04131951928138733,-0.2315606325864792,0.09975161403417587,-0.012938179075717926,-0.07591918110847473,-0.018736859783530235,0.031662534922361374,-0.020202580839395523,0.40174075961112976,0.031913504004478455,-0.03688417375087738,-0.10622971504926682,-0.00029531028121709824,-0.371428519487381,0.26685407757759094,0.007352174259722233
0.013390060514211655,0.034357331693172455,0.33570489287376404,0.4260907471179962,-0.008744120597839355,0.026137737557291985,0.9042604565620422,0.03624524921178818,0.010406503453850746,-0.009914778172969818,-0.08788547664880753,0.10629738867282867,-0.005257061682641506,-0.20853617787361145,-0.07652105391025543,-0.22144736349582672,0.16884300112724304,0.6243129372596741,0.7380608320236206,0.975555419921875,1.0785850286483765,-1.6046502590179443,-1.5413529872894287,-1.5506978034973145,-1.5240672826766968,0.10287914425134659,0.08816685527563095,0.17945431172847748,0.30309101939201355,0.018793586641550064,0.11302702128887177,-0.03601110726594925,0.21416407823562622,0.005988213699311018,-0.005011796019971371,-0.22075553238391876,-0.08948341757059097,-0.20648564398288727,0.15640747547149658,0.025109950453042984,0.00925704836845398,0.27961796522140503,0.024565473198890686,0.11585075408220291,-0.22539222240447998,0.036946073174476624,0.2661474049091339,-0.1470419317483902,0.03879372030496597,-0.015466082841157913,-0.039615169167518616,0.005571956746280193,-0.17212000489234924,0.16983936727046967,-0.01333284005522728,0.006286852061748505,-0.059695709496736526,-0.03952538222074509,-0.22711977362632751,0.10530038923025131,-0.0125714847818017,-0.07520072162151337,-0.014574313536286354,0.030265897512435913,-0.008641274645924568,0.406785249710083,0.034244246780872345,-0.03411129117012024,-0.1064293384552002,-0.0009398192632943392,-0.37550854682922363,0.26275429129600525,0.00901259295642376
0.013692637905478477,0.034444261342287064,0.33562251925468445,0.4256645441055298,-0.008586996234953403,0.025853009894490242,0.9044709205627441,0.03693210333585739,0.01004299521446228,-0.010748861357569695,-0.08499497920274734,0.10260623693466187,-0.005005630664527416,-0.20767836272716522,-0.07578571885824203,-0.2199510782957077,0.1713705211877823,0.6244699954986572,0.7390031814575195,0.9752550721168518,1.0803714990615845,-1.604600191116333,-1.5413947105407715,-1.552539348602295,-1.5248135328292847,0.09861292690038681,0.07081340253353119,0.17458318173885345,0.2986913025379181,0.01253338810056448,0.11844606697559357,-0.050914421677589417,0.21238486468791962,-0.0031621078960597515,-0.0050380416214466095,-0.2190788984298706,-0.08277301490306854,-0.20648536086082458,0.1562853753566742,0.025145936757326126,0.009317073971033096,0.2795432209968567,0.024572916328907013,0.11572148650884628,-0.22500260174274445,0.036924079060554504,0.2662822902202606,-0.14727140963077545,0.03874293714761734,-0.014799733646214008,-0.03625348210334778,0.005957054905593395,-0.15493538975715637,0.17255547642707825,-0.010275403037667274,0.013125685974955559,-0.0570412240922451,-0.03774276375770569,-0.2173161655664444,0.08468452095985413,-0.011776087805628777,-0.07456979155540466,-0.009913047775626183,0.027856871485710144,0.007098507601767778,0.4077969789505005,0.036863893270492554,-0.030742278322577477,-0.10565139353275299,-0.0017098989337682724,-0.37365540862083435,0.25240015983581543,0.010890009813010693
0.014000759460031986,0.03452792763710022,0.3355332314968109,0.42524001002311707,-0.00844747293740511,0.025595424696803093,0.9046792387962341,0.036595847457647324,0.009146659635007381,-0.013552880845963955,-0.08549915254116058,0.10301966220140457,-0.004963954910635948,-0.20685525238513947,-0.07519588619470596,-0.21849490702152252,0.1738622933626175,0.6245741844177246,0.739991307258606,0.9748307466506958,1.0821428298950195,-1.604627013206482,-1.5414358377456665,-1.5543668270111084,-1.5255043506622314,0.10376518964767456,0.01639757677912712,0.1722194105386734,0.2934941053390503,0.026164809241890907,0.11839883029460907,-0.03426101431250572,0.22934691607952118,-0.015096199698746204,0.060940179973840714,-0.23141062259674072,-0.10421964526176453,-0.20648567378520966,0.15616491436958313,0.02517886459827423,0.00942927971482277,0.27946263551712036,0.024573147296905518,0.1155887320637703,-0.2246020883321762,0.03690283000469208,0.2664374113082886,-0.147522434592247,0.03869573771953583,-0.015021431259810925,-0.040387287735939026,0.0049515473656356335,-0.16007620096206665,0.17579057812690735,-0.010654911398887634,0.031943999230861664,-0.054983384907245636,-0.04454352334141731,-0.23372434079647064,0.0009865615284070373,-0.012027650140225887,-0.07299317419528961,-0.01291409321129322,0.027766678482294083,0.004626969341188669,0.4037509262561798,0.03601044416427612,-0.028794923797249794,-0.10562720149755478,-0.0005629521328955889,-0.3675427734851837,0.25136011838912964,0.010597292333841324
0.014305513352155685,0.034603945910930634,0.33542025089263916,0.4248330891132355,-0.008285686373710632,0.0253138467669487,0.9048798084259033,0.0352938137948513,0.009002302773296833,-0.01515628956258297,-0.08586135506629944,0.10326889902353287,-0.004905698820948601,-0.20598992705345154,-0.0750579833984375,-0.21705853939056396,0.17630963027477264,0.6247926354408264,0.7409787178039551,0.9745448231697083,1.084055781364441,-1.6047531366348267,-1.5409283638000488,-1.556296944618225,-1.5263735055923462,0.09940632432699203,0.09764056652784348,0.1740066260099411,0.2946922779083252,0.0278786513954401,0.14649568498134613,-0.05785074084997177,0.21974331140518188,-0.042460232973098755,-0.06384719908237457,-0.2237059473991394,-0.08046264946460724,-0.20648816227912903,0.15603861212730408,0.025214023888111115,0.009702250361442566,0.27941957116127014,0.0245324969291687,0.11545318365097046,-0.22421124577522278,0.03686169534921646,0.266597181558609,-0.14776378870010376,0.03864119201898575,-0.017817378044128418,-0.038081709295511246,0.0078048077411949635,-0.13837231695652008,0.18891577422618866,-0.00610954686999321,0.004634350538253784,-0.0634208470582962,-0.036410100758075714,-0.21168352663516998,0.1254100501537323,-0.011463305912911892,-0.07792923599481583,-0.009061140939593315,0.02406180091202259,0.014870834536850452,0.4155347943305969,0.03863149881362915,-0.029602397233247757,-0.107851043343544,-0.004922078922390938,-0.37946292757987976,0.24355974793434143,0.014048273675143719
0.014600460417568684,0.034679118543863297,0.33529332280158997,0.42439815402030945,-0.00818893127143383,0.02504953369498253,0.9050920009613037,0.03460071608424187,0.009210426360368729,-0.012732376344501972,-0.08402738720178604,0.10086735337972641,-0.004740435630083084,-0.2051609456539154,-0.07424456626176834,-0.215606689453125,0.17876744270324707,0.6250249743461609,0.7422006130218506,0.9740614891052246,1.0858885049819946,-1.6051069498062134,-1.5414608716964722,-1.5581618547439575,-1.5270439386367798,0.07797316461801529,0.045549023896455765,0.16706426441669464,0.27455389499664307,0.011132323183119297,0.12489022314548492,-0.10910449922084808,0.15414416790008545,-0.059535764157772064,-0.049284450709819794,-0.18357817828655243,-0.027563275769352913,-0.20648831129074097,0.155891552567482,0.025238804519176483,0.009765829890966415,0.27928027510643005,0.024537965655326843,0.11532426625490189,-0.2238072156906128,0.03682117909193039,0.2667936086654663,-0.14803266525268555,0.03859046846628189,-0.017740843817591667,-0.028228245675563812,0.012594552710652351,-0.09741351753473282,0.191511332988739,0.0004737221752293408,0.013900849968194962,-0.04900747165083885,-0.03012661263346672,-0.17115259170532227,0.08740531653165817,-0.009089688770473003,-0.08009910583496094,-0.00014256744179874659,0.01830488070845604,0.029276611283421516,0.4149746596813202,0.04078345745801926,-0.03203565254807472,-0.09798020124435425,-0.012629308737814426,-0.35524338483810425,0.23331870138645172,0.0126115083694458
0.014888632111251354,0.0347566232085228,0.3351875841617584,0.4239303469657898,-0.008173427544534206,0.024875419214367867,0.905316174030304,0.03214384987950325,0.010334301739931107,-0.011901166290044785,-0.08969656378030777,0.10744769126176834,-0.005026613362133503,-0.20451124012470245,-0.07386460900306702,-0.2142135053873062,0.1810581386089325,0.6251174807548523,0.7432419061660767,0.9731513261795044,1.0871740579605103,-1.6056040525436401,-1.5418723821640015,-1.5596928596496582,-1.5272736549377441,0.06462458521127701,0.040240783244371414,0.17347405850887299,0.2737026810646057,0.009924093261361122,0.12729929387569427,-0.156523659825325,0.12078754603862762,-0.08341851830482483,-0.05756146088242531,-0.13970650732517242,0.003728155279532075,-0.20648211240768433,0.15573477745056152,0.025263234972953796,0.009903259575366974,0.27918416261672974,0.02453555166721344,0.11520886421203613,-0.2233952283859253,0.036802567541599274,0.2669960558414459,-0.14827467501163483,0.03853325545787811,-0.021691609174013138,-0.024096105247735977,0.017757125198841095,-0.07572369277477264,0.2038096785545349,0.004816885571926832,0.010379597544670105,-0.04815685749053955,-0.028810173273086548,-0.16891226172447205,0.09358816593885422,-0.00895978044718504,-0.08883260190486908,0.0034338298719376326,0.01240477990359068,0.02190287597477436,0.42886507511138916,0.04060182347893715,-0.039395734667778015,-0.09655404090881348,-0.018258225172758102,-0.3589070737361908,0.2402857542037964,0.012208807282149792
0.015156437642872334,0.03484291583299637,0.3350882828235626,0.42341747879981995,-0.008242844603955746,0.024757958948612213,0.9055588245391846,0.028681516647338867,0.013083013705909252,-0.009944872930645943,-0.10146396607160568,0.12126494199037552,-0.005679118447005749,-0.2039717137813568,-0.0735284686088562,-0.2127663791179657,0.18334060907363892,0.6252005100250244,0.7443037033081055,0.9718456268310547,1.0881807804107666,-1.6063002347946167,-1.5423529148101807,-1.5608577728271484,-1.5272424221038818,0.0471220426261425,0.03521924465894699,0.1786569207906723,0.2684148848056793,0.010980176739394665,0.11694882065057755,-0.2073633223772049,0.06465320289134979,-0.11473880708217621,-0.08388309925794601,-0.0767560675740242,0.059490252286195755,-0.20647254586219788,0.15554863214492798,0.02527952566742897,0.010035227984189987,0.2790541350841522,0.024511508643627167,0.11509349942207336,-0.22298255562782288,0.0367828831076622,0.26720327138900757,-0.14851711690425873,0.038491517305374146,-0.02816525101661682,-0.019241604954004288,0.02589980512857437,-0.05359620228409767,0.22352097928524017,0.009771390818059444,-0.0006994521245360374,-0.042537104338407516,-0.025224823504686356,-0.1493663787841797,0.12702108919620514,-0.00812061782926321,-0.0986487865447998,0.00543749425560236,0.006108439527451992,-0.002594567835330963,0.43909984827041626,0.0373082160949707,-0.050796858966350555,-0.09381735324859619,-0.027740592136979103,-0.36711642146110535,0.25001877546310425,0.011909787543118
0.0153961181640625,0.03495170548558235,0.3350047469139099,0.42284587025642395,-0.008428535424172878,0.024709198623895645,0.9058254957199097,0.021255414932966232,0.01663421094417572,-0.006837934721261263,-0.10905685275793076,0.1300055980682373,-0.006141030229628086,-0.20357953011989594,-0.0732351541519165,-0.2112765908241272,0.18557944893836975,0.6252918839454651,0.7452791333198547,0.9701151847839355,1.088719129562378,-1.607257604598999,-1.5430521965026855,-1.5614972114562988,-1.5267452001571655,0.023350726813077927,0.021173719316720963,0.1670883446931839,0.23429757356643677,-0.006164309568703175,0.08617645502090454,-0.2561663091182709,-0.019103506579995155,-0.1414407640695572,-0.1116526871919632,0.0176475141197443,0.12890516221523285,-0.20645102858543396,0.15533308684825897,0.025288932025432587,0.010124027729034424,0.2789302468299866,0.024484679102897644,0.11500994116067886,-0.22257789969444275,0.036768265068531036,0.2674192190170288,-0.14874079823493958,0.03845900297164917,-0.03870431333780289,-0.007525617256760597,0.03425894305109978,-0.013088289648294449,0.2421194612979889,0.01737537793815136,-0.016353093087673187,-0.02812894806265831,-0.01838112808763981,-0.10317107290029526,0.1626047044992447,-0.0060015167109668255,-0.10245765745639801,0.008372326381504536,-0.0036702994257211685,-0.03733835369348526,0.4100627303123474,0.028989732265472412,-0.06201454997062683,-0.07992550730705261,-0.0387742854654789,-0.3421371281147003,0.24124884605407715,0.009679471142590046
0.01557342428714037,0.03509059548377991,0.33494800329208374,0.4222753345966339,-0.008748074993491173,0.024771686643362045,0.9060869216918945,0.015473526902496815,0.02042149193584919,-0.004034227691590786,-0.12202263623476028,0.14508898556232452,-0.00697630550712347,-0.20338444411754608,-0.07305865734815598,-0.2098829597234726,0.18753361701965332,0.6252402663230896,0.7459983825683594,0.9679781794548035,1.0885589122772217,-1.608437418937683,-1.5439839363098145,-1.5613501071929932,-1.5256699323654175,0.004374608863145113,-0.01255111675709486,0.16232170164585114,0.20874792337417603,-0.034955378621816635,0.060311902314424515,-0.3024236857891083,-0.09535370767116547,-0.16630351543426514,-0.11683356016874313,0.1083441823720932,0.1941780000925064,-0.20644983649253845,0.15513627231121063,0.025289110839366913,0.01014973595738411,0.27884840965270996,0.02445296198129654,0.11495955288410187,-0.22222380340099335,0.036759570240974426,0.2676069140434265,-0.14892250299453735,0.03843730688095093,-0.052712514996528625,0.004326058551669121,0.043468017131090164,0.026291225105524063,0.27713248133659363,0.026065856218338013,-0.024450138211250305,-0.014996788464486599,-0.014342915266752243,-0.07076720893383026,0.17190352082252502,-0.00450877146795392,-0.10830558836460114,0.008494063280522823,-0.012191197834908962,-0.08088552206754684,0.39323824644088745,0.020315466448664665,-0.074519582092762,-0.0700879842042923,-0.049876242876052856,-0.3305389881134033,0.24335677921772003,0.007387327495962381
0.015701977536082268,0.03526042774319649,0.33491477370262146,0.4216991662979126,-0.009196647442877293,0.024929342791438103,0.906346321105957,0.012073067016899586,0.023782432079315186,-0.00041280462755821645,-0.14574235677719116,0.17284280061721802,-0.008528662845492363,-0.2033480405807495,-0.07316296547651291,-0.2085290551185608,0.1892743855714798,0.6249480247497559,0.7465008497238159,0.9654548168182373,1.0877635478973389,-1.609824776649475,-1.5449588298797607,-1.5604451894760132,-1.5240494012832642,-0.013749653473496437,-0.02241620048880577,0.16911712288856506,0.19790895283222198,-0.06716345995664597,0.03589854761958122,-0.3781914710998535,-0.18180453777313232,-0.19289445877075195,-0.13922527432441711,0.20524750649929047,0.27890709042549133,-0.20648247003555298,0.15497882664203644,0.02528298646211624,0.010188393294811249,0.2788207530975342,0.024410896003246307,0.11494722962379456,-0.2219199687242508,0.03675182908773422,0.26777589321136475,-0.149070143699646,0.038425199687480927,-0.06918146461248398,0.01330821868032217,0.05550799146294594,0.05815548449754715,0.3289158344268799,0.03489990159869194,-0.0408405065536499,-0.008653506636619568,-0.01205943152308464,-0.052449584007263184,0.2223890870809555,-0.003998828120529652,-0.12307727336883545,0.008763808757066727,-0.020561955869197845,-0.12511277198791504,0.4127461314201355,0.014515182934701443,-0.09186666458845139,-0.06801439821720123,-0.06445898115634918,-0.3460942506790161,0.26367202401161194,0.005824522580951452
0.015802890062332153,0.03545878827571869,0.3349114656448364,0.42107686400413513,-0.009799422696232796,0.025180615484714508,0.9066224098205566,0.007699243258684874,0.026095623150467873,0.0008292953716591001,-0.15996292233467102,0.18917526304721832,-0.009662957862019539,-0.20346269011497498,-0.07335048168897629,-0.2071186900138855,0.19092543423175812,0.6243886351585388,0.7468005418777466,0.9623008966445923,1.086247205734253,-1.611433506011963,-1.5461196899414062,-1.5587331056594849,-1.5217232704162598,-0.034246671944856644,-0.020351974293589592,0.1635390669107437,0.17598271369934082,-0.0832308977842331,0.022100238129496574,-0.3976929783821106,-0.23014715313911438,-0.21152490377426147,-0.15261970460414886,0.25198909640312195,0.32065773010253906,-0.20653335750102997,0.15483736991882324,0.025269102305173874,0.010195333510637283,0.2788127362728119,0.02436015009880066,0.11496873944997787,-0.22163352370262146,0.03674287348985672,0.2679486870765686,-0.14920197427272797,0.038418449461460114,-0.07872182875871658,0.0203278549015522,0.061665698885917664,0.08288851380348206,0.35219717025756836,0.0403454415500164,-0.05454742908477783,-0.006342456676065922,-0.012449664995074272,-0.04734911397099495,0.25800609588623047,-0.00418773852288723,-0.12884855270385742,0.006484274752438068,-0.02386888675391674,-0.15643486380577087,0.40741947293281555,0.008548354730010033,-0.10130615532398224,-0.06280169636011124,-0.07244492322206497,-0.34134170413017273,0.2671395242214203,0.003953151870518923
