Huisouan/isaac-rl-lab/algo_obs1.csv
base_ang_vel_x,base_ang_vel_y,base_ang_vel_z,projected_gravity_x,projected_gravity_y,projected_gravity_z,velocity_command_x,velocity_command_y,velocity_command_z,joint_pos_0,joint_pos_1,joint_pos_2,joint_pos_3,joint_pos_4,joint_pos_5,joint_pos_6,joint_pos_7,joint_pos_8,joint_pos_9,joint_pos_10,joint_pos_11,joint_vel_0,joint_vel_1,joint_vel_2,joint_vel_3,joint_vel_4,joint_vel_5,joint_vel_6,joint_vel_7,joint_vel_8,joint_vel_9,joint_vel_10,joint_vel_11,action_0,action_1,action_2,action_3,action_4,action_5,action_6,action_7,action_8,action_9,action_10,action_11
0.22943302989006042,-0.25095948576927185,-0.17723818123340607,-0.014599772170186043,-0.021403463557362556,-0.9996643662452698,0.0,0.0,-0.0,-0.14327116310596466,0.032728180289268494,-0.17179721593856812,0.03370855003595352,-1.3661348819732666,0.2366064190864563,-1.0904570817947388,0.7070523500442505,-0.06793594360351562,0.39510440826416016,0.2802311182022095,0.25403153896331787,-0.0009267397108487785,-0.31831488013267517,0.2630631625652313,-0.15731780230998993,0.9741138815879822,-0.6224921345710754,0.7106813192367554,-0.27385184168815613,0.6567915678024292,-0.3624258041381836,0.6771690249443054,-0.7850000858306885,-1.272793173789978,-0.3580557703971863,0.0024435818195343018,0.5611741542816162,-2.1801400184631348,-1.5813626050949097,-1.4281011819839478,0.9004103541374207,1.013965368270874,0.31636345386505127,2.526883602142334,-1.1186249256134033
-0.24242153763771057,-0.02305116131901741,-0.22733376920223236,-0.023365186527371407,-0.005782206542789936,-0.9997105002403259,0.0,0.0,-0.0,-0.15461258590221405,0.017889834940433502,-0.1377183496952057,0.061239004135131836,-1.0488882064819336,-0.09495419263839722,-0.8829940557479858,0.4209909439086914,0.221291184425354,0.6622408628463745,0.593287467956543,-0.011647582054138184,-0.07489871233701706,0.14001479744911194,-0.029126400128006935,0.13528889417648315,0.7163757681846619,-0.4997086524963379,0.4147477149963379,-0.9210411310195923,0.5992527604103088,-7.239713158924133e-05,0.7761419415473938,-0.5140237212181091,-0.8593289852142334,0.8021782040596008,-1.4210015535354614,0.7385643124580383,-3.0411972999572754,-0.47622814774513245,-3.117950916290283,-0.21548734605312347,1.6139549016952515,3.984260082244873,4.912097930908203,-1.4804115295410156
0.06941601634025574,0.1131545677781105,-0.09499891847372055,-0.017204588279128075,-0.004761374089866877,-0.9998406171798706,0.0,0.0,-0.0,-0.20723754167556763,0.03967496380209923,-0.14880110323429108,0.12954874336719513,-0.7958180904388428,-0.1494842767715454,-0.8337867259979248,0.04971516132354736,0.40687096118927,0.6302945613861084,0.5709617137908936,-0.14536738395690918,-0.16031070053577423,-0.007755540311336517,-0.02065357007086277,0.22227191925048828,0.5838004350662231,0.09141264110803604,0.06506533920764923,-0.8563252687454224,0.372061163187027,-0.22060759365558624,-0.1668168157339096,-0.2986968755722046,-0.5379483103752136,0.5654063820838928,-1.259434461593628,0.5759696364402771,-2.7698023319244385,0.06292998790740967,-3.030750274658203,-0.3620027005672455,1.8171900510787964,5.197595119476318,6.06503963470459,-1.2832448482513428
-0.140521839261055,-0.036346372216939926,0.023737909272313118,-0.015373790636658669,0.009003689512610435,-0.9998413920402527,0.0,0.0,-0.0,-0.2530375123023987,0.05309407040476799,-0.1363232433795929,0.25719213485717773,-0.5699651837348938,-0.12011909484863281,-0.8052430748939514,-0.22840440273284912,0.4383004903793335,0.5771257877349854,0.5078021883964539,-0.1276620626449585,-0.11066418141126633,0.029491735622286797,0.025728000327944756,0.32840773463249207,0.4842291474342346,0.07540562003850937,0.09452619403600693,-0.5138475298881531,0.08541711419820786,-0.11570560932159424,-0.18871210515499115,-0.0007307681953534484,-0.4898563623428345,0.6966789364814758,-1.4427437782287598,1.0066488981246948,-2.663590908050537,-0.8856035470962524,-1.7382689714431763,-0.3971739709377289,1.369591236114502,5.353479862213135,6.309391498565674,-0.4257120192050934
-0.085909903049469,-0.14671802520751953,0.04792360961437225,-0.02315407246351242,0.021359579637646675,-0.9995033740997314,0.0,0.0,-0.0,-0.2633677124977112,0.06302876025438309,-0.12487530708312988,0.3551686406135559,-0.45893558859825134,-0.09131848812103271,-0.7638119459152222,-0.3689618706703186,0.37277889251708984,0.5449397563934326,0.43263816833496094,-0.0630183219909668,-0.0029729537200182676,0.012430781498551369,0.014197300188243389,0.1861248016357422,0.12573383748531342,0.07443402707576752,0.12226416915655136,-0.20393967628479004,-0.26923176646232605,-0.06956833600997925,-0.21050086617469788,0.099454365670681,-0.3411285877227783,1.2794150114059448,-1.6305180788040161,0.9434314370155334,-2.478973150253296,-1.1633715629577637,-1.5441806316375732,-0.7878713607788086,1.4214231967926025,4.109103202819824,5.709610939025879,-0.03414049744606018
-0.030460551381111145,-0.21053805947303772,0.052927251905202866,-0.03798206150531769,0.025140143930912018,-0.9989620447158813,0.0,0.0,-0.0,-0.2624068856239319,0.06310655921697617,-0.12307815253734589,0.37805917859077454,-0.44362300634384155,-0.0645570158958435,-0.7163875102996826,-0.41709965467453003,0.3088165521621704,0.5277884006500244,0.35693681240081787,0.02847921848297119,0.006522560026496649,-0.0031179587822407484,8.926296140998602e-05,0.005380794405937195,-0.005627186968922615,0.06745921075344086,0.13520024716854095,-0.03293004259467125,-0.1097850352525711,-0.03370904177427292,-0.2177712768316269,0.1574755758047104,-0.79390549659729,1.5180631875991821,-1.2135757207870483,0.7996962070465088,-2.0387654304504395,-1.4407435655593872,-1.7826533317565918,-1.170738935470581,0.9694325923919678,3.185469388961792,4.661553382873535,0.32632991671562195
0.030665630474686623,-0.18748678267002106,0.05686666816473007,-0.0532747320830822,0.022763535380363464,-0.998320460319519,0.0,0.0,-0.0,-0.2733376920223236,0.056057076901197433,-0.12824828922748566,0.34661343693733215,-0.44688042998313904,-0.03787350654602051,-0.6724812984466553,-0.4002411961555481,0.20377135276794434,0.5107314586639404,0.2878965139389038,0.10979163646697998,-0.025097519159317017,-0.01584945246577263,-0.01304709818214178,-0.1012108325958252,-0.056751955300569534,0.06993824988603592,0.11669003963470459,0.09948306530714035,-0.18173351883888245,-0.04870414361357689,-0.1938217431306839,0.14956782758235931,-1.0319209098815918,1.5949617624282837,-1.2313340902328491,0.7835322618484497,-1.9681453704833984,-1.3133877515792847,-1.6607035398483276,-1.0852164030075073,0.5296399593353271,2.515994071960449,3.775653839111328,0.6352725028991699
-0.055804669857025146,-0.08537033200263977,0.06550543755292892,-0.06295938044786453,0.025392986834049225,-0.9976927638053894,0.0,0.0,-0.0,-0.2843117415904999,0.05358685925602913,-0.12823393940925598,0.3468087911605835,-0.470356285572052,-0.015476047992706299,-0.6423807144165039,-0.36523473262786865,0.1330857276916504,0.4912811517715454,0.23413455486297607,0.06791567802429199,-0.025949282571673393,0.0005765982205048203,0.00467726169154048,0.02015533857047558,-0.06888911873102188,0.053434498608112335,0.06591304391622543,0.06394011527299881,-0.12110280990600586,-0.05620357394218445,-0.13216465711593628,-0.09856854379177094,-1.1371859312057495,1.5324668884277344,-1.2921366691589355,0.8229150176048279,-1.783237338066101,-1.185943603515625,-1.3999109268188477,-1.0701149702072144,0.4175109565258026,2.3698630332946777,3.686586380004883,0.7896089553833008
-0.007026343606412411,-0.01853841170668602,0.049832817167043686,-0.06643901765346527,0.02616027370095253,-0.9974474906921387,0.0,0.0,-0.0,-0.297451376914978,0.04916852340102196,-0.13047225773334503,0.34938403964042664,-0.4864296317100525,0.005835354328155518,-0.6250201463699341,-0.34352290630340576,0.12009251117706299,0.46231746673583984,0.19420528411865234,0.029998064041137695,-0.030469277873635292,-0.011272980831563473,-0.006147998385131359,0.005162870045751333,-0.013583279214799404,0.05508195236325264,0.043005090206861496,0.04056433215737343,-0.014254070818424225,-0.08529319614171982,-0.11147355288267136,-0.07981225848197937,-1.1217596530914307,1.3506640195846558,-1.1157656908035278,0.8300482630729675,-1.6463675498962402,-1.087020754814148,-1.494242548942566,-0.8824414014816284,0.5294255018234253,2.0117688179016113,3.573547601699829,0.46824911236763
-0.027109529823064804,0.009200689382851124,0.04077546298503876,-0.06684816628694534,0.025784138590097427,-0.9974299073219299,0.0,0.0,-0.0,-0.3096296489238739,0.04379425570368767,-0.13413959741592407,0.3340602517127991,-0.4735517203807831,0.02981942892074585,-0.6116169691085815,-0.30931705236434937,0.12738776206970215,0.4230841398239136,0.1559276580810547,-0.008390426635742188,-0.020239640027284622,-0.005804899614304304,-0.0025570227298885584,-0.05034828186035156,0.05588129162788391,0.06401778757572174,0.03832672908902168,0.0889226421713829,0.023029573261737823,-0.1097777858376503,-0.11553176492452621,-0.0675613209605217,-1.166001558303833,1.138082504272461,-0.8736165761947632,0.8778950572013855,-1.605661153793335,-0.8626646995544434,-1.4387720823287964,-0.8665884733200073,0.5761206150054932,1.900496244430542,3.301783800125122,-0.007363051176071167
-0.08332326263189316,0.042406801134347916,0.04781290143728256,-0.0647846981883049,0.029005730524659157,-0.9974778890609741,0.0,0.0,-0.0,-0.3172122538089752,0.04195960611104965,-0.13411223888397217,0.3063335716724396,-0.4411459267139435,0.055781424045562744,-0.6009395122528076,-0.2690733075141907,0.14008140563964844,0.3764845132827759,0.11622905731201172,-0.0696406364440918,-0.00894897524267435,0.004214015323668718,0.009285344742238522,-0.07656524330377579,0.08878418058156967,0.06747781485319138,0.027676990255713463,0.07225361466407776,0.03162006661295891,-0.12629319727420807,-0.11322283744812012,-0.10263649374246597,-1.2036700248718262,0.9330098032951355,-0.8078466653823853,0.901893675327301,-1.5709348917007446,-0.5626253485679626,-1.2716896533966064,-0.9939018487930298,0.5951203107833862,1.9115934371948242,3.021280288696289,-0.4563332796096802
-0.1257072389125824,0.07129136472940445,0.05640115216374397,-0.06038178876042366,0.036084990948438644,-0.99752277135849,0.0,0.0,-0.0,-0.315519243478775,0.0437166765332222,-0.13001805543899536,0.2740131914615631,-0.4069437086582184,0.08296775817871094,-0.5935772657394409,-0.24406909942626953,0.17045795917510986,0.3242894411087036,0.07581162452697754,-0.17042601108551025,0.009483114816248417,0.011808439157903194,0.01807444542646408,-0.08583010733127594,0.09110558032989502,0.06851671636104584,0.017482971772551537,0.011432783678174019,-0.03656548261642456,-0.13663187623023987,-0.11048390716314316,-0.18594221770763397,-1.1142758131027222,0.8645365834236145,-0.9299696683883667,0.8570207953453064,-1.4555110931396484,-0.28972411155700684,-1.117063045501709,-1.0685430765151978,0.7957702875137329,1.8639616966247559,2.9286623001098633,-0.9679880142211914
-0.04116078093647957,0.011175723746418953,0.05442666634917259,-0.05752057954668999,0.04001769423484802,-0.9975419640541077,0.0,0.0,-0.0,-0.32338204979896545,0.042323511093854904,-0.12880359590053558,0.23394328355789185,-0.3911891281604767,0.11022263765335083,-0.5863180160522461,-0.244500994682312,0.11468493938446045,0.27358806133270264,0.0355381965637207,-0.2915804386138916,-0.02010629139840603,-0.003926724195480347,0.0022888907697051764,-0.1073935404419899,0.040771789848804474,0.0658789798617363,0.025004491209983826,-0.042335834354162216,-0.13608284294605255,-0.11773256212472916,-0.11089153587818146,-0.22816281020641327,-0.9831945300102234,0.9626964926719666,-1.1363787651062012,0.7928984761238098,-1.3113609552383423,-0.0936461091041565,-1.0757931470870972,-1.0970836877822876,1.2365930080413818,1.618221640586853,2.921013116836548,-1.457793951034546
-0.0438741073012352,-0.04608876630663872,0.055691517889499664,-0.059375543147325516,0.04251033812761307,-0.9973304271697998,0.0,0.0,-0.0,-0.3309495747089386,0.0401960089802742,-0.12835048139095306,0.19610688090324402,-0.3787862956523895,0.13518983125686646,-0.5757620334625244,-0.26271218061447144,0.07435202598571777,0.23235630989074707,-0.0055675506591796875,-0.38159894943237305,-0.014993910677731037,-0.0013182451948523521,0.004860226064920425,-0.08192075043916702,0.03270624577999115,0.06104240566492081,0.033812858164310455,-0.05598677322268486,-0.09810631722211838,-0.09568819403648376,-0.11560024321079254,-0.16255147755146027,-0.9893402457237244,1.0488911867141724,-1.2428107261657715,0.7015810608863831,-0.983710527420044,-0.08580803871154785,-1.234226107597351,-1.042309045791626,1.1846141815185547,1.402608871459961,2.964970827102661,-1.696706771850586
-0.0928107425570488,-0.06682158261537552,0.0579056590795517,-0.06390991061925888,0.048575352877378464,-0.9967730045318604,0.0,0.0,-0.0,-0.3341202437877655,0.04228058084845543,-0.12359501421451569,0.1716720461845398,-0.36686328053474426,0.1584671139717102,-0.5633409023284912,-0.2753683924674988,0.03926825523376465,0.19715046882629395,-0.04818129539489746,-0.4331076145172119,-0.0030942147132009268,0.009974044747650623,0.016114993020892143,-0.047515708953142166,0.027216726914048195,0.05987412482500076,0.0373433381319046,-0.02050923742353916,-0.07998545467853546,-0.08740969747304916,-0.1226351261138916,-0.08646958321332932,-0.968021810054779,1.1413493156433105,-1.3641659021377563,0.5740397572517395,-0.7282055616378784,-0.02177247405052185,-1.3680789470672607,-0.9733332395553589,0.722719669342041,1.3275824785232544,2.9555604457855225,-1.8099735975265503
-0.09532488137483597,-0.05744608864188194,0.061582405120134354,-0.06862770766019821,0.0569593645632267,-0.9960152506828308,0.0,0.0,-0.0,-0.3272639513015747,0.04688010364770889,-0.11601711064577103,0.15852057933807373,-0.33030807971954346,0.18216747045516968,-0.5514715909957886,-0.26899993419647217,-0.010646343231201172,0.1616075038909912,-0.0916748046875,-0.4696134328842163,0.029726767912507057,0.009925021789968014,0.017671827226877213,-0.0296922717243433,0.10201137512922287,0.06122637912631035,0.03143221512436867,0.02577253244817257,-0.08187898248434067,-0.0926944836974144,-0.12027242034673691,-0.06148487329483032,-0.8868245482444763,1.198039174079895,-1.4958547353744507,0.49590274691581726,-0.5774281024932861,0.14865878224372864,-1.4221123456954956,-0.9169546961784363,0.27588146924972534,1.3225419521331787,2.907327890396118,-1.9436208009719849
-0.08467656373977661,-0.06839292496442795,0.0591021329164505,-0.07358130812644958,0.0650620386004448,-0.9951645135879517,0.0,0.0,-0.0,-0.3124900162220001,0.051320165395736694,-0.10839800536632538,0.15152758359909058,-0.2787059545516968,0.20697015523910522,-0.5402911901473999,-0.24473804235458374,-0.06870877742767334,0.1246335506439209,-0.13562893867492676,-0.5009992122650146,0.04349936917424202,0.007790595293045044,0.01616932637989521,-0.0186444204300642,0.11689718067646027,0.06251822412014008,0.030524998903274536,0.06471850723028183,-0.09324043244123459,-0.09293631464242935,-0.11991804093122482,-0.05167217180132866,-0.7751816511154175,1.3484965562820435,-1.6076217889785767,0.4775035083293915,-0.38370317220687866,0.3621778190135956,-1.2872557640075684,-0.8303582668304443,0.09350124001502991,1.2696850299835205,2.8820455074310303,-2.070767641067505
-0.08656509965658188,-0.09459815919399261,0.052390214055776596,-0.08021504431962967,0.07313645631074905,-0.9940906763076782,0.0,0.0,-0.0,-0.29588690400123596,0.05605257302522659,-0.1004752516746521,0.15212482213974,-0.228407084941864,0.2323511242866516,-0.5279576182365417,-0.20493900775909424,-0.12191116809844971,0.08882296085357666,-0.181135892868042,-0.5214798450469971,0.044387076050043106,0.008353444747626781,0.017499582841992378,0.002863445086404681,0.11056315898895264,0.06007742881774902,0.03358158469200134,0.101589635014534,-0.07574769854545593,-0.0848427265882492,-0.12186231464147568,-0.0262518972158432,-0.6959654688835144,1.4647431373596191,-1.648388385772705,0.5177901983261108,-0.09014647454023361,0.5313270092010498,-1.2286957502365112,-0.6597744226455688,0.005284532904624939,1.1496307849884033,2.8484506607055664,-2.129840850830078
-0.07771771401166916,-0.11958564072847366,0.04885262995958328,-0.08891430497169495,0.08123964071273804,-0.9927207827568054,0.0,0.0,-0.0,-0.2798139452934265,0.061319876462221146,-0.09199096262454987,0.1654587984085083,-0.17433404922485352,0.25835663080215454,-0.5141401886940002,-0.14884817600250244,-0.17226934432983398,0.054720282554626465,-0.22832715511322021,-0.5252797603607178,0.04441455751657486,0.007432762533426285,0.01733556017279625,0.036609530448913574,0.12926799058914185,0.06155547499656677,0.036341723054647446,0.1418825089931488,-0.05864373594522476,-0.08109159767627716,-0.12499163299798965,0.010723753832280636,-0.6530850529670715,1.4883700609207153,-1.629940390586853,0.6218886971473694,0.2463124692440033,0.7026566863059998,-1.2402390241622925,-0.40702158212661743,-0.10606363415718079,1.0277668237686157,2.7821648120880127,-2.1097474098205566
-0.04776764288544655,-0.14028902351856232,0.0489036999642849,-0.09939703345298767,0.08793319016695023,-0.9911551475524902,0.0,0.0,-0.0,-0.2649986445903778,0.06565115600824356,-0.08419410139322281,0.19563186168670654,-0.1101449728012085,0.2854488492012024,-0.4997788071632385,-0.07745152711868286,-0.22216331958770752,0.02140021324157715,-0.2761240005493164,-0.5105695724487305,0.04362500458955765,0.003662650240585208,0.013386881910264492,0.07879297435283661,0.16146647930145264,0.06794335693120956,0.03548146411776543,0.17646043002605438,-0.030891848728060722,-0.08301208913326263,-0.12263619899749756,0.05011942610144615,-0.6271013617515564,1.4868301153182983,-1.5879064798355103,0.7947764992713928,0.6007907390594482,0.8663227558135986,-1.2231301069259644,-0.10867206752300262,-0.20806491374969482,0.8958510160446167,2.6887781620025635,-2.0207934379577637
-0.006470802705734968,-0.1603374481201172,0.047477006912231445,-0.1114494726061821,0.09205074608325958,-0.9894977807998657,0.0,0.0,-0.0,-0.2523714601993561,0.06790445744991302,-0.07808803766965866,0.2436683177947998,-0.03469616174697876,0.31399768590927124,-0.4855114817619324,0.0032112598419189453,-0.2710534334182739,-0.0121687650680542,-0.32403063774108887,-0.47192132472991943,0.03968174383044243,-0.004952260758727789,0.007844462059438229,0.12165459245443344,0.19065724313259125,0.06796722114086151,0.03407272696495056,0.19521726667881012,0.003585982369259,-0.08125408738851547,-0.12005441635847092,0.09920688718557358,-0.6169014573097229,1.4937366247177124,-1.536910891532898,1.029910922050476,0.9525855779647827,1.0005524158477783,-1.1323033571243286,0.210321307182312,-0.2932485342025757,0.7369584441184998,2.5930631160736084,-1.8322025537490845
-0.08017618209123611,-0.17250271141529083,0.039255622774362564,-0.1253831684589386,0.09496234357357025,-0.9875532388687134,0.0,0.0,-0.0,-0.2417825162410736,0.06985737383365631,-0.07237984240055084,0.26460474729537964,0.04953545331954956,0.3437424302101135,-0.4706360697746277,0.050395965576171875,-0.3171275854110718,-0.04584300518035889,-0.37308335304260254,-0.5162124633789062,0.05253157764673233,0.014074978418648243,0.024841800332069397,0.0436132587492466,0.2063005417585373,0.06990919262170792,0.03281642869114876,0.09327620267868042,0.027861738577485085,-0.07977834343910217,-0.12037842720746994,-0.14690160751342773,-0.6613578200340271,1.469879388809204,-1.4818344116210938,1.3133723735809326,1.3133026361465454,1.1301319599151611,-0.9798693060874939,0.5102314949035645,-0.3413405120372772,0.5309106707572937,2.4846560955047607,-1.4038490056991577
-0.05827551335096359,-0.13793645799160004,0.041092194616794586,-0.1373598873615265,0.10075624287128448,-0.9853833317756653,0.0,0.0,-0.0,-0.23346203565597534,0.07510571926832199,-0.06296399235725403,0.2810004949569702,0.13031482696533203,0.37081295251846313,-0.4602268934249878,0.08476293087005615,-0.36007583141326904,-0.07757449150085449,-0.4166111946105957,-0.5710363388061523,0.025886058807373047,0.004434681963175535,0.022285180166363716,0.03968384489417076,0.17817042768001556,0.05806014686822891,0.01902824267745018,0.07411327213048935,0.018767690286040306,-0.07153727859258652,-0.0986754521727562,-0.12099398672580719,-0.7367811799049377,1.4172085523605347,-1.8059126138687134,1.6541136503219604,1.6137876510620117,1.2407855987548828,-0.7899994254112244,1.0927472114562988,-0.4036705493927002,0.16351644694805145,2.3625833988189697,-0.7150938510894775
0.021772703155875206,-0.13950929045677185,0.030369725078344345,-0.14790360629558563,0.10184907913208008,-0.9837435483932495,0.0,0.0,-0.0,-0.23252493143081665,0.07644126564264297,-0.05766915902495384,0.2930748164653778,0.17013710737228394,0.3957121968269348,-0.45240527391433716,0.11592996120452881,-0.3907756805419922,-0.10608267784118652,-0.45234405994415283,-0.619891881942749,-0.014679200015962124,-0.006372100207954645,0.007928453385829926,0.02309550903737545,0.016088377684354782,0.06388786435127258,0.019966304302215576,0.06969841569662094,-0.0845189020037651,-0.06679367274045944,-0.0811915323138237,-0.10298468172550201,-0.731046736240387,1.2893661260604858,-1.9605096578598022,1.9953447580337524,1.945343017578125,1.2684630155563354,-0.6584718227386475,1.543828010559082,-0.17193999886512756,-0.30914077162742615,2.280992031097412,-0.28820785880088806
0.046412792056798935,-0.111086905002594,0.034077540040016174,-0.15729746222496033,0.09950089454650879,-0.9825261235237122,0.0,0.0,-0.0,-0.23579683899879456,0.07673274725675583,-0.055052898824214935,0.30214038491249084,0.18206751346588135,0.41788631677627563,-0.4452704191207886,0.1448071002960205,-0.4073683023452759,-0.13059401512145996,-0.4804668426513672,-0.6616415977478027,-0.009524622932076454,-0.007142913527786732,0.005332353059202433,0.020073162391781807,0.0017936363583430648,0.053533684462308884,0.01568736508488655,0.05962909013032913,-0.006279595196247101,-0.055440504103899,-0.06078139692544937,-0.08063284307718277,-0.9045496582984924,1.092588186264038,-1.9104119539260864,2.2499780654907227,2.2569122314453125,1.2091368436813354,-0.7734134197235107,1.7731654644012451,-0.11052343249320984,-0.5886635780334473,2.0749752521514893,0.05876728892326355
0.09846023470163345,-0.06793797016143799,0.04676642641425133,-0.16350552439689636,0.09356863796710968,-0.9820955395698547,0.0,0.0,-0.0,-0.24239018559455872,0.07211130857467651,-0.05536137893795967,0.308010995388031,0.19096791744232178,0.4367935061454773,-0.4414367079734802,0.16868865489959717,-0.42049694061279297,-0.14963126182556152,-0.4989142417907715,-0.6946120262145996,-0.018708711490035057,-0.018402015790343285,-0.0028302043210715055,0.011334039270877838,-0.005232413299381733,0.04680358245968819,0.006149438675493002,0.047259602695703506,0.0007403221097774804,-0.04815826192498207,-0.0354643315076828,-0.06073007732629776,-1.071029543876648,0.9797375202178955,-1.827893614768982,2.340404510498047,2.227776527404785,1.1406903266906738,-0.7493593692779541,1.7172815799713135,-0.13778987526893616,-0.6732198596000671,1.7758995294570923,0.19347098469734192
0.12153018265962601,-0.0038441037759184837,0.052706100046634674,-0.1652444750070572,0.08488131314516068,-0.9825936555862427,0.0,0.0,-0.0,-0.2517677843570709,0.06485429406166077,-0.05809788405895233,0.31063583493232727,0.1952947974205017,0.4515787959098816,-0.44280683994293213,0.18403995037078857,-0.43074262142181396,-0.16590142250061035,-0.5061111450195312,-0.7167246341705322,-0.022469108924269676,-0.023080995306372643,-0.005747037474066019,0.006520072463899851,-0.014698648825287819,0.03665987029671669,-0.008357848040759563,0.01954970881342888,0.0026787356473505497,-0.04402846843004227,-0.0067313010804355145,-0.033859968185424805,-1.2042328119277954,0.9311257004737854,-1.6947966814041138,2.274415969848633,2.070436716079712,1.065254807472229,-0.665428876876831,1.5220921039581299,-0.23164966702461243,-0.7104458212852478,1.3309789896011353,0.2416752278804779
0.13608834147453308,0.07514362037181854,0.04944107308983803,-0.16085462272167206,0.07389307767152786,-0.984208345413208,0.0,0.0,-0.0,-0.2628426253795624,0.055788081139326096,-0.06339123845100403,0.3087683320045471,0.19383996725082397,0.46090859174728394,-0.4512077569961548,0.1857774257659912,-0.4395512342453003,-0.18126451969146729,-0.5002987384796143,-0.724757194519043,-0.023638205602765083,-0.026242539286613464,-0.009535770863294601,-0.0031073184218257666,-0.024431869387626648,0.024623125791549683,-0.02640080451965332,-0.011675100773572922,0.0009442513692192733,-0.04325304925441742,0.02458326332271099,-0.0022683688439428806,-1.3331257104873657,0.862381637096405,-1.4897290468215942,2.1403849124908447,1.8213846683502197,0.9923322200775146,-0.6046923995018005,1.347055435180664,-0.3237980902194977,-0.7804279923439026,0.7333477735519409,0.23911753296852112
0.1107850894331932,0.1212962418794632,0.03160993382334709,-0.15228238701820374,0.06453551352024078,-0.986227810382843,0.0,0.0,-0.0,-0.2717451751232147,0.04855046421289444,-0.06760791689157486,0.3056626319885254,0.18830424547195435,0.4649379849433899,-0.46416717767715454,0.17648279666900635,-0.4471302032470703,-0.19459235668182373,-0.4861443042755127,-0.7213542461395264,-0.017907939851284027,-0.020720547065138817,-0.007493035402148962,-0.00792144238948822,-0.024709338322281837,0.018159575760364532,-0.034591708332300186,-0.03429281711578369,-0.0074402871541678905,-0.042145173996686935,0.04152466356754303,0.020665442571043968,-1.4997732639312744,0.7379679083824158,-1.2210595607757568,2.0057120323181152,1.4691593647003174,0.8749455213546753,-0.5923979878425598,1.1480915546417236,-0.34552428126335144,-0.9123586416244507,-0.08045735955238342,0.24105533957481384
0.05735153332352638,0.10834727436304092,-0.0026992715429514647,-0.14326754212379456,0.05855003744363785,-0.98795086145401,0.0,0.0,-0.0,-0.2761748135089874,0.04640919342637062,-0.07023174315690994,0.30210813879966736,0.18289846181869507,0.46041446924209595,-0.4755522608757019,0.1629701852798462,-0.4531874656677246,-0.2085205316543579,-0.47177112102508545,-0.7122647762298584,-0.005634229630231857,-0.008839106187224388,-0.004224610514938831,-0.00898309051990509,-0.01247659046202898,0.01150571834295988,-0.028715262189507484,-0.03642163798213005,-0.011891909874975681,-0.02196066826581955,0.041501838713884354,0.02763598971068859,-1.7406724691390991,0.5771493911743164,-0.8663535118103027,1.9641650915145874,1.1114095449447632,0.8059898614883423,-0.6415957808494568,1.0434492826461792,-0.22078832983970642,-1.1324739456176758,-0.8497093915939331,0.23385146260261536
0.03780629485845566,0.04909663647413254,-0.000713880464900285,-0.13777975738048553,0.05553124099969864,-0.9889050126075745,0.0,0.0,-0.0,-0.2771761119365692,0.06013667210936546,-0.07815097272396088,0.2993341386318207,0.17979252338409424,0.40228623151779175,-0.4415627121925354,0.1538238525390625,-0.455061674118042,-0.27524495124816895,-0.48944520950317383,-0.7043616771697998,-0.003957768436521292,0.04508725553750992,-0.020523499697446823,-0.00724247470498085,0.0006029903306625783,-0.24082008004188538,0.10993880033493042,-0.017312899231910706,-0.009282325394451618,-0.15762324631214142,-0.055890001356601715,0.018942026421427727,-2.1053085327148438,0.38406315445899963,-0.4476219415664673,2.116520404815674,0.7503904104232788,0.8663628697395325,-0.7312021851539612,1.0149900913238525,0.04396966099739075,-1.4444167613983154,-1.467812180519104,0.35073211789131165
0.04274163395166397,0.010057009756565094,0.016967084258794785,-0.13605234026908875,0.05392996966838837,-0.9892328977584839,0.0,0.0,-0.0,-0.2774839699268341,0.10442021489143372,-0.09028691053390503,0.2985980808734894,0.1768239140510559,0.29001933336257935,-0.36507511138916016,0.14993464946746826,-0.4515814781188965,-0.382412314414978,-0.5313019752502441,-0.6989295482635498,-0.009018917568027973,0.11516543477773666,-0.0294419564306736,-0.004459455143660307,0.007746648043394089,-0.3137088119983673,0.18989205360412598,-0.0024519420694559813,-0.009408406913280487,-0.21465297043323517,-0.09065685421228409,0.007358919829130173,-1.9574838876724243,0.4742312431335449,-0.3968917727470398,2.0940258502960205,0.37724313139915466,0.8778915405273438,-0.6500192880630493,0.8085706233978271,0.2211889922618866,-1.8149402141571045,-1.8288549184799194,0.2825332581996918
0.06055911257863045,0.0025759749114513397,0.016177944839000702,-0.1357753872871399,0.05141551047563553,-0.9894049167633057,0.0,0.0,-0.0,-0.27867311239242554,0.16661086678504944,-0.10591738671064377,0.2975207567214966,0.17163050174713135,0.16389739513397217,-0.27957379817962646,0.14644253253936768,-0.4440101385116577,-0.4728199243545532,-0.5718100070953369,-0.6937644481658936,-0.00987072940915823,0.15081772208213806,-0.03946467861533165,-0.007735392544418573,0.0055321562103927135,-0.306595116853714,0.19285906851291656,-0.0036405869759619236,-0.004969992209225893,-0.17120075225830078,-0.07337865978479385,0.005887478124350309,-1.573292851448059,0.6466732621192932,-0.4929457902908325,1.8976460695266724,0.3278902471065521,0.6200199127197266,-0.37753188610076904,0.6508315801620483,0.2719963788986206,-2.089240312576294,-1.9506542682647705,0.1553037464618683
0.08604829758405685,0.004482163116335869,0.004234146326780319,-0.13562488555908203,0.046457283198833466,-0.9896703958511353,0.0,0.0,-0.0,-0.281484991312027,0.2270638346672058,-0.12107401341199875,0.2936893403530121,0.16452890634536743,0.05601125955581665,-0.20375752449035645,0.14126861095428467,-0.43430984020233154,-0.5334866046905518,-0.5997850894927979,-0.6881141662597656,-0.010476320050656796,0.1326489895582199,-0.03520835191011429,-0.014455452561378479,-0.005370859056711197,-0.23486831784248352,0.16769854724407196,-0.007663283031433821,0.0072690933011472225,-0.11225296556949615,-0.0392930693924427,0.005716117564588785,-1.320733904838562,0.7559548616409302,-0.5415210127830505,1.7767364978790283,0.4014075696468353,0.34428098797798157,-0.07121951878070831,0.5653484463691711,0.28906431794166565,-2.264207363128662,-1.965354084968567,0.10073104500770569
0.08665573596954346,0.007444951683282852,-0.006335056386888027,-0.1352282464504242,0.040218811482191086,-0.9899980425834656,0.0,0.0,-0.0,-0.2847071588039398,0.2707851231098175,-0.1288219392299652,0.2881775498390198,0.15635645389556885,-0.018017828464508057,-0.14742493629455566,0.134393572807312,-0.4237726926803589,-0.5671467781066895,-0.6123073101043701,-0.6818852424621582,-0.008706937544047832,0.0859576165676117,-0.015331040136516094,-0.016268109902739525,-0.01004225853830576,-0.1458875983953476,0.12340424209833145,-0.011526845395565033,0.01192399114370346,-0.06047799065709114,0.00060000125085935,0.007321914192289114,-1.2544745206832886,0.8357896208763123,-0.5264389514923096,1.7511860132217407,0.4697224795818329,0.1010800451040268,0.15096928179264069,0.5348966121673584,0.2882528007030487,-2.3520586490631104,-1.9085251092910767,0.09083548188209534
0.0659078061580658,0.01162177324295044,-0.012372332625091076,-0.13444125652313232,0.03452157974243164,-0.9903202056884766,0.0,0.0,-0.0,-0.2868156433105469,0.29430967569351196,-0.12933024764060974,0.282832533121109,0.14773035049438477,-0.05934739112854004,-0.113614022731781,0.12584757804870605,-0.4133256673812866,-0.5807838439941406,-0.6122844219207764,-0.6745202541351318,-0.0050078886561095715,0.04048522561788559,0.0008375965408049524,-0.013602695427834988,-0.014820736832916737,-0.07255849987268448,0.07590468972921371,-0.01593465730547905,0.012945926748216152,-0.022443586960434914,0.03520885854959488,0.011484676972031593,-1.31601083278656,0.908259928226471,-0.478208065032959,1.7552783489227295,0.502180814743042,-0.07627052068710327,0.28246021270751953,0.53565514087677,0.2693609297275543,-2.375378370285034,-1.8046635389328003,0.09430578351020813
0.04451365023851395,0.018056565895676613,-0.013985530473291874,-0.13313864171504974,0.030150312930345535,-0.9906384944915771,0.0,0.0,-0.0,-0.28723978996276855,0.3021772503852844,-0.12710747122764587,0.2787264287471771,0.13864046335220337,-0.07747286558151245,-0.10132300853729248,0.11578762531280518,-0.40293335914611816,-0.5866317749023438,-0.604379415512085,-0.6656956672668457,0.0011210663942620158,0.008401395753026009,0.005083178635686636,-0.009059066884219646,-0.01174176950007677,-0.02758716605603695,0.014665118418633938,-0.020699432119727135,0.011642590165138245,-0.010063262656331062,0.036960285156965256,0.01700463518500328,-1.4126168489456177,0.9592493772506714,-0.42442816495895386,1.7501524686813354,0.5032461881637573,-0.19305917620658875,0.35725337266921997,0.5603773593902588,0.2648886740207672,-2.394197940826416,-1.6539249420166016,0.09230807423591614
0.03258353844285011,0.0200392734259367,-0.01419414859265089,-0.1315164715051651,0.02667170576751232,-0.9909553527832031,0.0,0.0,-0.0,-0.2863728106021881,0.3005041480064392,-0.1268603801727295,0.2757299244403839,0.12927782535552979,-0.08417618274688721,-0.10699468851089478,0.10487353801727295,-0.39223456382751465,-0.5932738780975342,-0.5914783477783203,-0.6555542945861816,0.0038824856746941805,-0.00877393875271082,-0.003551887348294258,-0.005638564471155405,-0.011221678927540779,-0.010433430783450603,-0.032133251428604126,-0.022976519539952278,0.010596313513815403,-0.01359935849905014,0.034198131412267685,0.020887216553092003,-1.5033420324325562,0.9855824112892151,-0.39210212230682373,1.7327419519424438,0.46439245343208313,-0.27330678701400757,0.40048015117645264,0.5802773833274841,0.2605380713939667,-2.430176019668579,-1.5122592449188232,0.08350768685340881
0.0298710148781538,0.014984146691858768,-0.013188108801841736,-0.13015741109848022,0.02381412498652935,-0.9912070035934448,0.0,0.0,-0.0,-0.2845853865146637,0.29398560523986816,-0.1269526183605194,0.27377939224243164,0.12016916275024414,-0.08865189552307129,-0.11607903242111206,0.09451007843017578,-0.38097190856933594,-0.6040832996368408,-0.5777003765106201,-0.645188570022583,0.005114734638482332,-0.018947074189782143,-0.0017381329089403152,-0.00419370224699378,-0.011118016205728054,-0.01196669228374958,-0.03152602165937424,-0.021403484046459198,0.014507966116070747,-0.023179369047284126,0.04139351844787598,0.021516093984246254,-1.5744911432266235,0.9844143390655518,-0.37724602222442627,1.7061598300933838,0.41871723532676697,-0.3328436017036438,0.4014052748680115,0.5736196041107178,0.24706685543060303,-2.484813928604126,-1.4085278511047363,0.0654691755771637
0.02705138549208641,0.011595304124057293,-0.012288456782698631,-0.12906719744205475,0.02111750654876232,-0.9914105534553528,0.0,0.0,-0.0,-0.28242701292037964,0.2852952480316162,-0.12661761045455933,0.2723084092140198,0.1111634373664856,-0.09589135646820068,-0.12478882074356079,0.08483684062957764,-0.36891984939575195,-0.617588996887207,-0.563636302947998,-0.6348602771759033,0.005962734576314688,-0.020975075662136078,0.001356117078103125,-0.002619573613628745,-0.010743804275989532,-0.020609986037015915,-0.025954613462090492,-0.01973923109471798,0.015880897641181946,-0.028012895956635475,0.04405037686228752,0.021186327561736107,-1.6006999015808105,0.9736310839653015,-0.37165868282318115,1.6777788400650024,0.3839239776134491,-0.38084518909454346,0.37359243631362915,0.5511360168457031,0.23809859156608582,-2.539950132369995,-1.3416703939437866,0.048644691705703735
0.02346009388566017,0.009633745066821575,-0.012656931765377522,-0.12816976010799408,0.01871059089899063,-0.9915758371353149,0.0,0.0,-0.0,-0.27985167503356934,0.27678802609443665,-0.12584781646728516,0.2713475525379181,0.10247737169265747,-0.10603898763656616,-0.13294190168380737,0.07577633857727051,-0.3566298484802246,-0.6304521560668945,-0.549901008605957,-0.6247251033782959,0.00696066627278924,-0.018923534080386162,0.002322068903595209,-0.0009510444360785186,-0.010073932819068432,-0.025989148765802383,-0.02479548566043377,-0.018663866445422173,0.01620483212172985,-0.02581680752336979,0.043517354875802994,0.019301464781165123,-1.6028579473495483,0.9524735808372498,-0.3718070983886719,1.656173586845398,0.3521222174167633,-0.4195740818977356,0.3313618302345276,0.515812873840332,0.23918423056602478,-2.5847036838531494,-1.3193713426589966,0.04087832570075989
0.02121041715145111,0.0074991886503994465,-0.013349021784961224,-0.12745575606822968,0.0166153647005558,-0.9917054176330566,0.0,0.0,-0.0,-0.2769172787666321,0.2692309021949768,-0.12470121681690216,0.27083340287208557,0.09429597854614258,-0.11679810285568237,-0.1404288411140442,0.06739640235900879,-0.3445155620574951,-0.640899658203125,-0.5366730690002441,-0.6150188446044922,0.007429968100041151,-0.016695082187652588,0.002417707582935691,-0.0010400848696008325,-0.008900820277631283,-0.025121495127677917,-0.022851649671792984,-0.016350049525499344,0.015502293594181538,-0.020600751042366028,0.040510259568691254,0.019413327798247337,-1.6092756986618042,0.925767719745636,-0.36369258165359497,1.6454766988754272,0.3236173093318939,-0.45306527614593506,0.2852041721343994,0.4746916890144348,0.254002183675766,-2.618755578994751,-1.323862075805664,0.0423455536365509
0.019419128075242043,0.0071963956579566,-0.013661052100360394,-0.1268884390592575,0.014828522689640522,-0.9918060898780823,0.0,0.0,-0.0,-0.2737385034561157,0.26256266236305237,-0.12322090566158295,0.270730197429657,0.086697518825531,-0.1261441707611084,-0.146839439868927,0.05966663360595703,-0.3329787254333496,-0.6485226154327393,-0.5247945785522461,-0.6059508323669434,0.0074529992416501045,-0.015216538682579994,0.0008237592992372811,-8.292170241475105e-05,-0.007648842874914408,-0.02054138109087944,-0.024664169177412987,-0.01413340587168932,0.013562940061092377,-0.014964242465794086,0.017000854015350342,0.016026154160499573,-1.61982262134552,0.8999313712120056,-0.3486582636833191,1.6423035860061646,0.29667654633522034,-0.4819139838218689,0.2405995875597,0.43145284056663513,0.2795735001564026,-2.642781972885132,-1.3432420492172241,0.05081942677497864
0.015640128403902054,0.004210310522466898,-0.013766402378678322,-0.12646670639514923,0.013347000814974308,-0.991881251335144,0.0,0.0,-0.0,-0.27038857340812683,0.2570093870162964,-0.12098419666290283,0.27101361751556396,0.07974028587341309,-0.13281714916229248,-0.15086615085601807,0.05274462699890137,-0.3222252130508423,-0.653780460357666,-0.5138676166534424,-0.5978803634643555,0.007764408830553293,-0.01234325673431158,0.004893702454864979,0.0004157772345934063,-0.005881440360099077,-0.013359014876186848,-0.010244268923997879,-0.011849894188344479,0.011424784548580647,-0.010105837136507034,0.02197284810245037,0.013990226201713085,-1.627880334854126,0.8805723190307617,-0.33671483397483826,1.6447702646255493,0.2747165858745575,-0.5023279190063477,0.20906810462474823,0.3963683247566223,0.3168241083621979,-2.6591968536376953,-1.362953782081604,0.07123604416847229
0.013188295066356659,0.0018819577526301146,-0.013382572680711746,-0.1262647807598114,0.012168198823928833,-0.99192214012146,0.0,0.0,-0.0,-0.2669786214828491,0.2525109052658081,-0.11726610362529755,0.2716400921344757,0.07349544763565063,-0.13639461994171143,-0.14838296175003052,0.046643733978271484,-0.3124570846557617,-0.6570053100585938,-0.5053889751434326,-0.5909309387207031,0.007591864559799433,-0.010453549213707447,0.010729835368692875,0.0007195791113190353,-0.004351590294390917,-0.006042803172022104,0.01176542416214943,-0.009576907381415367,0.008706331253051758,-0.006046994589269161,0.03776339441537857,0.010419084690511227,-1.628727912902832,0.8649616837501526,-0.31793901324272156,1.6459323167800903,0.26225176453590393,-0.5114116668701172,0.17382444441318512,0.36481502652168274,0.3574428856372833,-2.6685259342193604,-1.3813093900680542,0.09726133942604065
0.013317672535777092,0.0026113183703273535,-0.012862802483141422,-0.1261099874973297,0.011104846373200417,-0.99195396900177,0.0,0.0,-0.0,-0.2637504041194916,0.2489646077156067,-0.11243197321891785,0.2723730206489563,0.06773662567138672,-0.13673186302185059,-0.14032375812530518,0.04101526737213135,-0.30391621589660645,-0.6583559513092041,-0.49949562549591064,-0.5850992202758789,0.006732860114425421,-0.008250745013356209,0.012926730327308178,0.0007663281867280602,-0.002439185744151473,0.0017445406410843134,0.023050235584378242,-0.008193797431886196,0.00394503865391016,-0.0021449134219437838,0.031951505690813065,0.006797199137508869,-1.6175531148910522,0.8563867211341858,-0.29995378851890564,1.643860101699829,0.2600490152835846,-0.5057458281517029,0.1493120938539505,0.3411957621574402,0.40062323212623596,-2.669691562652588,-1.3983758687973022,0.1337769329547882
0.01475572306662798,0.0027950177900493145,-0.013000921346247196,-0.1259203851222992,0.010016256012022495,-0.9919899702072144,0.0,0.0,-0.0,-0.2608264684677124,0.24696588516235352,-0.10728829354047775,0.27306661009788513,0.06238865852355957,-0.13343167304992676,-0.12916278839111328,0.03562486171722412,-0.296750545501709,-0.6581888198852539,-0.4949984550476074,-0.5802981853485107,0.005653926637023687,-0.004178368952125311,0.013409547507762909,0.000525066105183214,-0.007553262170404196,0.010548961348831654,0.030397644266486168,-0.008151428773999214,0.005686910357326269,0.0012928805081173778,0.03472157195210457,0.004666776861995459,-1.598948359489441,0.8545735478401184,-0.29132312536239624,1.6459256410598755,0.2673158347606659,-0.4855448305606842,0.15097932517528534,0.3284522294998169,0.4454083740711212,-2.6658968925476074,-1.4073638916015625,0.18157687783241272
0.017099197953939438,0.0037391982041299343,-0.01342676393687725,-0.1256874054670334,0.008780008181929588,-0.9920313954353333,0.0,0.0,-0.0,-0.2582536041736603,0.24650812149047852,-0.10248079150915146,0.273598849773407,0.0572202205657959,-0.12679636478424072,-0.11763572692871094,0.03036177158355713,-0.2905278205871582,-0.6569554805755615,-0.4914809465408325,-0.5765042304992676,0.0053543830290436745,-0.0008830954320728779,0.011811837553977966,3.120843393844552e-05,-0.0032466889824718237,0.017799925059080124,0.027377188205718994,-0.007923311553895473,0.001128265168517828,0.003515541320666671,0.03207577392458916,0.0022142950911074877,-1.5809078216552734,0.8539435267448425,-0.2842842936515808,1.6520649194717407,0.29019948840141296,-0.4560564160346985,0.16314612329006195,0.3199399411678314,0.48305532336235046,-2.660277843475342,-1.4021772146224976,0.22995051741600037
0.02027086354792118,0.0036315759643912315,-0.014048230834305286,-0.1254432201385498,0.007294919341802597,-0.9920743703842163,0.0,0.0,-0.0,-0.256052702665329,0.24727168679237366,-0.09858506917953491,0.27390483021736145,0.052399635314941406,-0.11753332614898682,-0.10799753665924072,0.025322794914245605,-0.2854830026626587,-0.6544721126556396,-0.4884984493255615,-0.5737547874450684,0.00443418649956584,0.0019472589483484626,0.00872152391821146,-0.0005215525743551552,-0.0032104996498674154,0.02348623424768448,0.01976136676967144,-0.007354423403739929,-0.0004984982660971582,0.0062768729403615,0.025307346135377884,-0.0002482919080648571,-1.5738619565963745,0.8576837778091431,-0.28094860911369324,1.6655421257019043,0.3058757483959198,-0.4171673059463501,0.18454043567180634,0.31038954854011536,0.5148080587387085,-2.649156093597412,-1.3940602540969849,0.27993765473365784
0.024015318602323532,0.0028074297588318586,-0.014663156121969223,-0.12524645030498505,0.005519796162843704,-0.9921101331710815,0.0,0.0,-0.0,-0.25424250960350037,0.2489376962184906,-0.0958440825343132,0.2739941477775574,0.04788005352020264,-0.10667139291763306,-0.10163384675979614,0.02063167095184326,-0.2813422679901123,-0.6512770652770996,-0.48585355281829834,-0.5720949172973633,0.003630899591371417,0.003779486520215869,0.004852270241826773,-0.0009471139055676758,-0.002869208110496402,0.026282498612999916,0.008499477058649063,-0.006095455028116703,-0.0020001200027763844,0.0075102257542312145,0.014827239327132702,-0.003282517660409212,-1.5743309259414673,0.8630337715148926,-0.28109562397003174,1.684086799621582,0.32320573925971985,-0.37603580951690674,0.21064092218875885,0.299917608499527,0.5405091047286987,-2.6372883319854736,-1.3764442205429077,0.3238252103328705
0.02732994221150875,0.0008592240046709776,-0.01553259789943695,-0.12517894804477692,0.0034432318061590195,-0.9921285510063171,0.0,0.0,-0.0,-0.25275903940200806,0.2509598731994629,-0.09431163221597672,0.27387911081314087,0.043734610080718994,-0.09551769495010376,-0.09844571352005005,0.01642739772796631,-0.27795541286468506,-0.6473672389984131,-0.4836808443069458,-0.5715157985687256,0.002986140549182892,0.004396656062453985,0.0011133000953122973,-0.0010046996176242828,-0.002318437909707427,0.02605346217751503,-0.001085886382497847,-0.003969964571297169,-0.0031649114098399878,0.00880366936326027,0.001318064401857555,-0.007777241058647633,-1.5831104516983032,0.8688408732414246,-0.28686827421188354,1.706297755241394,0.3372279405593872,-0.3355161249637604,0.23686017096042633,0.28596070408821106,0.5579471588134766,-2.6221511363983154,-1.3560940027236938,0.36250540614128113
0.03256901726126671,-0.0007507866248488426,-0.01625172793865204,-0.12523958086967468,0.000986676663160324,-0.9921261668205261,0.0,0.0,-0.0,-0.25161638855934143,0.2527751922607422,-0.09395716339349747,0.27355697751045227,0.03996354341506958,-0.0851544737815857,-0.09887099266052246,0.012849092483520508,-0.275185227394104,-0.6427152156829834,-0.481691837310791,-0.5721733570098877,0.0019922740757465363,0.0036964521277695894,-0.002865481423214078,-0.0019009079551324248,-0.0011010855669155717,0.023677578195929527,-0.012427344918251038,-0.0019005713984370232,-0.005095954984426498,0.009960058145225048,-0.010057970881462097,-0.010288156569004059,-1.599525809288025,0.8740890622138977,-0.2962101101875305,1.7311352491378784,0.3466242551803589,-0.2980514466762543,0.26065510511398315,0.2694312036037445,0.5710611343383789,-2.603386640548706,-1.3331201076507568,0.39568832516670227
0.034676965326070786,-0.0033698002807796,-0.01671137660741806,-0.12547679245471954,-0.001814141869544983,-0.9920953512191772,0.0,0.0,-0.0,-0.25077083706855774,0.2540379464626312,-0.09445812553167343,0.2730712294578552,0.036580681800842285,-0.07616275548934937,-0.10157877206802368,0.00990152359008789,-0.2729368209838867,-0.6371586322784424,-0.4800363779067993,-0.5738890171051025,0.0017913569463416934,0.0027515720576047897,-0.00361858238466084,-0.0004747268685605377,-0.0009573540883138776,0.02030024304986,-0.014892666600644588,-0.0021388474851846695,-0.005011745262891054,0.01154001709073782,-0.01135683711618185,-0.014564177952706814,-1.6225166320800781,0.8759090900421143,-0.3070926070213318,1.7571959495544434,0.3514436185359955,-0.26522570848464966,0.279498815536499,0.24872590601444244,0.5774075984954834,-2.580397129058838,-1.319379210472107,0.4230433404445648
0.038489747792482376,-0.00614815391600132,-0.017278054729104042,-0.1259366273880005,-0.0048651620745658875,-0.9920264482498169,0.0,0.0,-0.0,-0.2501267194747925,0.25446492433547974,-0.0952015072107315,0.27254411578178406,0.03372156620025635,-0.06880754232406616,-0.10364699363708496,0.007692694664001465,-0.2712479829788208,-0.6308639049530029,-0.4794585704803467,-0.5766940116882324,0.0012008099583908916,0.0004175737558398396,-0.004268938675522804,-0.0017761146882548928,-1.3139891052560415e-05,0.016418345272541046,-0.013163553550839424,0.0028090274427086115,-0.006066345144063234,0.012509762309491634,-0.018474657088518143,-0.018135100603103638,-1.6465072631835938,0.8752011656761169,-0.316095769405365,1.7781319618225098,0.35940393805503845,-0.2384946048259735,0.28864187002182007,0.2289392203092575,0.5796791315078735,-2.5543620586395264,-1.3122566938400269,0.44673123955726624
0.041788794100284576,-0.00727117620408535,-0.01743692345917225,-0.12651972472667694,-0.008206764236092567,-0.991930365562439,0.0,0.0,-0.0,-0.24974149465560913,0.2538087069988251,-0.09602329134941101,0.2719474732875824,0.03126901388168335,-0.06285440921783447,-0.10438823699951172,0.00612187385559082,-0.270205020904541,-0.6235394477844238,-0.4797457456588745,-0.5806746482849121,0.000542817113455385,-0.0018860793206840754,-0.003928274381905794,-0.0018933434039354324,0.001387139200232923,0.013760978356003761,-0.008469332940876484,0.004935160744935274,-0.008519827388226986,0.014349684119224548,-0.01576991006731987,-0.02173466794192791,-1.6701910495758057,0.871431291103363,-0.32812005281448364,1.800468921661377,0.36325570940971375,-0.2131197452545166,0.2969617247581482,0.204877108335495,0.5844383239746094,-2.5223307609558105,-1.3169106245040894,0.4680614769458771
0.04398359730839729,-0.008604300208389759,-0.017546769231557846,-0.12720568478107452,-0.01174599677324295,-0.9918068647384644,0.0,0.0,-0.0,-0.2495494782924652,0.25233030319213867,-0.09669961035251617,0.2713393270969391,0.02918606996536255,-0.05742615461349487,-0.10180634260177612,0.00503849983215332,-0.2698836326599121,-0.615018367767334,-0.4814014434814453,-0.585684061050415,0.00026030707522295415,-0.003588821506127715,-0.0024917926639318466,-0.0018458610866218805,0.0014380854554474354,0.013418762944638729,0.003583855926990509,0.006759049836546183,-0.009120607748627663,0.016629057005047798,-0.006585156079381704,-0.025112679228186607,-1.6915677785873413,0.8647698163986206,-0.3374052345752716,1.817862868309021,0.3730379641056061,-0.18730153143405914,0.3044307231903076,0.18469244241714478,0.5925542116165161,-2.48517107963562,-1.3327401876449585,0.49217215180397034
0.04591060057282448,-0.00840320810675621,-0.017503054812550545,-0.12792424857616425,-0.01543770357966423,-0.9916638731956482,0.0,0.0,-0.0,-0.24949872493743896,0.2502236068248749,-0.09721755981445312,0.27076977491378784,0.027406930923461914,-0.05169016122817993,-0.09517455101013184,0.004270792007446289,-0.27037298679351807,-0.6051421165466309,-0.4848787784576416,-0.5916547775268555,-0.00013910104462411255,-0.004872370511293411,-0.0019346388289704919,-0.0015727672725915909,0.0017541818087920547,0.01486873161047697,0.01327918004244566,0.007807377725839615,-0.010977141559123993,0.019279027357697487,-0.008290296420454979,-0.02816757932305336,-1.7073355913162231,0.8565725684165955,-0.3466731905937195,1.831153154373169,0.38972362875938416,-0.15912562608718872,0.3126925826072693,0.16748887300491333,0.6025146245956421,-2.4421844482421875,-1.3552671670913696,0.5186299085617065
0.04876270890235901,-0.007818292826414108,-0.017584718763828278,-0.1286037415266037,-0.01933996006846428,-0.9915077090263367,0.0,0.0,-0.0,-0.24963590502738953,0.24788007140159607,-0.09781523048877716,0.27021148800849915,0.025800049304962158,-0.044808804988861084,-0.08572405576705933,0.0035746097564697266,-0.27169084548950195,-0.5938589572906494,-0.48954689502716064,-0.5984592437744141,-0.000568012532312423,-0.004947252105921507,-0.0021589677780866623,-0.0014833888271823525,0.001525355619378388,0.018324723467230797,0.019499821588397026,0.008304128423333168,-0.012209851294755936,0.022185521200299263,-0.007804404944181442,-0.03069385699927807,-1.718820571899414,0.8493667244911194,-0.36129921674728394,1.844407558441162,0.413469523191452,-0.12554320693016052,0.33530133962631226,0.15770798921585083,0.6133201122283936,-2.393430471420288,-1.3752422332763672,0.5501748323440552
0.05195965990424156,-0.0064476667903363705,-0.017605958506464958,-0.12922035157680511,-0.02355269156396389,-0.991336464881897,0.0,0.0,-0.0,-0.2500354051589966,0.2455081343650818,-0.09871602058410645,0.26957955956459045,0.02425253391265869,-0.03623420000076294,-0.07523578405380249,0.0029374361038208008,-0.27373600006103516,-0.5808234214782715,-0.49502456188201904,-0.6061692237854004,-0.0010749625507742167,-0.004573866259306669,-0.00281402631662786,-0.00017908184963744134,0.0016260136617347598,0.022771155461668968,0.01965918019413948,0.0037381581496447325,-0.014158862642943859,0.025808734819293022,-0.00961498636752367,-0.0316988080739975,-1.730431079864502,0.8408733010292053,-0.37892234325408936,1.8599053621292114,0.444864422082901,-0.08563517034053802,0.36693835258483887,0.15052932500839233,0.6192859411239624,-2.337571144104004,-1.3924572467803955,0.5837991237640381
0.05891694873571396,-0.0068154544569551945,-0.018172524869441986,-0.12979000806808472,-0.02815367840230465,-0.9911421537399292,0.0,0.0,-0.0,-0.250718355178833,0.24318858981132507,-0.10003358125686646,0.26886099576950073,0.022830069065093994,-0.02590012550354004,-0.06547057628631592,0.002249598503112793,-0.27651238441467285,-0.5658309459686279,-0.500880241394043,-0.6145260334014893,-0.0024925777688622475,-0.004610912874341011,-0.004287549760192633,-0.0018204174702987075,-0.000978647149167955,0.027170753106474876,0.015703121200203896,0.009490566328167915,-0.013037644326686859,0.02973511815071106,-0.014140340499579906,-0.03482041135430336,-1.7444071769714355,0.8325295448303223,-0.40044987201690674,1.8781644105911255,0.4817379415035248,-0.041524261236190796,0.40672653913497925,0.1493750959634781,0.615544319152832,-2.2742958068847656,-1.404710054397583,0.6198339462280273
0.06278860569000244,-0.005568036809563637,-0.018557848408818245,-0.13029170036315918,-0.03314073383808136,-0.9909219145774841,0.0,0.0,-0.0,-0.2516336739063263,0.2405390441417694,-0.10184866935014725,0.2680385410785675,0.02148371934890747,-0.014024734497070312,-0.05694139003753662,0.0015794038772583008,-0.2798597812652588,-0.5477879047393799,-0.5069994926452637,-0.6236166954040527,-0.002928210189566016,-0.005252003204077482,-0.005174192599952221,-0.0012563556665554643,-0.0005622319877147675,0.03116544894874096,0.012061044573783875,0.008685651235282421,-0.01540908869355917,0.03585752472281456,-0.01744365505874157,-0.037117522209882736,-1.7681204080581665,0.8195621371269226,-0.4262223243713379,1.9079679250717163,0.5138436555862427,0.010684430599212646,0.4444456100463867,0.1339421421289444,0.6055697202682495,-2.196568250656128,-1.426472544670105,0.6507412195205688
0.06612556427717209,-0.004717359784990549,-0.018558308482170105,-0.13073879480361938,-0.038480281829833984,-0.9906699657440186,0.0,0.0,-0.0,-0.2527761459350586,0.23740264773368835,-0.10406136512756348,0.2673100531101227,0.02036285400390625,-0.0006882548332214355,-0.048715174198150635,0.0011960268020629883,-0.2840379476547241,-0.5266890525817871,-0.5136396884918213,-0.6339476108551025,-0.003199384082108736,-0.00605407077819109,-0.005660166498273611,-0.0006912394310347736,-0.0004292064404580742,0.034873541444540024,0.012072654440999031,0.0022622966207563877,-0.016641220077872276,0.041585519909858704,-0.019046025350689888,-0.03351753205060959,-1.7978427410125732,0.806145429611206,-0.4519389867782593,1.9366225004196167,0.5484306216239929,0.06669706106185913,0.48211514949798584,0.12504388391971588,0.5893176794052124,-2.1071717739105225,-1.4517067670822144,0.6828089952468872
0.07115309685468674,-0.0047403303906321526,-0.01870097778737545,-0.13115470111370087,-0.04416029155254364,-0.9903781414031982,0.0,0.0,-0.0,-0.2540978491306305,0.23358669877052307,-0.10672111809253693,0.2666318714618683,0.019547462463378906,0.013635993003845215,-0.03949630260467529,0.0009655952453613281,-0.28914809226989746,-0.5021777153015137,-0.5212976932525635,-0.645061731338501,-0.0037781873252242804,-0.007602919824421406,-0.006739956326782703,-0.0004907361580990255,3.0182860427885316e-05,0.03741491213440895,0.01566457562148571,0.009806161746382713,-0.01814219169318676,0.04795848950743675,-0.02047690749168396,-0.041361089795827866,-1.8238877058029175,0.7911504507064819,-0.48279619216918945,1.9603022336959839,0.5834694504737854,0.12467864155769348,0.5174149870872498,0.11997288465499878,0.5592495203018188,-2.0031769275665283,-1.4844127893447876,0.7155983448028564
0.0743064433336258,-0.0019790842197835445,-0.018641255795955658,-0.13143710792064667,-0.0501372404396534,-0.9900562763214111,0.0,0.0,-0.0,-0.2556383013725281,0.22888046503067017,-0.1100706085562706,0.2661294937133789,0.019055664539337158,0.029216349124908447,-0.02831929922103882,0.0008912086486816406,-0.29547178745269775,-0.4715425968170166,-0.5303292274475098,-0.6573827266693115,-0.004132878500968218,-0.008912005461752415,-0.008292493410408497,-2.0904188204440288e-05,0.00035777391167357564,0.04227703437209129,0.021515455096960068,0.008337331004440784,-0.020783817395567894,0.06024525314569473,-0.020400192588567734,-0.042300350964069366,-1.8543351888656616,0.7728756666183472,-0.5188820958137512,1.9878476858139038,0.6146202087402344,0.19939792156219482,0.5487755537033081,0.09968049824237823,0.5310702323913574,-1.8664368391036987,-1.5330995321273804,0.7483235597610474
0.07895710319280624,0.0028326043393462896,-0.018217921257019043,-0.13146711885929108,-0.05642455071210861,-0.9897134900093079,0.0,0.0,-0.0,-0.2574201822280884,0.22349372506141663,-0.11419328302145004,0.26581788063049316,0.018885254859924316,0.04717862606048584,-0.015487849712371826,0.0008674860000610352,-0.30329811573028564,-0.4328509569168091,-0.5407087802886963,-0.670954704284668,-0.004885772708803415,-0.009711948223412037,-0.009801097214221954,0.0005850691231898963,0.0005050117033533752,0.05007972940802574,0.02358805015683174,0.0019808784127235413,-0.02382947877049446,0.07582198828458786,-0.016307789832353592,-0.040999799966812134,-1.8797274827957153,0.7537941336631775,-0.560874342918396,2.0088253021240234,0.659236490726471,0.28559333086013794,0.5861047506332397,0.09262531995773315,0.4888593852519989,-1.69423246383667,-1.5817904472351074,0.7852461338043213
0.08301593363285065,0.008923866786062717,-0.018468614667654037,-0.1310591697692871,-0.06305399537086487,-0.9893674254417419,0.0,0.0,-0.0,-0.2595116198062897,0.21701961755752563,-0.11945922672748566,0.2655949890613556,0.019114196300506592,0.06765866279602051,-0.0015086531639099121,0.0005933046340942383,-0.3131113052368164,-0.3838040828704834,-0.5526342391967773,-0.68546462059021,-0.004861691500991583,-0.009023481979966164,-0.012387825176119804,0.0012798294192180037,0.0003661246446426958,0.05030393227934837,0.026404647156596184,0.006937745492905378,-0.026494616642594337,0.03475099429488182,-0.018750524148344994,-0.04819422587752342,-1.8963954448699951,0.7269449830055237,-0.6154948472976685,2.026691198348999,0.7068855166435242,0.38636964559555054,0.6234835982322693,0.09036831557750702,0.4149087369441986,-1.4660011529922485,-1.641141414642334,0.8278838396072388
0.05739939212799072,-0.021447403356432915,-0.00790958758443594,-0.13183890283107758,-0.06830481439828873,-0.9889154434204102,0.0,0.0,-0.0,-0.26064804196357727,0.21779818832874298,-0.12444932758808136,0.26728740334510803,0.020189881324768066,0.0719870924949646,0.015076875686645508,0.0023403167724609375,-0.32269954681396484,-0.3995246887207031,-0.5674309730529785,-0.7017762660980225,-0.0012035596882924438,0.0032379874028265476,-0.008799610659480095,0.007904410362243652,0.0021005156449973583,0.008494962006807327,0.03260866552591324,0.015493619255721569,-0.019384538754820824,-0.03562792018055916,-0.030000392347574234,-0.05266856029629707,-1.908196210861206,0.6938058733940125,-0.6965224742889404,2.037777900695801,0.7363088130950928,0.5388698577880859,0.6592351794242859,0.0788053423166275,0.30217382311820984,-1.1521179676055908,-1.709255337715149,0.8585807085037231
0.071485236287117,-0.05037356913089752,-0.0077052852138876915,-0.13494770228862762,-0.07393748313188553,-0.9880903959274292,0.0,0.0,-0.0,-0.2628132998943329,0.21736468374729156,-0.12898890674114227,0.2684098482131958,0.022072017192840576,0.07610225677490234,0.026494979858398438,0.007666945457458496,-0.32907772064208984,-0.41190898418426514,-0.5823407173156738,-0.7201778888702393,-0.005285887513309717,-0.0011361826909705997,-0.0033981166779994965,0.002567161340266466,0.0032367126550525427,0.006045666988939047,0.005279220640659332,0.019014058634638786,-0.008974967524409294,-0.021137408912181854,-0.04138180613517761,-0.05408690497279167,-1.7949243783950806,0.6878522038459778,-0.8375158309936523,1.9418047666549683,0.7494444251060486,0.7953038215637207,0.7270004153251648,-0.029900293797254562,0.13691174983978271,-0.9421882033348083,-1.6841622591018677,0.779045581817627
0.07878118008375168,-0.05844749137759209,-0.01093051303178072,-0.13930538296699524,-0.0804097130894661,-0.986979603767395,0.0,0.0,-0.0,-0.2662462592124939,0.21516473591327667,-0.13299714028835297,0.26761072874069214,0.0244218111038208,0.0804639458656311,0.03315842151641846,0.01467752456665039,-0.3328901529312134,-0.42160773277282715,-0.5952358245849609,-0.738696813583374,-0.007864420302212238,-0.004488401114940643,-0.01147083006799221,-0.0003955164866056293,0.0033985585905611515,0.004654006566852331,0.008034848608076572,0.02613428235054016,-0.003384165931493044,-0.014459806494414806,-0.018356014043092728,-0.05808145925402641,-1.706113576889038,0.6551404595375061,-0.9367928504943848,1.9246071577072144,0.7133698463439941,0.948112964630127,0.8372572064399719,-0.05926555022597313,-0.08811202645301819,-0.8376270532608032,-1.4801987409591675,0.6701964139938354
0.08078137040138245,-0.042974941432476044,-0.0077935149893164635,-0.14313118159770966,-0.08707906305789948,-0.9858653545379639,0.0,0.0,-0.0,-0.270621657371521,0.21178661286830902,-0.13811463117599487,0.2653247117996216,0.026181697845458984,0.08407604694366455,0.038765668869018555,0.020471692085266113,-0.3355768918991089,-0.4297574758529663,-0.60614013671875,-0.7545492649078369,-0.010402590967714787,-0.009384269826114178,-0.013568046502768993,-0.004582301713526249,0.00032549709430895746,0.004793871194124222,0.002990463050082326,0.019117072224617004,-0.0010858888272196054,-0.012319711036980152,-0.012490816414356232,-0.046817369759082794,-1.6179002523422241,0.6070199012756348,-1.0463413000106812,1.9180766344070435,0.662359356880188,1.0498600006103516,0.9172702431678772,-0.032036375254392624,-0.3211119771003723,-0.6883798837661743,-1.1864901781082153,0.5593684911727905
0.07271796464920044,-0.013749685138463974,-0.0007703662849962711,-0.14506156742572784,-0.09331239014863968,-0.9850127696990967,0.0,0.0,-0.0,-0.2755697965621948,0.20766787230968475,-0.14312702417373657,0.2622116506099701,0.026398539543151855,0.08614563941955566,0.04070007801055908,0.02313065528869629,-0.3378547430038452,-0.43662309646606445,-0.612497091293335,-0.7652196884155273,-0.011597133241593838,-0.010575546883046627,-0.012478157877922058,-0.006673736963421106,-0.004453831352293491,0.0009522872278466821,-0.0074864584021270275,0.005079102702438831,-0.0001391198456985876,-0.010299521498382092,0.00045447461889125407,-0.02598900906741619,-1.4783538579940796,0.579076886177063,-1.1632919311523438,1.8542908430099487,0.6154111623764038,1.1274209022521973,0.9618647694587708,0.0548262782394886,-0.5623629093170166,-0.5206263065338135,-0.8782534003257751,0.43637093901634216
0.047011420130729675,0.02415195107460022,0.004945858847349882,-0.14424291253089905,-0.09784001857042313,-0.9846934080123901,0.0,0.0,-0.0,-0.2799224853515625,0.2041192352771759,-0.14661714434623718,0.2593836784362793,0.024990975856781006,0.086295485496521,0.037845611572265625,0.021554946899414062,-0.3407094478607178,-0.44252872467041016,-0.6131508350372314,-0.7689454555511475,-0.009436869993805885,-0.006010486278682947,-0.008198941126465797,-0.005146036855876446,-0.006573825608938932,-0.008675585500895977,-0.01957433484494686,-0.0032791406847536564,-0.0039332411251962185,-0.004234842024743557,0.015922054648399353,-0.009685958735644817,-1.3054848909378052,0.5799059271812439,-1.248331069946289,1.720123529434204,0.5512510538101196,1.1434578895568848,0.9374644160270691,0.17490816116333008,-0.8093221187591553,-0.39937928318977356,-0.6549773812294006,0.27259138226509094
0.007627124432474375,0.06702525168657303,0.00856065098196268,-0.14012755453586578,-0.0994243323802948,-0.9851290583610535,0.0,0.0,-0.0,-0.2822350859642029,0.20265677571296692,-0.14727172255516052,0.2580399811267853,0.021924734115600586,0.08404666185379028,0.02959573268890381,0.014871358871459961,-0.34486281871795654,-0.44735705852508545,-0.6073422431945801,-0.7646312713623047,-0.0037814199458807707,-0.0002818593929987401,-0.0003567302774172276,-0.0013080493081361055,-0.012271653860807419,-0.013262796215713024,-0.030820179730653763,-0.017465228214859962,-0.005814866628497839,-0.0036036584060639143,0.02891348861157894,0.013178271241486073,-1.1338592767715454,0.6121390461921692,-1.2840007543563843,1.575954794883728,0.4494713246822357,1.0713566541671753,0.8509960770606995,0.31705889105796814,-0.974023699760437,-0.35728514194488525,-0.4914407730102539,0.04361191391944885
-0.02869204245507717,0.1045806035399437,0.011610263958573341,-0.13285024464130402,-0.09787878394126892,-0.9862916469573975,0.0,0.0,-0.0,-0.28202906250953674,0.2037055790424347,-0.14473453164100647,0.25850507616996765,0.017090916633605957,0.07935231924057007,0.016102194786071777,0.0031609535217285156,-0.3496969938278198,-0.4507251977920532,-0.5949311256408691,-0.7521450519561768,0.0018359710229560733,0.005019757896661758,0.008104455657303333,0.002652094466611743,-0.015584096312522888,-0.016871538013219833,-0.039409708231687546,-0.030943861231207848,-0.007985953241586685,-0.002363709034398198,0.0410805344581604,0.03574554994702339,-1.000741958618164,0.6764657497406006,-1.2773293256759644,1.4496029615402222,0.34287258982658386,0.919386625289917,0.719684362411499,0.47262313961982727,-1.0225229263305664,-0.3611735701560974,-0.37026911973953247,-0.24360772967338562
-0.058047328144311905,0.1311800181865692,0.013322386890649796,-0.1231440007686615,-0.09364078938961029,-0.987960934638977,0.0,0.0,-0.0,-0.2793416678905487,0.20699255168437958,-0.13940110802650452,0.26057446002960205,0.010266363620758057,0.07213646173477173,-0.0018527507781982422,-0.012916207313537598,-0.3535454273223877,-0.45149922370910645,-0.5762627124786377,-0.7319574356079102,0.007197598461061716,0.009351295419037342,0.013383998535573483,0.005140251945704222,-0.019126232713460922,-0.019562726840376854,-0.05130251124501228,-0.044117946177721024,-0.006660412531346083,0.000407383224228397,0.057327624410390854,0.05803526192903519,-0.923329770565033,0.7546252608299255,-1.2353447675704956,1.34697425365448,0.24985596537590027,0.6997072696685791,0.5645981431007385,0.582158088684082,-0.9972087144851685,-0.3726849853992462,-0.3181057572364807,-0.5672357082366943
-0.05231836065649986,0.1290324479341507,0.01831175573170185,-0.11275562644004822,-0.08878596872091293,-0.9896482229232788,0.0,0.0,-0.0,-0.27595022320747375,0.21046026051044464,-0.13315948843955994,0.26297527551651,0.0020737648010253906,0.0636911392211914,-0.02196049690246582,-0.030436277389526367,-0.3544665575027466,-0.4490295648574829,-0.553011417388916,-0.7072837352752686,0.006496119778603315,0.0068209110759198666,0.013405193574726582,0.003905093763023615,-0.020964762195944786,-0.017354384064674377,-0.05231892690062523,-0.04394824802875519,0.0015153043204918504,0.004271878860890865,0.06393266469240189,0.0670873150229454,-0.8879790902137756,0.8160063624382019,-1.169270634651184,1.2796674966812134,0.18973925709724426,0.47829657793045044,0.4150405526161194,0.6101374626159668,-0.9660147428512573,-0.4022631049156189,-0.296766459941864,-0.907267689704895
-0.03635506331920624,0.10608617961406708,0.02338273823261261,-0.10366151481866837,-0.08502211421728134,-0.9909719228744507,0.0,0.0,-0.0,-0.2733335494995117,0.21255233883857727,-0.12752535939216614,0.26496198773384094,-0.00601804256439209,0.056068360805511475,-0.04067927598953247,-0.04551541805267334,-0.35171687602996826,-0.44370603561401367,-0.5288207530975342,-0.6829793453216553,0.004380471538752317,0.002965199528262019,0.01281790155917406,0.002609850838780403,-0.020041590556502342,-0.010651527903974056,-0.04437407851219177,-0.04321065917611122,0.011565208435058594,0.006506744306534529,0.06115474924445152,0.07035517692565918,-0.8696848750114441,0.8784046769142151,-1.1080069541931152,1.2064372301101685,0.17972132563591003,0.29544514417648315,0.29760807752609253,0.5626567602157593,-1.014700174331665,-0.4048430323600769,-0.28129735589027405,-1.1490484476089478
-0.03626573085784912,0.0876060500741005,0.02538067288696766,-0.0962398499250412,-0.08163091540336609,-0.9920052289962769,0.0,0.0,-0.0,-0.2707582712173462,0.21425890922546387,-0.12189962714910507,0.26739737391471863,-0.012793540954589844,0.0501246452331543,-0.05645078420639038,-0.05720776319503784,-0.34715735912323,-0.4369770288467407,-0.5062863826751709,-0.6608998775482178,0.005676256027072668,0.0033656598534435034,0.012445165775716305,0.004796103574335575,-0.01687590219080448,-0.003832344664260745,-0.037592798471450806,-0.03476531431078911,0.015180458314716816,0.004589301533997059,0.05619001388549805,0.06261160224676132,-0.8559673428535461,0.9401534199714661,-1.071451187133789,1.126507043838501,0.19832450151443481,0.1671404242515564,0.20681823790073395,0.5021097660064697,-1.1744648218154907,-0.353376567363739,-0.22810782492160797,-1.2613918781280518
-0.030620485544204712,0.08016837388277054,0.030897432938218117,-0.08978402614593506,-0.0782121866941452,-0.9928858876228333,0.0,0.0,-0.0,-0.2659722864627838,0.21597227454185486,-0.11594346165657043,0.2706269323825836,-0.004259049892425537,0.04585045576095581,-0.06997901201248169,-0.06632953882217407,-0.34608912467956543,-0.43066489696502686,-0.48586440086364746,-0.6414506435394287,0.013833162374794483,0.0018238089978694916,0.012052114121615887,0.005333388224244118,0.03841902315616608,0.002133006462827325,-0.03292864188551903,-0.024235542863607407,0.009796810336411,-0.001128894160501659,0.05024905875325203,0.05430338531732559,-0.8498639464378357,0.999363362789154,-1.0553779602050781,1.0633207559585571,0.192396342754364,0.08293944597244263,0.1415143758058548,0.4625284969806671,-1.3581290245056152,-0.2220759242773056,-0.1004096269607544,-1.3423244953155518
-0.020213022828102112,0.06449378281831741,0.033671725541353226,-0.08432842791080475,-0.07555871456861496,-0.9935691952705383,0.0,0.0,-0.0,-0.2604185938835144,0.2167806625366211,-0.1105620488524437,0.2737255096435547,0.0195886492729187,0.04283946752548218,-0.08177924156188965,-0.07326328754425049,-0.359488844871521,-0.42463135719299316,-0.467258095741272,-0.6246871948242188,0.01643083617091179,-0.00023730788961984217,0.011601547710597515,0.006177698727697134,0.05829213187098503,0.0075927600264549255,-0.028209729120135307,-0.026503970846533775,-0.024181701242923737,-0.003706591669470072,0.04612307995557785,0.05303497985005379,-0.839101254940033,1.1064473390579224,-1.0636183023452759,1.00198495388031,0.18801867961883545,0.015560358762741089,0.152284637093544,0.4144953191280365,-1.506930947303772,-0.03711600601673126,0.05168292298913002,-1.4200916290283203
-0.003980726469308138,0.040807243436574936,0.0328557975590229,-0.08049510419368744,-0.07409816235303879,-0.9939969182014465,0.0,0.0,-0.0,-0.2556822597980499,0.21642524003982544,-0.10634282976388931,0.27601373195648193,0.04567134380340576,0.04066663980484009,-0.0914773941040039,-0.07800543308258057,-0.3932877779006958,-0.41760897636413574,-0.4504297971725464,-0.6101336479187012,0.015261048451066017,-0.0016637202352285385,0.007182827685028315,0.004065413493663073,0.05156642198562622,0.0034525678493082523,-0.0241102147847414,-0.019390016794204712,-0.063404880464077,0.002521298825740814,0.043683990836143494,0.045022111386060715,-0.8340218663215637,1.2067514657974243,-1.067136526107788,0.9507282376289368,0.23642146587371826,-0.052129894495010376,0.1396539956331253,0.37228304147720337,-1.6937752962112427,0.11058168113231659,0.19189906120300293,-1.488961100578308
0.015939850360155106,0.013346739113330841,0.03106760047376156,-0.07869625836610794,-0.0740627571940422,-0.9941439032554626,0.0,0.0,-0.0,-0.2525915503501892,0.2147831916809082,-0.10341174900531769,0.27741578221321106,0.0663103461265564,0.03877156972885132,-0.09897953271865845,-0.08037054538726807,-0.4431924819946289,-0.40807509422302246,-0.4350956678390503,-0.5980525016784668,0.01122708898037672,-0.005132702179253101,0.003476761281490326,-0.0003637672634795308,0.03347834199666977,0.015784209594130516,-0.017638077959418297,-0.007495605852454901,-0.0936698317527771,-0.0013764434261247516,0.038744546473026276,0.03713899478316307,-0.8373380303382874,1.2755045890808105,-1.0484412908554077,0.9092745184898376,0.29592233896255493,-0.08982840180397034,0.09791333973407745,0.3554541766643524,-1.9218389987945557,0.2040160447359085,0.29917624592781067,-1.5403152704238892
0.02599950134754181,-0.015296794474124908,0.029911596328020096,-0.07919683307409286,-0.07535520195960999,-0.9940069913864136,0.0,0.0,-0.0,-0.252066433429718,0.21211108565330505,-0.10153623670339584,0.2781336307525635,0.0785399079322815,0.037247300148010254,-0.10408049821853638,-0.08007222414016724,-0.5018763542175293,-0.39597296714782715,-0.42129063606262207,-0.5885882377624512,0.005640305578708649,-0.006407944951206446,0.002223385963588953,0.0020380960777401924,0.012656308710575104,0.014500078745186329,-0.011243372224271297,-0.008731101639568806,-0.10995089262723923,0.008306272327899933,0.03418513759970665,0.03598516434431076,-0.854249894618988,1.32362699508667,-1.0238444805145264,0.8747785687446594,0.3379383087158203,-0.11976355314254761,0.055054739117622375,0.3624698519706726,-2.1652045249938965,0.268349289894104,0.36832067370414734,-1.5632661581039429
0.03248231112957001,-0.041603993624448776,0.026607031002640724,-0.08190996199846268,-0.07754329591989517,-0.9936184883117676,0.0,0.0,-0.0,-0.2529166638851166,0.20908083021640778,-0.10019892454147339,0.2786072790622711,0.0804787278175354,0.03593629598617554,-0.10685181617736816,-0.07742106914520264,-0.5583431720733643,-0.38130688667297363,-0.4089890718460083,-0.5812380313873291,0.002539444249123335,-0.005642016883939505,0.001746284426189959,0.0026780476327985525,-0.010041686706244946,0.005597390234470367,-0.005048534832894802,-0.0032202850561589003,-0.10512814670801163,0.020830750465393066,0.02958369255065918,0.030724549666047096,-0.8666543364524841,1.351450800895691,-1.0011266469955444,0.8426786661148071,0.33976009488105774,-0.13062572479248047,0.019028201699256897,0.37791571021080017,-2.3794054985046387,0.28925013542175293,0.39048340916633606,-1.5388821363449097
0.03912024199962616,-0.06068085879087448,0.02186039462685585,-0.08637291938066483,-0.08034321665763855,-0.9930183291435242,0.0,0.0,-0.0,-0.2537369430065155,0.20612145960330963,-0.0991317480802536,0.2790850102901459,0.07251375913619995,0.03445404767990112,-0.10764968395233154,-0.07288861274719238,-0.6036796569824219,-0.36411452293395996,-0.39794886112213135,-0.5757219791412354,0.0012060834560543299,-0.004957109689712524,0.0013315662508830428,0.0029128892347216606,-0.02918368950486183,0.01486938912421465,-0.0005294610164128244,0.0006990508991293609,-0.08363034576177597,0.018167778849601746,0.02664352022111416,0.026573846116662025,-0.8737668395042419,1.3442002534866333,-0.9795655012130737,0.8285414576530457,0.3061683773994446,-0.09296610951423645,0.01071096956729889,0.4215950071811676,-2.5337507724761963,0.28021252155303955,0.39668259024620056,-1.4335933923721313
0.04344208538532257,-0.07173322886228561,0.015635451301932335,-0.09189047664403915,-0.08350709080696106,-0.9922616481781006,0.0,0.0,-0.0,-0.2552570104598999,0.20360301434993744,-0.09823248535394669,0.27954837679862976,0.058266401290893555,0.03291511535644531,-0.10711884498596191,-0.06743305921554565,-0.6356797218322754,-0.3457895517349243,-0.3876234292984009,-0.5709948539733887,-0.0034853301476687193,-0.004553514067083597,0.0005787466070614755,-0.0002157345152227208,-0.03863232582807541,0.011174269020557404,0.0021691962610930204,0.010665013454854488,-0.05821877345442772,0.02550419047474861,0.02547486126422882,0.018697082996368408,-0.8884101510047913,1.301804542541504,-0.9604953527450562,0.8352140188217163,0.25365743041038513,-0.05862909555435181,0.023795023560523987,0.4785376191139221,-2.6323864459991455,0.26563286781311035,0.3809151351451874,-1.2453763484954834
0.0362168550491333,-0.06854673475027084,0.009909273125231266,-0.0975262001156807,-0.08652786910533905,-0.9914642572402954,0.0,0.0,-0.0,-0.2577763795852661,0.20193272829055786,-0.0972098559141159,0.2802087068557739,0.04086202383041382,0.03098165988922119,-0.10634857416152954,-0.06208503246307373,-0.6510605812072754,-0.3270522356033325,-0.3771250247955322,-0.5662925243377686,-0.007631381507962942,-0.0017837617779150605,0.0018935221014544368,0.002428342355415225,-0.04161306843161583,0.0016422428889200091,0.0009320809622295201,0.0023105924483388662,-0.025989597663283348,0.03282812237739563,0.02782648243010044,0.02449798583984375,-0.9080975651741028,1.197567105293274,-0.9503041505813599,0.8848043084144592,0.18866685032844543,-0.0013376176357269287,0.05618186295032501,0.5274210572242737,-2.6590356826782227,0.24131806194782257,0.3222530484199524,-0.9640260934829712
0.025515791028738022,-0.0533989779651165,0.005230872891843319,-0.10231304168701172,-0.08884502947330475,-0.9907768368721008,0.0,0.0,-0.0,-0.2603122293949127,0.20132765173912048,-0.09574156254529953,0.2811126708984375,0.022893965244293213,0.028234124183654785,-0.1064600944519043,-0.05834239721298218,-0.6467893123626709,-0.3083629608154297,-0.365658164024353,-0.5598418712615967,-0.008970007300376892,-0.0002500981208868325,0.0031768314074724913,0.0023789217229932547,-0.038694776594638824,0.004102892708033323,-0.003604050725698471,-0.001339921378530562,0.011785008013248444,0.029347354546189308,0.032882269471883774,0.0281461663544178,-0.9176862239837646,1.0363916158676147,-0.9527994394302368,0.9873475432395935,0.1252654492855072,0.07142645120620728,0.09763868153095245,0.5464382171630859,-2.6038496494293213,0.21319381892681122,0.2417541742324829,-0.6565892696380615
0.015493744052946568,-0.034303080290555954,0.004248698707669973,-0.10568942129611969,-0.09035228937864304,-0.9902862310409546,0.0,0.0,-0.0,-0.26226744055747986,0.20150598883628845,-0.093885138630867,0.2821577787399292,0.006064176559448242,0.0249902606010437,-0.10810929536819458,-0.056655049324035645,-0.6244492530822754,-0.29101407527923584,-0.3528869152069092,-0.5512924194335938,-0.0086256368085742,0.0009543344494886696,0.003941183444112539,0.00203338754363358,-0.033617496490478516,-0.0011788582196459174,-0.00894948560744524,-0.00462109362706542,0.04522426053881645,0.0309542715549469,0.03798504173755646,0.03135204315185547,-0.9182763695716858,0.8563157916069031,-0.9632662534713745,1.1093510389328003,0.06060583144426346,0.12432338297367096,0.12769998610019684,0.527504026889801,-2.484339952468872,0.21698065102100372,0.15537142753601074,-0.431758314371109
0.011956635862588882,-0.017829695716500282,0.005520123057067394,-0.10766769200563431,-0.09144626557826996,-0.9899725317955017,0.0,0.0,-0.0,-0.26372435688972473,0.20167678594589233,-0.09217564016580582,0.28287822008132935,-0.008457958698272705,0.021818459033966064,-0.1109582781791687,-0.0564541220664978,-0.5914318561553955,-0.2756849527359009,-0.3395272493362427,-0.5414993762969971,-0.007292213384062052,0.0008743453654460609,0.003656629240140319,0.0011250049574300647,-0.027213934808969498,-0.0031994536984711885,-0.012182390317320824,-0.0062492708675563335,0.06309130042791367,0.027171282097697258,0.03979441151022911,0.03187694773077965,-0.9125173687934875,0.7324959635734558,-0.9629240036010742,1.1831122636795044,0.002240993082523346,0.14318051934242249,0.12591297924518585,0.48946958780288696,-2.338799476623535,0.22475461661815643,0.07508575916290283,-0.3498475253582001
0.007988420315086842,-0.006529439706355333,0.00791178923100233,-0.10861321538686752,-0.09225558489561081,-0.9897940158843994,0.0,0.0,-0.0,-0.26564502716064453,0.20158988237380981,-0.09073192626237869,0.28331929445266724,-0.019240617752075195,0.019258201122283936,-0.11416059732437134,-0.05676943063735962,-0.5570504665374756,-0.26270878314971924,-0.3267488479614258,-0.531724214553833,-0.008165936917066574,0.00029272102983668447,0.002945320215076208,0.0005365566466934979,-0.018273768946528435,0.0003040861338376999,-0.012308483943343163,-0.006272653583437204,0.0635916069149971,0.020033884793519974,0.03730987757444382,0.03043471835553646,-0.9205552339553833,0.6865254044532776,-0.948896050453186,1.2086511850357056,-0.039021097123622894,0.11727544665336609,0.09941120445728302,0.45504066348075867,-2.202388286590576,0.2535744309425354,0.037617895752191544,-0.36000868678092957
0.00017724581994116306,0.0005536012467928231,0.01089703943580389,-0.10890170931816101,-0.09255041182041168,-0.9897348284721375,0.0,0.0,-0.0,-0.26924821734428406,0.20137380063533783,-0.08928330987691879,0.28382766246795654,-0.025403380393981934,0.017585694789886475,-0.11703789234161377,-0.05692797899246216,-0.5276334285736084,-0.25209522247314453,-0.31541907787323,-0.5227198600769043,-0.01179198082536459,0.0002775169850792736,0.003402917180210352,0.0011893546907231212,-0.008289077319204807,0.0035414565354585648,-0.010918895713984966,-0.0056868018582463264,0.05350315570831299,0.012945356778800488,0.03280011937022209,0.028200948610901833,-0.9425070881843567,0.6911413669586182,-0.9350358247756958,1.2055648565292358,-0.06016578525304794,0.06270217895507812,0.06835968792438507,0.4356853663921356,-2.0949580669403076,0.30592191219329834,0.053175557404756546,-0.39567074179649353
-0.007881628349423409,0.00536696519702673,0.013797858729958534,-0.10877036303281784,-0.09218983352184296,-0.9897832870483398,0.0,0.0,-0.0,-0.27498507499694824,0.20122578740119934,-0.08760209381580353,0.28463974595069885,-0.027230143547058105,0.016682088375091553,-0.11943960189819336,-0.05683988332748413,-0.5054540634155273,-0.24337565898895264,-0.3056950569152832,-0.5145907402038574,-0.01597580686211586,0.0002829805016517639,0.004032928962260485,0.002006401075050235,0.0002790341095533222,0.006649548653513193,-0.009414385072886944,-0.005370560102164745,0.0401514433324337,0.0067005339078605175,0.028345514088869095,0.02643813006579876,-0.9687721729278564,0.717301607131958,-0.929500937461853,1.1887630224227905,-0.06408139318227768,0.006728708744049072,0.0463072806596756,0.4298036992549896,-2.020430564880371,0.3697513937950134,0.11004164814949036,-0.4291769564151764
-0.01383801270276308,0.008860326372087002,0.016403812915086746,-0.10834401100873947,-0.09125012159347534,-0.9899166822433472,0.0,0.0,-0.0,-0.2822851538658142,0.2011253535747528,-0.08572021126747131,0.28571265935897827,-0.025782465934753418,0.016358554363250732,-0.12145507335662842,-0.05654430389404297,-0.4904148578643799,-0.23611128330230713,-0.29736292362213135,-0.5072083473205566,-0.0183706097304821,6.131418194854632e-05,0.004406950902193785,0.0025653087068349123,0.00617808336392045,0.009196040220558643,-0.00831974670290947,-0.005438275169581175,0.027268061414361,0.0017475649947300553,0.024831807240843773,0.02531965635716915,-0.99468994140625,0.7524495720863342,-0.928226113319397,1.1679524183273315,-0.05613365024328232,-0.03741981089115143,0.03455449640750885,0.4325167238712311,-1.9748144149780273,0.4305633306503296,0.1921536922454834,-0.46378567814826965
-0.017476793378591537,0.01102184783667326,0.01853870414197445,-0.10772207379341125,-0.08987686038017273,-0.9901105761528015,0.0,0.0,-0.0,-0.2900793254375458,0.20101597905158997,-0.08364932239055634,0.2870263159275055,-0.022323012351989746,0.016471803188323975,-0.1231532096862793,-0.05605316162109375,-0.4816931486129761,-0.2299422025680542,-0.29014503955841064,-0.5004689693450928,-0.018308861181139946,-0.0002949666231870651,0.004393355455249548,0.0028174754697829485,0.009246042929589748,0.01130802370607853,-0.007371758576482534,-0.005538037978112698,0.015818802639842033,-0.0020765408407896757,0.02196875400841236,0.024536654353141785,-1.0201548337936401,0.792098343372345,-0.925452470779419,1.1469203233718872,-0.04219987243413925,-0.06813950836658478,0.02935577929019928,0.43680664896965027,-1.9530009031295776,0.4804256558418274,0.2774905562400818,-0.5019147396087646
-0.019416451454162598,0.01169712282717228,0.020214209333062172,-0.10701635479927063,-0.08822403103113174,-0.9903354644775391,0.0,0.0,-0.0,-0.29748082160949707,0.20089185237884521,-0.08151259273290634,0.28847402334213257,-0.0179937481880188,0.016945362091064453,-0.12455594539642334,-0.055337488651275635,-0.47813665866851807,-0.22460591793060303,-0.2838491201400757,-0.494351863861084,-0.01660279743373394,-0.0006464317557401955,0.004456350114196539,0.0031729124020785093,0.00997861661016941,0.01313700433820486,-0.0065134852193295956,-0.005175495520234108,0.006436488125473261,-0.004987073130905628,0.019464008510112762,0.023243246600031853,-1.0456992387771606,0.8312505483627319,-0.9183428287506104,1.1284137964248657,-0.02612747997045517,-0.08866867423057556,0.026685073971748352,0.4392511248588562,-1.9489920139312744,0.5193094611167908,0.3521411716938019,-0.5392640829086304
-0.01997304894030094,0.011376182548701763,0.021474018692970276,-0.10632006824016571,-0.08640401065349579,-0.9905704259872437,0.0,0.0,-0.0,-0.3039928078651428,0.20075026154518127,-0.07929100096225739,0.2900844216346741,-0.013683497905731201,0.017822086811065674,-0.12547552585601807,-0.05425542593002319,-0.478448748588562,-0.2199394702911377,-0.2785242795944214,-0.4889092445373535,-0.014242802746593952,-0.0009666845435276628,0.004347383510321379,0.0033671953715384007,0.0090068643912673,0.014696279540657997,-0.005829419940710068,-0.004492954816669226,-0.0005861349636688828,-0.007247676141560078,0.01813199743628502,0.021832896396517754,-1.070090413093567,0.865561842918396,-0.9073235988616943,1.1136819124221802,-0.010600648820400238,-0.10150313377380371,0.024344876408576965,0.4394620954990387,-1.957258701324463,0.5489047169685364,0.4111940562725067,-0.570885181427002
-0.021127209067344666,0.010023280046880245,0.022434182465076447,-0.10569407790899277,-0.08450585603713989,-0.9908013939857483,0.0,0.0,-0.0,-0.30945178866386414,0.2005556970834732,-0.07702779769897461,0.2918062210083008,-0.01001054048538208,0.0190618634223938,-0.1260051727294922,-0.05273473262786865,-0.48134922981262207,-0.21582460403442383,-0.27392005920410156,-0.48417842388153076,-0.01149838324636221,-0.0009948939550668001,0.005363124888390303,0.003994301427155733,0.007053818553686142,0.016073983162641525,-0.0027844069991260767,-0.0034112315624952316,-0.005322619806975126,-0.008948774076998234,0.014228698797523975,0.02001975104212761,-1.0918911695480347,0.8924615979194641,-0.893996000289917,1.1030296087265015,0.0023202672600746155,-0.1094549298286438,0.021419599652290344,0.43814095854759216,-1.9730236530303955,0.5720018744468689,0.4535498321056366,-0.5958447456359863
-0.02018769644200802,0.00901037734001875,0.02318386547267437,-0.10516128689050674,-0.0826040655374527,-0.991018533706665,0.0,0.0,-0.0,-0.313894659280777,0.20031563937664032,-0.07477610558271408,0.29361602663993835,-0.007312953472137451,0.020637929439544678,-0.12611812353134155,-0.0507999062538147,-0.485426664352417,-0.21220004558563232,-0.2700643539428711,-0.48012983798980713,-0.009360640309751034,-0.0012361770495772362,0.004305560141801834,0.0038711249362677336,0.004647915717214346,0.017227385193109512,-0.0033640048932284117,-0.002613079035654664,-0.007362615317106247,-0.010563495568931103,0.013613606803119183,0.01871597208082676,-1.110230565071106,0.9135830998420715,-0.8805965185165405,1.0962939262390137,0.01245037466287613,-0.1147158145904541,0.018232956528663635,0.4376109540462494,-1.9904996156692505,0.5926188230514526,0.4877939820289612,-0.615512490272522
-0.020417319610714912,0.007511954754590988,0.02391665428876877,-0.1047324538230896,-0.08072904497385025,-0.9912182688713074,0.0,0.0,-0.0,-0.31751614809036255,0.20003648102283478,-0.07251683622598648,0.2954844832420349,-0.005553305149078369,0.022585034370422363,-0.12584733963012695,-0.04842650890350342,-0.4901151657104492,-0.20913755893707275,-0.2668524980545044,-0.4767482280731201,-0.0074903713539242744,-3.2511634344700724e-05,0.00454407325014472,0.004376222845166922,0.002522464143112302,0.0131585244089365,-0.0023820828646421432,-0.001561993733048439,-0.008478160947561264,-0.008479065261781216,0.01200758758932352,0.01699921302497387,-1.1253424882888794,0.9274972081184387,-0.8672000169754028,1.0920413732528687,0.019022323191165924,-0.11641314625740051,0.017318621277809143,0.43679776787757874,-2.0097429752349854,0.610968291759491,0.5120466351509094,-0.6295775175094604
-0.01994147337973118,0.007020687684416771,0.024520356208086014,-0.10438242554664612,-0.07893014699220657,-0.9914001822471619,0.0,0.0,-0.0,-0.3202526569366455,0.1996784508228302,-0.0702800303697586,0.2974112927913666,-0.004811108112335205,0.024677574634552002,-0.12530314922332764,-0.04566997289657593,-0.4941108226776123,-0.20623338222503662,-0.2641369104385376,-0.4740438461303711,-0.005260610952973366,-0.0012326681753620505,0.0054518962278962135,0.004699387587606907,0.0003927053476218134,0.0176205113530159,-0.00012789406173396856,-0.0016151709714904428,-0.0071721151471138,-0.011109558865427971,0.009336328133940697,0.016906704753637314,-1.1356234550476074,0.9364350438117981,-0.8553774356842041,1.0910454988479614,0.021946735680103302,-0.10949772596359253,0.01759214699268341,0.43642276525497437,-2.023667335510254,0.6259147524833679,0.5310667157173157,-0.6362597942352295
-0.01669066771864891,0.005931336432695389,0.024954143911600113,-0.10408887267112732,-0.07723341882228851,-0.9915648102760315,0.0,0.0,-0.0,-0.32244646549224854,0.19924099743366241,-0.06810176372528076,0.29931503534317017,-0.00451970100402832,0.02707141637802124,-0.1245298981666565,-0.04278284311294556,-0.4976857900619507,-0.20381808280944824,-0.26187169551849365,-0.47155117988586426,-0.004770598839968443,-0.001817104290239513,0.0037959017790853977,0.0034094068687409163,-7.4849980592262e-05,0.01849544048309326,-0.0011666540522128344,0.004307860042899847,-0.006381283048540354,-0.012282874435186386,0.00977664440870285,0.011688838712871075,-1.1447644233703613,0.9464647173881531,-0.8452491164207458,1.0910580158233643,0.02510467916727066,-0.11132937669754028,0.0187389999628067,0.44020581245422363,-2.0366742610931396,0.6437896490097046,0.5519854426383972,-0.647590160369873
-0.015528343617916107,0.005286313593387604,0.025705255568027496,-0.10386642813682556,-0.07560834288597107,-0.9917137026786804,0.0,0.0,-0.0,-0.32444360852241516,0.1987036168575287,-0.06595661491155624,0.30130118131637573,-0.00457233190536499,0.029639720916748047,-0.12354958057403564,-0.03950983285903931,-0.501079797744751,-0.2016294002532959,-0.2599616050720215,-0.46970462799072266,-0.004719960503280163,-0.002023326465860009,0.0037144471425563097,0.004230430815368891,-0.0010878905886784196,0.018619919195771217,-0.0012585204094648361,0.00050565623678267,-0.006154038477689028,-0.01248535793274641,0.009972572326660156,0.013556452468037605,-1.154395580291748,0.9499965310096741,-0.8363739252090454,1.0925869941711426,0.023111678659915924,-0.11043509840965271,0.021808162331581116,0.4405713379383087,-2.0501253604888916,0.6651749610900879,0.5623378157615662,-0.6550923585891724
-0.015178442932665348,0.004977114498615265,0.025884443894028664,-0.10369250178337097,-0.07402701675891876,-0.9918504953384399,0.0,0.0,-0.0,-0.3260718584060669,0.19814994931221008,-0.06382176280021667,0.3032810688018799,-0.004881680011749268,0.03229743242263794,-0.12245738506317139,-0.03609412908554077,-0.5041661262512207,-0.19959628582000732,-0.25826382637023926,-0.4681340456008911,-0.0035474428441375494,-0.002226046985015273,0.0037687611766159534,0.004297969397157431,-0.0013783919857814908,0.020205458626151085,-0.0005906947189942002,0.001018669456243515,-0.005686996970325708,-0.014754495583474636,0.008730686269700527,0.012840320356190205,-1.1587424278259277,0.954289436340332,-0.8283337354660034,1.0931122303009033,0.023450680077075958,-0.10929912328720093,0.022737517952919006,0.44280022382736206,-2.061753988265991,0.6766358613967896,0.5707013010978699,-0.6642204523086548
-0.01446462981402874,0.004449021071195602,0.026356931775808334,-0.10355079919099808,-0.07253988832235336,-0.9919751286506653,0.0,0.0,-0.0,-0.32738760113716125,0.19748711585998535,-0.06176808476448059,0.30520927906036377,-0.0052520036697387695,0.035122454166412354,-0.12130093574523926,-0.032648563385009766,-0.5068051815032959,-0.19788622856140137,-0.25676190853118896,-0.4666459560394287,-0.0029013853054493666,-0.001215629861690104,0.0037243589758872986,0.004370028153061867,-0.0013562979875132442,0.01550053060054779,-0.0009120303438976407,0.001195832621306181,-0.004751111846417189,-0.012092973105609417,0.008977385237812996,0.012143287807703018,-1.164189100265503,0.9566904902458191,-0.8195788264274597,1.096218228340149,0.022686667740345,-0.1075274646282196,0.02353234589099884,0.4461713135242462,-2.0713019371032715,0.6908342242240906,0.5800952315330505,-0.6780283451080322
-0.013552243821322918,0.004716622177511454,0.026692667976021767,-0.103426992893219,-0.07117931544780731,-0.992087185382843,0.0,0.0,-0.0,-0.3282985985279083,0.1966979205608368,-0.05980225279927254,0.3070651590824127,-0.005682051181793213,0.03791403770446777,-0.12008845806121826,-0.02899158000946045,-0.5087435245513916,-0.19611382484436035,-0.25540435314178467,-0.4655802249908447,-0.001554785412736237,-0.002446480095386505,0.003443202469497919,0.004308667033910751,-0.0014161582803353667,0.019303660839796066,-0.00044760742457583547,0.0005181675660423934,-0.003561886493116617,-0.013916549272835255,0.007907222025096416,0.012827460654079914,-1.1665616035461426,0.9575481414794922,-0.8111507892608643,1.0992491245269775,0.021046049892902374,-0.09598124027252197,0.0263797789812088,0.4476492404937744,-2.077850580215454,0.7006361484527588,0.5860140919685364,-0.6881872415542603
-0.009620551951229572,0.003914147615432739,0.027103567495942116,-0.10332299768924713,-0.0699460506439209,-0.9921853542327881,0.0,0.0,-0.0,-0.3289821147918701,0.19578801095485687,-0.05794217064976692,0.30887728929519653,-0.005865871906280518,0.04084646701812744,-0.11887359619140625,-0.02539116144180298,-0.5105078220367432,-0.1946420669555664,-0.2541995048522949,-0.46447861194610596,-0.0017732316628098488,-0.003235867014154792,0.0026944794226437807,0.00286660622805357,-0.0005706021911464632,0.01972598396241665,-0.0007287945481948555,0.005877829622477293,-0.00318726128898561,-0.014481598511338234,0.008202352561056614,0.008302479982376099,-1.169599175453186,0.9616473317146301,-0.8035504221916199,1.1021056175231934,0.021553613245487213,-0.09290945529937744,0.02955169975757599,0.45192083716392517,-2.0845470428466797,0.712502121925354,0.5977648496627808,-0.7058290243148804
-0.010056345723569393,0.003402373753488064,0.027660921216011047,-0.10325603187084198,-0.06880604475736618,-0.9922723174095154,0.0,0.0,-0.0,-0.329679399728775,0.19473379850387573,-0.056156840175390244,0.3106346130371094,-0.005926847457885742,0.04385179281234741,-0.11761575937271118,-0.021578967571258545,-0.5124504566192627,-0.1932603120803833,-0.2531142234802246,-0.46379363536834717,-0.001662510447204113,-0.0031618818175047636,0.0028553311713039875,0.003932639490813017,-0.0005851613241247833,0.019546765834093094,-0.0002715679001994431,0.0020317367743700743,-0.00365276332013309,-0.01422202493995428,0.007327215280383825,0.010369489900767803,-1.174309492111206,0.9635440707206726,-0.7977264523506165,1.104841709136963,0.019327916204929352,-0.08993732929229736,0.03353793919086456,0.45296111702919006,-2.0930066108703613,0.7295159101486206,0.6014081835746765,-0.7188060283660889
-0.009488295763731003,0.003260669531300664,0.02794349566102028,-0.1032203733921051,-0.06771055608987808,-0.9923515319824219,0.0,0.0,-0.0,-0.3301882743835449,0.19364525377750397,-0.05438770353794098,0.31239309906959534,-0.00595545768737793,0.04682779312133789,-0.11636680364608765,-0.017764627933502197,-0.514401912689209,-0.19190669059753418,-0.2521047592163086,-0.46316540241241455,-0.0009432148071937263,-0.003527784487232566,0.003920769784599543,0.004153987858444452,-0.0004107244894839823,0.020746367052197456,0.0010362472385168076,0.0023413177113980055,-0.0037201971281319857,-0.015925223007798195,0.006115735974162817,0.009585312567651272,-1.1746646165847778,0.966465175151825,-0.792296290397644,1.106103539466858,0.020331688225269318,-0.08579185605049133,0.03519798815250397,0.4561368525028229,-2.1007628440856934,0.7372772097587585,0.609216034412384,-0.7359960079193115
-0.007659344933927059,0.0025474177673459053,0.028134319931268692,-0.10319764167070389,-0.0667509138584137,-0.9924187660217285,0.0,0.0,-0.0,-0.33057424426078796,0.19240731000900269,-0.05276140943169594,0.31403836607933044,-0.0058782100677490234,0.049899399280548096,-0.11512875556945801,-0.013949930667877197,-0.5163421630859375,-0.19079601764678955,-0.2511889934539795,-0.46260857582092285,-0.0007555176853202283,-0.0027322147507220507,0.002532134996727109,0.0028237910009920597,-5.915841393289156e-05,0.01619972102344036,-0.0004644195723813027,0.006256234832108021,-0.003569489810615778,-0.013472536578774452,0.006855628918856382,0.007069202605634928,-1.1761778593063354,0.9699971675872803,-0.7864810228347778,1.1081066131591797,0.02113119512796402,-0.08275973796844482,0.03632761538028717,0.45951661467552185,-2.1085100173950195,0.749647855758667,0.6186217665672302,-0.75766921043396
-0.005769833922386169,0.0026812469586730003,0.028681732714176178,-0.10320217907428741,-0.06591163575649261,-0.9924744367599487,0.0,0.0,-0.0,-0.3308162987232208,0.19102787971496582,-0.05122805014252663,0.3156113922595978,-0.005834996700286865,0.05283463001251221,-0.11392521858215332,-0.010034680366516113,-0.5182085037231445,-0.18949127197265625,-0.2503422498703003,-0.4623349905014038,-0.0004625755827873945,-0.004168362356722355,0.0020500768441706896,0.0034314249642193317,-0.0003629660641308874,0.01956896297633648,-0.000723332806956023,0.0024700553622096777,-0.0035090080928057432,-0.014568415470421314,0.006855926942080259,0.008985786698758602,-1.1772948503494263,0.9689074158668518,-0.7807352542877197,1.1110866069793701,0.020054854452610016,-0.06689605116844177,0.04211790859699249,0.4613499343395233,-2.116039276123047,0.7603198885917664,0.6250823140144348,-0.7724335193634033
-0.004701799713075161,0.0027234407607465982,0.028949249535799026,-0.1032247468829155,-0.06518229097127914,-0.9925199747085571,0.0,0.0,-0.0,-0.3309263586997986,0.18954972922801971,-0.049779392778873444,0.31713059544563293,-0.005658924579620361,0.055846989154815674,-0.1127668023109436,-0.006160259246826172,-0.5204329490661621,-0.1883983612060547,-0.24955475330352783,-0.46209990978240967,6.161474448163062e-05,-0.004331648349761963,0.001862249569967389,0.003348844824358821,4.771236126543954e-05,0.019680168479681015,-0.000794476829469204,0.0025742538273334503,-0.004290999379009008,-0.01497576292604208,0.0066202133893966675,0.008519303984940052,-1.1772159337997437,0.9733293056488037,-0.7755878567695618,1.1116677522659302,0.0221235528588295,-0.06358188390731812,0.04497279226779938,0.4646558165550232,-2.1255064010620117,0.7680838108062744,0.634408712387085,-0.7938804626464844
-0.0031634343322366476,0.0017834550235420465,0.029017701745033264,-0.10327613353729248,-0.06452924013137817,-0.9925574064254761,0.0,0.0,-0.0,-0.3309677839279175,0.18799230456352234,-0.0483892485499382,0.31859248876571655,-0.0054465532302856445,0.05885577201843262,-0.1116030216217041,-0.002297341823577881,-0.522991418838501,-0.18736088275909424,-0.2488558292388916,-0.46193504333496094,-6.797241076128557e-05,-0.004601003136485815,0.0015536127611994743,0.0022351094521582127,-3.43735700880643e-05,0.01947307027876377,-0.0007603419362567365,0.006488473154604435,-0.004853331483900547,-0.014735034666955471,0.006379637401551008,0.005849826615303755,-1.1785849332809448,0.97530198097229,-0.7701796293258667,1.1115001440048218,0.021697737276554108,-0.06229756772518158,0.04599578678607941,0.46518710255622864,-2.1364247798919678,0.7811179161071777,0.637560248374939,-0.8167370557785034
-0.0015186170348897576,0.0012157224118709564,0.02950710989534855,-0.10338450223207474,-0.06397764384746552,-0.9925822615623474,0.0,0.0,-0.0,-0.33106982707977295,0.1863255798816681,-0.047098562121391296,0.32000598311424255,-0.005339622497558594,0.0618058443069458,-0.11047142744064331,0.0016516447067260742,-0.5257687568664551,-0.18628358840942383,-0.2482360601425171,-0.4620407819747925,-0.0003252091119065881,-0.005150356329977512,0.0013171558966860175,0.0029534988570958376,-0.0003772938798647374,0.0204495657235384,-0.0009392984211444855,0.0029936309438198805,-0.005293022375553846,-0.016027724370360374,0.006366956513375044,0.007539719343185425,-1.1791454553604126,0.9738539457321167,-0.7664076685905457,1.1134201288223267,0.021684564650058746,-0.05336835980415344,0.04999251663684845,0.46812883019447327,-2.1479856967926025,0.7944576740264893,0.644780695438385,-0.837557315826416
