Huisouan/isaac-rl-lab/algo_obs.csv
base_ang_vel_x,base_ang_vel_y,base_ang_vel_z,projected_gravity_x,projected_gravity_y,projected_gravity_z,velocity_command_x,velocity_command_y,velocity_command_z,joint_pos_0,joint_pos_1,joint_pos_2,joint_pos_3,joint_pos_4,joint_pos_5,joint_pos_6,joint_pos_7,joint_pos_8,joint_pos_9,joint_pos_10,joint_pos_11,joint_vel_0,joint_vel_1,joint_vel_2,joint_vel_3,joint_vel_4,joint_vel_5,joint_vel_6,joint_vel_7,joint_vel_8,joint_vel_9,joint_vel_10,joint_vel_11,action_0,action_1,action_2,action_3,action_4,action_5,action_6,action_7,action_8,action_9,action_10,action_11
0.2563474476337433,-0.19891096651554108,-0.3129580616950989,0.014184091240167618,0.004875097423791885,-0.9790735840797424,1.3727378845214844,-0.19296854734420776,-0.21958839893341064,-0.11503220349550247,0.26106420159339905,-0.10636346787214279,-0.052793100476264954,-0.8094801902770996,-0.06718676537275314,-0.5850360989570618,-0.2286318838596344,-0.04024645686149597,-0.3671438694000244,0.20038171112537384,0.6633260846138,0.0966888815164566,0.11786045879125595,-0.3212873935699463,-0.2655940651893616,0.436713308095932,0.07115401327610016,0.7728896141052246,-0.4822973906993866,0.14597125351428986,0.8199970126152039,0.7670511603355408,-0.02452864684164524,0.1173907071352005,1.6960017681121826,-1.92750084400177,-0.5282725691795349,-2.278078079223633,0.28296124935150146,0.6296539306640625,-3.058887243270874,0.10813894867897034,0.5227274894714355,3.548114061355591,2.6262621879577637
-0.20977842807769775,-0.16219571232795715,-0.09364541620016098,0.022161949425935745,0.02240467444062233,-0.9837614893913269,1.3727378845214844,-0.19296854734420776,-0.21326076984405518,-0.11853823810815811,0.31995463371276855,-0.2041940838098526,0.008338039740920067,-0.6806856393814087,-0.0005868040025234222,-0.4152902662754059,-0.35889187455177307,-0.03694070875644684,-0.059694431722164154,0.40744635462760925,0.6052616238594055,-0.07014431804418564,0.17587719857692719,-0.1642543375492096,0.1209445595741272,0.26740121841430664,0.12273714691400528,0.25699830055236816,-0.17858321964740753,-0.006715464871376753,0.7368937730789185,0.04531703144311905,0.1264137327671051,-1.4001144170761108,0.8505383133888245,-1.1216049194335938,1.7989643812179565,-3.0216257572174072,0.5309878587722778,-1.6128084659576416,-1.275922179222107,-0.261968195438385,1.377620816230774,4.799680233001709,2.4838132858276367
-0.2832391858100891,0.05424034222960472,0.023388143628835678,-0.006264131516218185,0.01645667478442192,-1.0291606187820435,1.3727378845214844,-0.19296854734420776,-0.21403181552886963,-0.13262322545051575,0.3635827600955963,-0.1758304387331009,0.14428585767745972,-0.6177847385406494,0.08190207928419113,-0.3468573987483978,-0.29603609442710876,-0.05458585172891617,0.12332794815301895,0.29961538314819336,0.31446021795272827,-0.023366529494524002,0.011059260927140713,0.026201559230685234,0.3617871403694153,0.20065879821777344,0.23017354309558868,0.09841351956129074,0.08368313312530518,0.04170086607336998,0.3563794195652008,-0.1497677117586136,-0.7350789904594421,-0.3481154441833496,1.155447006225586,-0.9350541234016418,1.3153818845748901,-2.337907075881958,0.5615927577018738,-0.7233206033706665,-1.5407339334487915,-0.3258053660392761,0.7167489528656006,6.055981636047363,0.18403613567352295
0.27963143587112427,0.04318947717547417,-0.031235679984092712,-0.017717111855745316,0.041041482239961624,-1.0228835344314575,1.3727378845214844,-0.19296854734420776,-0.21391212940216064,-0.16365331411361694,0.3689054250717163,-0.18802499771118164,0.2516142725944519,-0.5409138202667236,0.0950193852186203,-0.31368130445480347,-0.334586501121521,0.03049076907336712,0.3831220269203186,0.23903176188468933,0.24721328914165497,-0.0888577476143837,0.00581328896805644,-0.11697959899902344,0.2077304571866989,0.13704417645931244,-0.008297908119857311,0.1198144480586052,-0.05934525281190872,0.1602061539888382,0.46892139315605164,-0.06091680750250816,-0.17680086195468903,-0.4565144181251526,1.7122583389282227,-1.7015361785888672,1.471346139907837,-1.7404868602752686,0.14465829730033875,-0.08970483392477036,-1.4087128639221191,0.3693978190422058,1.878098964691162,6.663248062133789,0.8312820196151733
-0.5631362199783325,0.27477481961250305,-0.03456394001841545,-0.03624030947685242,0.055242251604795456,-0.9630570411682129,1.3727378845214844,-0.19296854734420776,-0.2118602991104126,-0.12775202095508575,0.3998332619667053,-0.16317908465862274,0.2769091725349426,-0.4680313766002655,0.1281024068593979,-0.28613966703414917,-0.32866889238357544,0.17740096151828766,0.32027000188827515,0.18620166182518005,0.19574157893657684,0.10757239162921906,0.16596899926662445,0.07431211322546005,0.1300983875989914,0.26014047861099243,-0.08274274319410324,-0.005272954702377319,-0.049804966896772385,0.3113022744655609,-0.17762818932533264,-0.06598655134439468,-0.03608948737382889,-0.454437792301178,1.427404761314392,-0.8326875567436218,2.1251232624053955,-1.327688455581665,-0.10169863700866699,0.21416272222995758,-1.1318968534469604,1.0027846097946167,0.9160582423210144,6.342097759246826,2.143303155899048
-0.1825103461742401,0.30279484391212463,-0.07826601713895798,-0.003586113452911377,0.09683580696582794,-1.0195823907852173,1.3727378845214844,-0.19296854734420776,-0.20959055423736572,-0.10603157430887222,0.41310715675354004,-0.14911407232284546,0.2919965088367462,-0.4193743169307709,0.14447934925556183,-0.27705392241477966,-0.3403204083442688,0.19056472182273865,0.027400804683566093,0.14454492926597595,0.18292079865932465,0.025375723838806152,-0.09931673854589462,-0.03616514429450035,0.003276002360507846,0.14672553539276123,-0.04608501121401787,-0.03029412031173706,-0.09055601805448532,-0.25734275579452515,-0.5294475555419922,0.011102301068603992,0.003823143197223544,-0.3527924418449402,1.0550090074539185,-1.2680540084838867,2.2729268074035645,-0.9781895279884338,0.3594561815261841,0.7414807081222534,0.018328925594687462,2.5144882202148438,-0.7253907322883606,6.068691253662109,3.619161605834961
-0.06242990866303444,-0.034712474793195724,-0.04700203984975815,-0.007500369101762772,0.0817912369966507,-0.9822894334793091,1.3727378845214844,-0.19296854734420776,-0.20733749866485596,-0.09777846187353134,0.3753770887851715,-0.14864598214626312,0.3021220266819,-0.3770065903663635,0.09896904975175858,-0.2516927421092987,-0.3134826421737671,0.11807014793157578,-0.27828189730644226,0.1196872815489769,0.1475939154624939,-0.0315735787153244,-0.11700446903705597,0.001855832408182323,0.022748786956071854,0.07409816235303879,-0.08816874027252197,0.07871656864881516,0.08024685829877853,-0.05826094374060631,-0.7730429172515869,-0.043393343687057495,0.004075586795806885,-0.9129804372787476,1.1704820394515991,-1.0284128189086914,2.658029317855835,1.3182650804519653,0.06198213994503021,0.1241142600774765,0.5865945219993591,3.244032144546509,-2.309197187423706,5.496901512145996,3.323693037033081
-0.15052485466003418,-0.09823726117610931,-0.04736575856804848,0.03929648920893669,0.047144535928964615,-1.0331097841262817,1.3727378845214844,-0.19296854734420776,-0.20494043827056885,-0.0864359587430954,0.3316217064857483,-0.1367211639881134,0.3038730025291443,-0.3208186626434326,-0.06537923961877823,-0.2145714908838272,-0.2630331516265869,0.07886132597923279,-0.5712390542030334,0.07790236920118332,0.12541669607162476,0.054199863225221634,-0.16172079741954803,0.04011359438300133,-0.05420627072453499,0.13727283477783203,-0.5169598460197449,0.15699516236782074,0.06607339531183243,0.0602995865046978,-0.5754274725914001,-0.023893648758530617,-0.04862472414970398,-0.6937469244003296,1.1148731708526611,-1.2037947177886963,2.570828676223755,1.924074411392212,-1.0603963136672974,-0.4991004467010498,0.5441934466362,2.859405517578125,-3.2710766792297363,4.75220251083374,3.135403871536255
-0.07035142928361893,-0.22971586883068085,-0.1396310031414032,-0.012682769447565079,0.04477633163332939,-1.0329993963241577,1.3727378845214844,-0.19296854734420776,-0.20170938968658447,-0.06983073055744171,0.28371480107307434,-0.14068716764450073,0.3176151216030121,-0.27353599667549133,-0.3515445590019226,-0.14888852834701538,-0.21012833714485168,0.07968752831220627,-0.6728644371032715,0.053526751697063446,0.10668312758207321,0.04089062288403511,-0.013998538255691528,-0.011883723549544811,-0.027944499626755714,0.12152160704135895,-0.7121191620826721,0.13665223121643066,0.1715918779373169,0.09710188210010529,-0.282479852437973,-0.01617642678320408,-0.08409418910741806,-0.47342807054519653,0.8926067352294922,-1.3449580669403076,2.5240368843078613,1.7835437059402466,-2.083622455596924,-0.37288111448287964,0.460099458694458,2.9767634868621826,-3.259178638458252,4.525854587554932,2.8105337619781494
-0.19197145104408264,-0.1763189285993576,-0.02034802734851837,-0.010099738836288452,0.14044089615345,-1.0329724550247192,1.3727378845214844,-0.19296854734420776,-0.19967234134674072,-0.05127519369125366,0.26812976598739624,-0.12373223155736923,0.3158787786960602,-0.19669057428836823,-0.6352930068969727,-0.08464287966489792,-0.1604069322347641,0.06393634527921677,-0.7021113634109497,0.042273879051208496,0.08105437457561493,-0.009069383144378662,-0.1025208830833435,-0.03643686696887016,0.021197831258177757,0.1766606569290161,-0.6582435965538025,0.17790928483009338,0.057670917361974716,0.10859964042901993,-0.03464179113507271,0.020824909210205078,0.0626404881477356,-0.7025132775306702,0.6190406680107117,-0.9180004000663757,2.9557301998138428,1.8292728662490845,-2.7339577674865723,-0.5732041597366333,0.5183700919151306,2.2145166397094727,-3.0178487300872803,4.333538055419922,2.2978572845458984
0.08316661417484283,-0.32377246022224426,-0.04216284677386284,-0.05464761704206467,0.10300566256046295,-1.0212045907974243,1.3727378845214844,-0.19296854734420776,-0.1980668306350708,-0.05930173397064209,0.24861426651477814,-0.12469574064016342,0.3154524862766266,-0.14274460077285767,-0.8213465809822083,-0.013678649440407753,-0.08174882084131241,0.09868019074201584,-0.6976754665374756,0.04008817672729492,0.07112114876508713,-0.060560327023267746,-0.011978954076766968,-0.08710896968841553,-0.05346543714404106,0.08415549248456955,-0.3692118525505066,0.26033392548561096,0.12335094064474106,0.1732712835073471,-0.0006815910455770791,0.0030802965629845858,-0.03667888045310974,-0.006648324429988861,0.9737765192985535,-1.5914145708084106,2.4416847229003906,1.6502556800842285,-3.2769200801849365,-0.3810449242591858,0.33185914158821106,2.62471604347229,-2.832972526550293,4.476193904876709,1.4706252813339233
0.031923871487379074,-0.28704699873924255,-0.10596194863319397,-0.07243408262729645,0.10280698537826538,-1.021173119544983,1.3727378845214844,-0.19296854734420776,-0.19569838047027588,-0.058744899928569794,0.2585778832435608,-0.14640235900878906,0.3304292857646942,-0.10302497446537018,-0.909633994102478,0.0729387104511261,-0.007208568975329399,0.13167816400527954,-0.6676093935966492,0.03726489096879959,0.0589175671339035,-0.07035954296588898,0.027103101834654808,-0.057191021740436554,-0.05043172836303711,0.0487123504281044,-0.06652165949344635,0.16263125836849213,0.1143125668168068,0.08925199508666992,0.11984572559595108,-0.032293450087308884,-0.025322502478957176,0.3236052393913269,0.8750155568122864,-1.6395671367645264,2.3588364124298096,1.581718921661377,-3.3396732807159424,-0.22242213785648346,0.26357927918434143,2.2962114810943604,-2.6055896282196045,4.1967315673828125,1.1733914613723755
-0.03150342404842377,-0.1943192332983017,-0.029823321849107742,-0.03045252338051796,0.05442273989319801,-0.9628189206123352,1.3727378845214844,-0.19296854734420776,-0.19413626194000244,-0.042288877069950104,0.24309788644313812,-0.13028717041015625,0.3259691596031189,-0.04705120623111725,-0.8789892196655273,0.1410187929868698,0.06285620480775833,0.18812112510204315,-0.6309317350387573,0.056315116584300995,0.07022165507078171,0.04078182205557823,-0.08329743891954422,0.00973318237811327,0.05588367208838463,0.12343928962945938,0.0645345076918602,0.15116138756275177,0.13974504172801971,0.12558797001838684,0.12914803624153137,0.058207061141729355,0.03557782247662544,-0.012180157005786896,0.8474099636077881,-1.266746997833252,2.5150630474090576,1.375165343284607,-3.1825265884399414,-0.18435610830783844,0.6107412576675415,2.260382890701294,-2.4297897815704346,3.885180711746216,1.1160415410995483
-0.030316345393657684,-0.09308281540870667,-0.04386312514543533,-0.08455486595630646,0.08497966825962067,-0.9609225392341614,1.3727378845214844,-0.19296854734420776,-0.19270479679107666,-0.02770126797258854,0.26899218559265137,-0.13414204120635986,0.35023602843284607,0.00036673247814178467,-0.8388593792915344,0.16431768238544464,0.10245015472173691,0.24209393560886383,-0.5376383662223816,0.11548138409852982,0.1147339716553688,0.06418054550886154,-0.032200153917074203,-0.014197349548339844,-0.014648104086518288,0.13035725057125092,0.18159423768520355,0.07915613800287247,0.13808421790599823,0.1531134396791458,0.22815027832984924,0.11183685064315796,0.0965581163764,-0.15448987483978271,1.1175341606140137,-1.0899380445480347,2.160964250564575,0.683559775352478,-3.2032580375671387,0.16897739470005035,0.3687397539615631,3.3262343406677246,-1.9452704191207886,2.97088360786438,1.6336290836334229
0.011104676872491837,-0.013445455580949783,-0.05475235730409622,-0.06961823999881744,0.06982697546482086,-0.9995290040969849,1.3727378845214844,-0.19296854734420776,-0.19137251377105713,-0.02664172649383545,0.29190459847450256,-0.11821931600570679,0.3448384404182434,0.02014932595193386,-0.7909548878669739,0.19086818397045135,0.13779018819332123,0.3022478520870209,-0.4634910225868225,0.18663768470287323,0.19375984370708466,0.06355076283216476,0.02149347774684429,0.05017217621207237,-0.037813495844602585,0.09880168735980988,0.05122877284884453,-0.03440984711050987,0.0836014375090599,0.11785870790481567,0.09826848655939102,0.2838912308216095,0.17280875146389008,-0.44137752056121826,1.2708005905151367,-0.8188982605934143,2.1176536083221436,0.4279295802116394,-3.075934886932373,-0.05772531032562256,0.28767091035842896,3.9349188804626465,-1.8114949464797974,1.0043344497680664,1.612596869468689
0.14109399914741516,0.13822895288467407,0.05794050917029381,-0.07545214891433716,0.07243339717388153,-1.0179811716079712,1.3727378845214844,-0.19296854734420776,-0.19089090824127197,-0.02799229696393013,0.31720784306526184,-0.1632314920425415,0.33894112706184387,0.04698329418897629,-0.745145857334137,0.21002428233623505,0.13303445279598236,0.34811198711395264,-0.3803897798061371,-0.12112230807542801,0.27559006214141846,0.03958181291818619,-0.0500306598842144,-0.07473147660493851,0.04633519798517227,-0.016128182411193848,0.11293473094701767,-0.11658897250890732,-0.10992515087127686,0.1324446052312851,0.2281671017408371,-0.8397655487060547,0.21077466011047363,-0.68462735414505,1.128668189048767,-0.661896288394928,1.9043575525283813,-0.08969254046678543,-2.81868314743042,0.03891308605670929,-0.6286512613296509,4.172674179077148,-1.339805245399475,-2.2516543865203857,1.7351938486099243
0.05629144236445427,0.28624168038368225,0.0108848437666893,-0.11342059075832367,0.0901038646697998,-0.993820309638977,1.3727378845214844,-0.19296854734420776,-0.18960058689117432,-0.004348002374172211,0.3540171682834625,-0.21002259850502014,0.33873116970062256,0.05652567744255066,-0.6872795820236206,0.05894755572080612,0.08562545478343964,0.40601539611816406,-0.18565498292446136,-0.4318844974040985,0.40451404452323914,-0.040373545140028,0.17850112915039062,-0.1124216839671135,-0.07450421899557114,0.07035048305988312,0.13208089768886566,-0.5183999538421631,-0.13195697963237762,0.144346222281456,0.3499354422092438,-0.6863884925842285,0.4124314486980438,-0.16055329144001007,1.6931620836257935,-0.9963745474815369,1.1844961643218994,0.43798351287841797,-2.15586256980896,-0.802903413772583,-0.7226959466934204,4.474644660949707,-0.3264528512954712,-2.997760772705078,2.3586721420288086
0.2348913997411728,0.16809949278831482,-0.054943326860666275,-0.04046276956796646,0.10790525376796722,-1.0126804113388062,1.3727378845214844,-0.19296854734420776,-0.186989426612854,-0.025730513036251068,0.4058372974395752,-0.20757944881916046,0.32618728280067444,0.05462762713432312,-0.504282534122467,-0.30065256357192993,0.027680547907948494,0.4535229206085205,-0.04237782210111618,-0.29168543219566345,0.5440431237220764,-0.0021982192993164062,0.12094080448150635,-0.11186599731445312,-0.02126712165772915,0.023586958646774292,0.5368591547012329,-0.8122869729995728,-0.1781604140996933,0.11812242120504379,0.2644875943660736,0.32146787643432617,0.29999953508377075,-0.33260077238082886,1.841182827949524,-0.626065194606781,1.0679258108139038,0.03399963676929474,-0.8818820118904114,-1.7039862871170044,-1.4360183477401733,3.9932518005371094,0.1732623428106308,-1.0199940204620361,2.0114970207214355
0.35832279920578003,0.12062229216098785,-0.027940507978200912,-0.007124815136194229,0.08869202435016632,-1.0401644706726074,1.3727378845214844,-0.19296854734420776,-0.183968186378479,-0.06616239249706268,0.4506107270717621,-0.2064105123281479,0.3052349388599396,0.09998273104429245,-0.2593437433242798,-0.4999774098396301,-0.01537297572940588,0.3263155221939087,0.11537840217351913,0.025027452036738396,0.62656569480896,-0.1883699744939804,0.06975384056568146,-0.08047571033239365,-0.07081510871648788,-0.031081920489668846,0.720166802406311,-0.2128310203552246,-0.015491927042603493,-0.17300131916999817,0.36296865344047546,0.8503171801567078,0.09201829880475998,-0.6065002679824829,1.5224019289016724,-0.7161620855331421,1.3616050481796265,-0.05396318808197975,-0.009198501706123352,-0.8535947799682617,-1.4927135705947876,0.8701905012130737,0.7259697318077087,1.6458231210708618,2.093625783920288
-0.02729979157447815,0.08524911105632782,-0.043383706361055374,-0.01731383055448532,0.08078053593635559,-0.9763010740280151,1.3727378845214844,-0.19296854734420776,-0.18158447742462158,-0.12458564341068268,0.4647560119628906,-0.22734013199806213,0.3527224659919739,0.09346253424882889,-0.15434172749519348,-0.4707818329334259,0.047590553760528564,0.0014476543292403221,0.20119550824165344,0.15591487288475037,0.3353469669818878,-0.051082875579595566,0.02425919845700264,-0.018010223284363747,0.14648976922035217,-0.13066062331199646,0.2007586807012558,0.25221553444862366,0.06395798176527023,-0.8047624826431274,-0.08159027248620987,-0.12814655900001526,-0.647445023059845,-0.7110894918441772,1.4432785511016846,-0.671813428401947,1.5761055946350098,-0.6734105944633484,-1.5408554077148438,-0.507015585899353,-0.1931692659854889,-2.5045692920684814,2.535033702850342,3.1052074432373047,0.23154905438423157
-0.1999131590127945,0.04078442230820656,-0.04408177733421326,3.786012530326843e-05,0.09041976928710938,-1.0079405307769775,1.3727378845214844,-0.19296854734420776,-0.1804872751235962,-0.15074670314788818,0.4727828800678253,-0.19969460368156433,0.4235894978046417,-0.1257084310054779,-0.08423031121492386,-0.39851632714271545,0.07716430723667145,-0.3043118715286255,0.16148528456687927,0.09915070980787277,0.003950756974518299,-0.08322274684906006,0.015584349632263184,0.10568535327911377,0.21347247064113617,-0.7073386907577515,0.18395952880382538,0.24266688525676727,0.04918258264660835,-0.7835381627082825,0.04244401678442955,-0.14367884397506714,-0.8081879019737244,-0.4972100257873535,2.086561679840088,-0.5695329904556274,1.4863920211791992,-1.889554738998413,0.6951378583908081,-0.5097374320030212,0.4425687789916992,-3.7703192234039307,2.5531163215637207,3.7239468097686768,-1.5162910223007202
0.03683476522564888,0.043642546981573105,-0.0026022084057331085,-0.01790061965584755,0.10775135457515717,-1.0069104433059692,1.3727378845214844,-0.19296854734420776,-0.18091213703155518,-0.19814133644104004,0.49603426456451416,-0.1808614879846573,0.462992399930954,-0.4809763729572296,-0.029558660462498665,-0.33185330033302307,0.024077964946627617,-0.4726364016532898,0.1555250734090805,0.08083757013082504,-0.30170461535453796,-0.21430225670337677,0.08589841425418854,0.09076113998889923,0.03148078918457031,-0.865466296672821,0.1447545289993286,0.11475851386785507,-0.2834267318248749,-0.35590559244155884,-0.09165400266647339,-0.01812153495848179,-0.774955689907074,-0.9246934652328491,1.8017042875289917,-0.6708849668502808,1.7765977382659912,-2.8492321968078613,0.3672407269477844,-1.2909384965896606,-0.37839600443840027,-2.7369158267974854,2.9806840419769287,3.342719316482544,-2.4748518466949463
0.024133924394845963,0.01573285087943077,-0.0010279342532157898,-0.008396249264478683,0.0431068055331707,-0.9827685356140137,1.3727378845214844,-0.19296854734420776,-0.18134605884552002,-0.28601929545402527,0.4955219030380249,-0.1935170441865921,0.4573351740837097,-0.7930150032043457,0.04066313058137894,-0.2812347114086151,-0.196499302983284,-0.3789854943752289,0.16123054921627045,0.07852208614349365,-0.5463516712188721,-0.29247766733169556,0.06169719621539116,0.021185224875807762,-0.0536733977496624,-0.5228172540664673,0.13177943229675293,0.10797972977161407,-0.5727596282958984,0.19893066585063934,-0.027506664395332336,0.043522417545318604,-0.3708116114139557,-1.0740036964416504,1.7422548532485962,-0.7578564882278442,1.5979607105255127,-3.0492448806762695,0.8612067699432373,-0.8287421464920044,-1.5601806640625,-1.3738253116607666,3.1873221397399902,3.36065673828125,-2.9607229232788086
0.1290072351694107,-0.09111961722373962,-0.02804240956902504,0.018820997327566147,0.009689752012491226,-1.0167750120162964,1.3727378845214844,-0.19296854734420776,-0.18099558353424072,-0.35873958468437195,0.5008777379989624,-0.20223593711853027,0.4071474075317383,-0.9582967162132263,0.09655693918466568,-0.1964631825685501,-0.5374259352684021,-0.1318627893924713,0.17099495232105255,0.08280671387910843,-0.5885149836540222,-0.15333370864391327,-0.03728878125548363,-0.009288347326219082,-0.11769115924835205,-0.2691347002983093,0.10332339257001877,0.15104404091835022,-0.7597190737724304,0.4118828773498535,0.11523037403821945,0.004439914133399725,-0.03368621692061424,-1.192527174949646,1.4968594312667847,-0.7694878578186035,1.5116750001907349,-3.3075664043426514,0.712751030921936,-0.6774646043777466,-2.8843512535095215,0.04667310416698456,3.3329226970672607,3.3666224479675293,-2.6669795513153076
0.07968394458293915,-0.08831597119569778,-0.05063802748918533,-0.02667188085615635,0.048752229660749435,-1.0420033931732178,1.3727378845214844,-0.19296854734420776,-0.18032658100128174,-0.38965970277786255,0.5073870420455933,-0.19027438759803772,0.4086926281452179,-0.9576666355133057,0.12935900688171387,-0.12948574125766754,-0.842385470867157,0.05691399425268173,0.2142728865146637,0.08989224582910538,-0.44980889558792114,-0.07494347542524338,0.026535356417298317,-0.012075823731720448,0.07112862914800644,0.04270879179239273,0.07406597584486008,0.21026478707790375,-0.6513150930404663,0.3685669004917145,0.0767550840973854,-0.04555172100663185,0.2920600473880768,-1.4210244417190552,1.9093337059020996,-0.8798385858535767,1.4618829488754272,-3.2070248126983643,-0.49636852741241455,-0.9419386982917786,-3.6242268085479736,0.6678526997566223,2.9984793663024902,3.1338915824890137,-1.6442335844039917
-0.12004142999649048,-0.049192916601896286,0.044482629746198654,-0.009801909327507019,0.06704847514629364,-1.0095033645629883,1.3727378845214844,-0.19296854734420776,-0.18020689487457275,-0.38007715344429016,0.5190111994743347,-0.17533276975154877,0.4213806390762329,-0.8428447842597961,0.1729375422000885,-0.06645610928535461,-1.0296050310134888,0.1038917526602745,0.2698777914047241,0.09950076043605804,-0.23408320546150208,0.05701782926917076,0.04374934360384941,0.023277735337615013,0.07438039034605026,0.3640051782131195,0.11056957393884659,0.17701244354248047,-0.18694573640823364,0.03857473284006119,0.17517732083797455,-0.00705001363530755,0.38049012422561646,-1.3064218759536743,2.0202479362487793,-0.7739506959915161,1.4586700201034546,-2.7921671867370605,-0.4544922113418579,-0.9397258758544922,-3.588698625564575,0.5461474061012268,2.6348419189453125,3.0160815715789795,-0.5105162262916565
0.05090843513607979,0.02631695196032524,-0.0185341015458107,-0.023080676794052124,0.03922129049897194,-1.0302081108093262,1.3727378845214844,-0.19296854734420776,-0.17903578281402588,-0.3437793254852295,0.534661591053009,-0.15590821206569672,0.4148957431316376,-0.6514184474945068,0.20184612274169922,-0.010210327804088593,-1.0711857080459595,0.1643902063369751,0.3582932651042938,0.13366016745567322,-0.054323241114616394,0.0849166288971901,0.02104341983795166,0.022931158542633057,-0.023065274581313133,0.6208056211471558,0.12634778022766113,0.16373002529144287,0.04720486328005791,0.2098836451768875,0.2418288290500641,0.05212090164422989,0.247172549366951,-0.6118751168251038,2.066828489303589,-1.2617689371109009,1.4712165594100952,-1.4744075536727905,-0.4093824028968811,-0.5694639682769775,-3.710775136947632,0.8183757662773132,1.6292587518692017,3.1862266063690186,0.14343062043190002
0.14967693388462067,0.1540645956993103,0.005984131246805191,-0.05246179178357124,0.08902040123939514,-1.0018110275268555,1.3727378845214844,-0.19296854734420776,-0.17693865299224854,-0.2853194773197174,0.5545266270637512,-0.17113545536994934,0.3969799876213074,-0.46874260902404785,0.2772428095340729,0.0028482582420110703,-1.0191576480865479,0.1968376636505127,0.0425533801317215,0.20159754157066345,0.11630643159151077,-0.04122259095311165,-0.0422794371843338,-0.08913016319274902,-0.02175610139966011,0.34011775255203247,0.0602620504796505,-0.02443711832165718,0.2000598907470703,-0.26967960596084595,-0.8160958290100098,0.12536509335041046,0.3993695378303528,-0.32325172424316406,2.145721673965454,-0.9703801274299622,1.5658607482910156,-1.216111660003662,0.5797253847122192,-0.5500162839889526,-3.326728343963623,1.6533312797546387,-1.1832990646362305,3.1971304416656494,0.9190396070480347
0.13397058844566345,0.1490890234708786,-0.05282723531126976,0.027179207652807236,0.020853284746408463,-1.0354914665222168,1.3727378845214844,-0.19296854734420776,-0.17410719394683838,-0.2923983931541443,0.5365452766418457,-0.17800290882587433,0.3894839584827423,-0.3622351884841919,0.2526470124721527,0.010096970945596695,-0.9098406434059143,0.10208504647016525,-0.2731684148311615,0.28602832555770874,0.12966488301753998,0.02704094722867012,-0.08636303246021271,0.04731745645403862,-0.02314732037484646,0.25544577836990356,-0.22357304394245148,0.06199371814727783,0.23356924951076508,-0.15131501853466034,-0.7567200064659119,0.2913450002670288,0.050523459911346436,0.06845149397850037,1.9380109310150146,-0.9200637936592102,1.596849799156189,0.0023086220026016235,0.4451993703842163,-0.7892798781394958,-3.483145236968994,2.246213674545288,-2.4948136806488037,3.483668804168701,0.4942421615123749
0.21783728897571564,0.10203857719898224,-0.09171462804079056,-0.04197077080607414,-0.006789546459913254,-0.9574018716812134,1.3727378845214844,-0.19296854734420776,-0.17094767093658447,-0.2870878577232361,0.5018404126167297,-0.18702930212020874,0.4067103862762451,-0.260611891746521,0.051517702639102936,0.027208516374230385,-0.7607771158218384,0.04832836985588074,-0.5485366582870483,0.38447245955467224,0.16209730505943298,-0.06677214056253433,-0.15364165604114532,0.04768172651529312,0.03657884523272514,0.26192507147789,-0.6643408536911011,-0.01866610161960125,0.3183055520057678,-0.17257849872112274,-0.5100955367088318,0.20857670903205872,0.07945503294467926,-0.49278563261032104,1.8239026069641113,-0.5653149485588074,1.6077073812484741,-0.15404951572418213,-0.6495888233184814,-0.9345537424087524,-2.6022863388061523,2.3620667457580566,-3.0703930854797363,2.1293723583221436,0.6621526479721069
-0.06343336403369904,-0.012694571167230606,-0.020062163472175598,0.030271414667367935,0.04735946282744408,-0.9551692008972168,1.3727378845214844,-0.19296854734420776,-0.16885387897491455,-0.2828747630119324,0.4468885362148285,-0.15194839239120483,0.4291671812534332,-0.18120001256465912,-0.29968157410621643,0.03548198193311691,-0.6684988737106323,0.023295970633625984,-0.6461816430091858,0.20223306119441986,0.14996959269046783,-0.0013464868534356356,-0.06748965382575989,0.11157920211553574,0.037375759333372116,0.2825126647949219,-0.8828126788139343,-0.15006373822689056,0.30341121554374695,-0.01560666598379612,-0.1552600860595703,-0.3523261547088623,-0.26377981901168823,-1.0638116598129272,1.4552037715911865,-0.15719997882843018,1.7134902477264404,-0.3122960329055786,-2.0172691345214844,-0.71891850233078,-1.7813700437545776,1.940892219543457,-3.122971773147583,0.04435013234615326,2.0664944648742676
0.1879652738571167,-0.09424281120300293,-0.03255869820713997,-0.04261200502514839,0.0424015186727047,-1.0080636739730835,1.3727378845214844,-0.19296854734420776,-0.16669857501983643,-0.26781368255615234,0.41878053545951843,-0.12006577104330063,0.43493014574050903,-0.07947397977113724,-0.6219131350517273,0.0007568830624222755,-0.5636343955993652,0.00318717397749424,-0.6261612772941589,-0.1160990297794342,0.06990335881710052,-0.057705026119947433,-0.1125682145357132,-0.04360109567642212,0.0061393799260258675,0.13748322427272797,-0.7290018796920776,-0.13717536628246307,0.27688947319984436,-0.04410909488797188,-0.03262937068939209,-0.7536349892616272,-0.23255684971809387,-0.8307628631591797,1.4431706666946411,-0.4940115809440613,1.5177159309387207,-0.5896118879318237,-2.7519047260284424,-0.19733375310897827,-1.3982986211776733,1.607801079750061,-2.668771743774414,-1.7494251728057861,2.0862762928009033
0.18641871213912964,-0.14457187056541443,-0.07110126316547394,-0.0005857311189174652,0.02414057031273842,-0.9771426320075989,1.3727378845214844,-0.19296854734420776,-0.16394484043121338,-0.26254937052726746,0.39239466190338135,-0.1308574676513672,0.4251691997051239,-0.017239945009350777,-0.873468279838562,-0.11063661426305771,-0.46549710631370544,0.02785135991871357,-0.5077359676361084,-0.4127483069896698,0.009421085938811302,0.07237976789474487,-0.04877797141671181,0.009260142222046852,0.050818707793951035,0.24035429954528809,-0.502884030342102,-0.4039861857891083,0.23932431638240814,0.0547410249710083,0.2764606177806854,-0.6802747845649719,-0.20399336516857147,-0.9468119740486145,1.4530020952224731,-0.5047524571418762,1.3404537439346313,0.12296032905578613,-3.378293037414551,-0.8400148749351501,-1.1295396089553833,1.5587389469146729,-1.8488911390304565,-2.6693482398986816,2.7827811241149902
0.18807627260684967,-0.14143946766853333,-0.09561354666948318,0.017859455198049545,-0.06395426392555237,-1.0262407064437866,1.3727378845214844,-0.19296854734420776,-0.1616736650466919,-0.2644231915473938,0.39460909366607666,-0.12429947406053543,0.4266164004802704,0.043750979006290436,-0.990572988986969,-0.33447280526161194,-0.3638767898082733,0.05333711951971054,-0.2675517797470093,-0.5828681588172913,-0.028922662138938904,-0.0007074355962686241,0.05577307939529419,0.08163546770811081,0.07335954159498215,0.21914196014404297,-0.14966468513011932,-0.6329227089881897,0.24789153039455414,0.10039043426513672,0.401176780462265,-0.37191012501716614,-0.09531613439321518,-1.2195560932159424,1.464556336402893,-0.42041951417922974,1.6485214233398438,-0.04672833904623985,-3.51400089263916,-1.7981899976730347,-0.9667662978172302,1.7291423082351685,-0.5780818462371826,-2.791226863861084,3.0515053272247314
-0.03790738433599472,-0.21691744029521942,0.040766675025224686,-0.05956162512302399,-0.06183629855513573,-1.0135746002197266,1.3727378845214844,-0.19296854734420776,-0.16102230548858643,-0.2398827075958252,0.365592896938324,-0.10945537686347961,0.4400251507759094,0.09678832441568375,-0.9871234893798828,-0.6017952561378479,-0.26340198516845703,0.11246003955602646,-0.03587600961327553,-0.6050537824630737,-0.04701245576143265,0.11941702663898468,-0.10827392339706421,-0.04080422967672348,0.05004223808646202,0.05034743621945381,0.09742563217878342,-0.6307188868522644,0.3136061728000641,0.113700270652771,0.4773423373699188,-0.028988638892769814,-0.08262292295694351,-1.1834988594055176,1.2407996654510498,-0.41796451807022095,2.1041040420532227,-0.024580590426921844,-3.2847037315368652,-2.799769878387451,-0.6851598620414734,1.9616656303405762,0.39754414558410645,-2.554230213165283,3.0618045330047607
0.03918686881661415,-0.12393832206726074,-0.07450845837593079,-0.08871499449014664,-0.003061581403017044,-1.0179986953735352,1.3727378845214844,-0.19296854734420776,-0.1591874361038208,-0.2474023699760437,0.3620045781135559,-0.1884290724992752,0.44515419006347656,0.14021489024162292,-0.8939357995986938,-0.7948991656303406,-0.1592281311750412,0.18030603229999542,0.10307332873344421,-0.5858296751976013,-0.05577043443918228,0.07865166664123535,-0.027751658111810684,-0.18321961164474487,-0.014968383125960827,0.06086168438196182,0.2759692072868347,-0.4115806519985199,0.2973911464214325,0.1255340576171875,0.14781203866004944,-0.0036602974869310856,-0.04255500063300133,-0.9251372814178467,1.4091366529464722,-0.9675957560539246,1.4734783172607422,0.2634655833244324,-3.3204047679901123,-2.9355671405792236,-1.1396379470825195,1.8430615663528442,0.5677132606506348,-2.317478656768799,2.6441800594329834
0.0216946043074131,-0.036100298166275024,-0.022402998059988022,-0.03460884466767311,0.002683877944946289,-1.026474952697754,1.3727378845214844,-0.19296854734420776,-0.1576443910598755,-0.23118190467357635,0.37085217237472534,-0.24753989279270172,0.45260393619537354,0.16897933185100555,-0.7449753880500793,-0.9135916829109192,-0.09131324291229248,0.2760041356086731,0.0774432048201561,-0.41685011982917786,-0.03802639991044998,0.08744790405035019,0.028322577476501465,-0.09005732834339142,-0.019742459058761597,-0.01297994889318943,0.38271433115005493,-0.21110372245311737,0.1884545385837555,0.22320325672626495,-0.016445143148303032,0.36837801337242126,0.018397098407149315,-1.3213177919387817,1.419298768043518,-0.715154767036438,1.6951342821121216,-0.34926706552505493,-2.4578280448913574,-3.5424537658691406,-0.6879289150238037,2.2131407260894775,0.29623943567276,-1.3243064880371094,2.311028480529785
0.005586195737123489,0.0458420105278492,-0.005956564098596573,-0.01308947429060936,0.00801699236035347,-1.0266910791397095,1.3727378845214844,-0.19296854734420776,-0.15627777576446533,-0.22341258823871613,0.40075960755348206,-0.2715910077095032,0.46259281039237976,0.16923902928829193,-0.571588397026062,-0.9833201766014099,-0.027889179065823555,0.36113741993904114,0.10452816635370255,-0.17858268320560455,-0.002850589342415333,-0.01391992624849081,0.08486387878656387,-0.0979117900133133,-0.04674234986305237,0.09512262791395187,0.5197756886482239,-0.09326088428497314,0.16175304353237152,0.2369857281446457,0.11093958467245102,0.3742673993110657,0.13649716973304749,-1.1235511302947998,1.6408675909042358,-0.9143908619880676,1.4507741928100586,-0.29337602853775024,-1.6692466735839844,-3.815743923187256,-0.216971755027771,1.9205591678619385,0.4445415735244751,-0.2900860607624054,2.361905336380005
0.12289340794086456,0.16945014894008636,-0.011827357113361359,-0.07021980732679367,-0.08033807575702667,-0.9542455077171326,1.3727378845214844,-0.19296854734420776,-0.1547480821609497,-0.2548179030418396,0.3942819833755493,-0.3081517219543457,0.46662819385528564,0.26706692576408386,-0.4344595670700073,-1.0171449184417725,0.001474340446293354,0.06257063150405884,0.2076609879732132,0.07091356068849564,0.05638545751571655,-0.015907038003206253,-0.003702795598655939,-0.13621258735656738,-0.016405779868364334,0.04937183856964111,0.25051379203796387,-0.039389513432979584,0.11967001110315323,-0.6464574933052063,-0.16218189895153046,0.42247048020362854,0.08986442536115646,-0.9824845194816589,1.4702744483947754,-1.086495041847229,0.9590268135070801,0.6997930407524109,-1.3422623872756958,-3.596191644668579,-0.01631840318441391,-0.6629893183708191,1.3958805799484253,0.7480822205543518,2.4874396324157715
-0.04951634630560875,0.08889448642730713,-0.0466202087700367,0.013797324150800705,-0.01474158838391304,-0.9677497148513794,1.3727378845214844,-0.19296854734420776,-0.15173637866973877,-0.28241491317749023,0.4120616316795349,-0.3477032482624054,0.46026864647865295,0.2686442732810974,-0.34375616908073425,-0.9331722259521484,0.03458540886640549,-0.24814018607139587,0.1480848640203476,0.09869758784770966,0.12230042368173599,-0.05322641134262085,0.008872962556779385,-0.02785472385585308,-0.036045532673597336,-0.04416779801249504,0.18436503410339355,0.23580694198608398,-0.003220516489818692,-0.7881221771240234,-0.2149270623922348,0.043479323387145996,0.23870301246643066,-1.2743799686431885,1.4688416719436646,-1.374908208847046,1.0485478639602661,0.614800214767456,-0.8259328603744507,-3.3671770095825195,-0.46821796894073486,-2.4087917804718018,2.3000807762145996,0.49846184253692627,2.6878767013549805
-0.21798647940158844,0.08160285651683807,-0.022954929620027542,-0.049048423767089844,0.00925908237695694,-0.9724143147468567,1.3727378845214844,-0.19296854734420776,-0.148779034614563,-0.3084839880466461,0.4457322359085083,-0.3451552391052246,0.4851771295070648,0.1273265928030014,-0.24643658101558685,-0.8110552430152893,0.03974222391843796,-0.5528115630149841,0.11913333088159561,0.10426972061395645,0.2012442797422409,-0.14357607066631317,0.04647660255432129,-0.01079986710101366,0.08372936397790909,-0.5102664828300476,0.21753132343292236,0.34134441614151,0.009826302528381348,-0.7277514338493347,-0.012111330404877663,-0.027842268347740173,0.31436923146247864,-1.537859559059143,1.3174548149108887,-0.8691790699958801,0.9971437454223633,-0.4604607820510864,-0.6430749893188477,-2.83374285697937,-0.537499725818634,-3.3009073734283447,1.8452606201171875,0.35679781436920166,2.1795077323913574
0.0516594760119915,0.05581076070666313,-0.09431963413953781,0.031242486089468002,-0.08105111867189407,-1.0398027896881104,1.3727378845214844,-0.19296854734420776,-0.14606058597564697,-0.35371553897857666,0.4513569474220276,-0.30525273084640503,0.48846715688705444,-0.22434620559215546,-0.1681627631187439,-0.6619759202003479,0.05454886704683304,-0.6464004516601562,0.09395653009414673,0.18944014608860016,0.2944038510322571,-0.10086672753095627,0.006533026695251465,0.08421938866376877,0.038318682461977005,-0.8529506921768188,0.1417212039232254,0.3677918612957001,-0.00920859631150961,-0.2450120449066162,-0.01073432620614767,-0.3839346766471863,0.28604355454444885,-1.392245888710022,1.1316719055175781,-0.47035908699035645,0.6723113059997559,-1.86058509349823,-0.11190854758024216,-2.037292718887329,-0.5619176030158997,-3.1579036712646484,1.3748338222503662,1.0028823614120483,1.4740809202194214
-0.15701135993003845,0.1553248018026352,-0.060474082827568054,0.004062984138727188,-0.055966295301914215,-1.0476157665252686,1.3727378845214844,-0.19296854734420776,-0.14395153522491455,-0.3864179849624634,0.47514578700065613,-0.30348122119903564,0.5096961259841919,-0.5956767797470093,-0.09733937680721283,-0.5867557525634766,0.12215136736631393,-0.613113522529602,0.06849108636379242,0.15081241726875305,0.019674014300107956,-0.02368156984448433,0.007275527808815241,-0.0269173476845026,0.01944037713110447,-0.8127542734146118,0.10506733506917953,0.20539863407611847,-0.07131314277648926,0.12638325989246368,0.03525881841778755,-0.07845652103424072,-0.4339562952518463,-1.3292261362075806,0.7791654467582703,-0.15976503491401672,1.7593969106674194,-3.1250762939453125,-0.18575558066368103,-1.8765037059783936,-0.030303888022899628,-2.5701522827148438,1.7535964250564575,2.131082534790039,-0.7238051295280457
-0.09699472784996033,0.051570963114500046,-0.011185292154550552,0.04320691153407097,-0.06215709447860718,-1.0321838855743408,1.3727378845214844,-0.19296854734420776,-0.14366543292999268,-0.41742652654647827,0.47688406705856323,-0.2794935405254364,0.5102217197418213,-0.8719028830528259,-0.034743208438158035,-0.4971698224544525,0.07694758474826813,-0.40004613995552063,0.06075636297464371,0.10634497553110123,-0.27521833777427673,-0.02771068923175335,0.028101181611418724,0.09761480242013931,0.0423295758664608,-0.47614097595214844,0.18769602477550507,0.23986415565013885,-0.1434909850358963,0.38015055656433105,-0.01754196360707283,-0.047488629817962646,-0.7504392266273499,-1.5306377410888672,0.8619047999382019,-0.21041473746299744,1.8152492046356201,-3.1365556716918945,0.07057367265224457,-1.5591001510620117,-0.08274625241756439,-1.24997079372406,1.8592925071716309,2.21400785446167,-2.451660394668579
-0.09145613014698029,0.02842077985405922,0.012133974581956863,0.03368892893195152,-0.041036300361156464,-1.005797028541565,1.3727378845214844,-0.19296854734420776,-0.1439915895462036,-0.443863183259964,0.502088189125061,-0.27172237634658813,0.464041531085968,-0.951824963092804,0.031207682564854622,-0.42764759063720703,-0.08169027417898178,-0.17081251740455627,0.09695664793252945,0.09782828390598297,-0.5475363731384277,-0.10024891048669815,0.09373777359724045,0.048980679363012314,-0.1745852828025818,-0.09725319594144821,0.16045086085796356,0.28309789299964905,-0.48896536231040955,0.39624711871147156,0.07226882129907608,-0.027121616527438164,-0.5269410610198975,-1.678019404411316,1.2883517742156982,-0.4788353443145752,1.5168263912200928,-3.240419626235962,-0.21796871721744537,-1.288392186164856,-0.9465474486351013,-0.12099006772041321,2.107404947280884,2.3098390102386475,-2.9564368724823
0.01817167177796364,-0.04614324867725372,0.018204789608716965,-0.04953207075595856,0.010551784187555313,-1.0261785984039307,1.3727378845214844,-0.19296854734420776,-0.14332735538482666,-0.45456379652023315,0.49390220642089844,-0.2673921287059784,0.35276034474372864,-0.9179739952087402,0.07542562484741211,-0.3477623462677002,-0.386374294757843,0.01662253402173519,0.1403535008430481,0.09680499136447906,-0.5803332328796387,0.0377986915409565,0.010799300856888294,0.0038836717139929533,-0.13722263276576996,0.18162207305431366,0.12478392571210861,0.17801637947559357,-0.6595880389213562,0.360478937625885,0.1962966024875641,-0.02215634100139141,-0.11962056159973145,-1.6336263418197632,1.466054916381836,-1.0277495384216309,1.1382437944412231,-3.077305555343628,-0.4767381548881531,-0.9286066889762878,-2.0553412437438965,0.4910306930541992,2.394179344177246,2.067009210586548,-2.514775037765503
-0.1420901119709015,-0.06795154511928558,-0.06097811460494995,0.03494367375969887,0.0011169016361236572,-1.0286321640014648,1.3727378845214844,-0.19296854734420776,-0.14074289798736572,-0.42111727595329285,0.5077607035636902,-0.2527724802494049,0.30966833233833313,-0.7980281114578247,0.123356394469738,-0.2529815137386322,-0.6562057733535767,0.09233440458774567,0.21104037761688232,0.09389832615852356,-0.49190041422843933,0.13894601166248322,0.10759133100509644,0.04010753706097603,-0.04226693511009216,0.36628061532974243,0.1320142298936844,0.24797546863555908,-0.5601994395256042,0.19035111367702484,0.21885299682617188,0.035212744027376175,0.12370190769433975,-1.2626502513885498,2.100771188735962,-1.4954612255096436,1.0368314981460571,-2.870634078979492,-0.25362399220466614,-0.42608314752578735,-2.8445451259613037,0.40516793727874756,1.774116039276123,2.4356515407562256,-1.9390913248062134
-0.010182444006204605,0.01840507611632347,-0.08010765165090561,-0.015036623924970627,-0.003997068852186203,-0.9608927369117737,1.3727378845214844,-0.19296854734420776,-0.1384354829788208,-0.3812057673931122,0.5293044447898865,-0.2499125599861145,0.2928365170955658,-0.6744199991226196,0.1419754922389984,-0.18575242161750793,-0.8701857328414917,0.16825145483016968,0.2814195156097412,0.10514742136001587,-0.3571716845035553,0.14409708976745605,0.05922422558069229,-0.04767414927482605,-0.06652934104204178,0.34772998094558716,0.045688845217227936,0.21665552258491516,-0.4460065960884094,0.24657873809337616,0.16534776985645294,0.06896412372589111,0.22812822461128235,-1.3091092109680176,1.918137788772583,-1.0877442359924316,1.1253293752670288,-2.2299141883850098,-0.6132321953773499,-0.6658836603164673,-3.349825620651245,0.839916467666626,1.372226595878601,2.4722371101379395,-1.1710543632507324
0.01028430089354515,0.17531661689281464,0.01580474153161049,-0.04764101654291153,0.007406752556562424,-0.9542806148529053,1.3727378845214844,-0.19296854734420776,-0.13794243335723877,-0.3358793556690216,0.5429953336715698,-0.2234591841697693,0.2997593283653259,-0.530690610408783,0.2235814481973648,-0.16187784075737,-0.9811256527900696,0.25706884264945984,0.024541152641177177,0.1433134227991104,-0.15323562920093536,0.04600570350885391,-0.05564768239855766,0.11127602308988571,0.10128279030323029,0.3224245309829712,0.04114358499646187,0.14924542605876923,-0.1916547268629074,-0.430138498544693,-0.4063076972961426,0.05978388711810112,0.3068937063217163,-0.9271979928016663,1.785714864730835,-0.7126814126968384,1.3493852615356445,-1.5979328155517578,0.5096871256828308,-0.7203670144081116,-3.4862430095672607,1.2609946727752686,-0.6129671931266785,2.5403456687927246,-0.1589035540819168
0.07169987261295319,0.10010762512683868,-0.025225184857845306,-0.0253976471722126,0.04235416278243065,-1.0121941566467285,1.3727378845214844,-0.19296854734420776,-0.13742125034332275,-0.321108877658844,0.5163156390190125,-0.2151947170495987,0.30832648277282715,-0.4153119921684265,0.2256806492805481,-0.10753649473190308,-0.9990260004997253,0.1703191101551056,-0.28465548157691956,0.20853275060653687,0.06911272555589676,-0.0216287262737751,-0.020070845261216164,0.05711667612195015,-0.0262596495449543,0.32929474115371704,-0.021262919530272484,0.049024175852537155,0.041899073868989944,-0.18555572628974915,-0.8464071154594421,0.21051636338233948,0.34054264426231384,-0.18277761340141296,2.052150249481201,-0.9307064414024353,1.0385732650756836,-0.4986080527305603,0.5703861117362976,-0.9787192344665527,-3.500340223312378,2.399186849594116,-2.414069652557373,2.736072301864624,0.7647346258163452
0.1528889238834381,0.021160300821065903,-0.06566089391708374,0.0032310709357261658,0.012224990874528885,-1.0282069444656372,1.3727378845214844,-0.19296854734420776,-0.13649380207061768,-0.3305117189884186,0.4670308232307434,-0.2226516604423523,0.3145005702972412,-0.32096707820892334,0.07600110024213791,-0.09407869726419449,-0.9366223812103271,0.13175953924655914,-0.532932460308075,0.2673597037792206,0.16174359619617462,-0.008999508805572987,-0.16206642985343933,0.009412461891770363,0.07708853483200073,0.2618977129459381,-0.5075511336326599,0.038769353181123734,0.26386672258377075,-0.12480590492486954,-0.49419528245925903,0.16267576813697815,0.1280696839094162,-0.25739824771881104,1.671717882156372,-1.0324310064315796,1.2563403844833374,-0.4591362476348877,-0.5146085619926453,-1.140771508216858,-3.422715663909912,2.1994357109069824,-2.8719727993011475,2.282379388809204,0.7659735679626465
-0.06255965679883957,0.0035072416067123413,-0.0023353733122348785,0.03481290116906166,-0.006924588233232498,-1.0097910165786743,1.3727378845214844,-0.19296854734420776,-0.13633978366851807,-0.29910069704055786,0.40122413635253906,-0.1936720758676529,0.36556559801101685,-0.23019489645957947,-0.22542212903499603,-0.06789901107549667,-0.7983034253120422,0.08936849236488342,-0.6327397227287292,0.34755587577819824,0.12124060839414597,0.028077101334929466,-0.14993739128112793,0.06959094852209091,0.1308576911687851,0.28742504119873047,-0.7609299421310425,0.06651835888624191,0.3222915828227997,-0.14930208027362823,-0.13877131044864655,0.22260454297065735,0.06539120525121689,-0.7256730794906616,1.4031493663787842,-0.4027032256126404,1.4730185270309448,-0.4603757858276367,-1.6561592817306519,-1.108044981956482,-2.6193594932556152,1.616261601448059,-2.970773696899414,1.7248783111572266,0.4796980917453766
0.1064019501209259,-0.12483450770378113,-0.016149763017892838,-0.02367326244711876,0.031149577349424362,-1.0387517213821411,1.3727378845214844,-0.19296854734420776,-0.1354433298110962,-0.29920658469200134,0.35909971594810486,-0.21230964362621307,0.3862358629703522,-0.14883553981781006,-0.5576089024543762,0.02400609664618969,-0.6638869047164917,0.07444687932729721,-0.6181164383888245,0.0713585838675499,0.1752060204744339,0.08648660033941269,-0.08100436627864838,-0.04080678150057793,0.08840930461883545,0.2812318503856659,-0.7308459281921387,0.040461327880620956,0.3057337701320648,-0.08735408633947372,0.060359835624694824,-0.47085610032081604,-0.2333146184682846,-0.6138102412223816,1.2929476499557495,-0.7329923510551453,1.2866270542144775,-0.8448636531829834,-2.819180727005005,-0.5958527326583862,-2.2953076362609863,1.650643229484558,-2.5764496326446533,-0.547454297542572,1.2924697399139404
0.04255075380206108,-0.07920324057340622,-0.0017736554145812988,-0.005813270807266235,-0.031084902584552765,-0.9692297577857971,1.3727378845214844,-0.19296854734420776,-0.13388359546661377,-0.2829640209674835,0.36148253083229065,-0.21583962440490723,0.40194225311279297,-0.06486456841230392,-0.8370383381843567,0.01124875433743,-0.5642650127410889,0.07567843049764633,-0.5127732753753662,-0.22924204170703888,0.10398110747337341,-0.007484412286430597,-0.06429915130138397,-0.03002859465777874,-0.020498180761933327,0.14754600822925568,-0.5796179175376892,-0.07580243051052094,0.3533864915370941,-0.009293347597122192,0.212598517537117,-0.7742801308631897,-0.2565186321735382,-0.7230893969535828,1.2221686840057373,-0.903495728969574,1.0909329652786255,-0.07950940728187561,-3.40097713470459,-0.22904333472251892,-1.529768943786621,1.3024932146072388,-1.9684443473815918,-2.179751396179199,2.8315553665161133
0.0951729416847229,-0.06348149478435516,-0.09487175196409225,-0.03257260471582413,-0.027715135365724564,-0.9716527462005615,1.3727378845214844,-0.19296854734420776,-0.13086235523223877,-0.26544517278671265,0.3559782803058624,-0.25495079159736633,0.4099688231945038,0.015162494033575058,-1.0096701383590698,-0.08504078537225723,-0.44354549050331116,0.08833413571119308,-0.29244837164878845,-0.5291398763656616,0.04887216538190842,-0.041963037103414536,0.09857511520385742,-0.0354636125266552,-0.05226793512701988,0.16281352937221527,-0.28216809034347534,-0.3419957458972931,0.2401314079761505,0.10349410027265549,0.3676922917366028,-0.6248297095298767,-0.20611420273780823,-0.7190197110176086,1.5301254987716675,-0.9868494868278503,0.678620457649231,-0.026585400104522705,-3.570331335067749,-0.7854893207550049,-1.3791803121566772,1.8485589027404785,-0.695267915725708,-2.9326424598693848,2.8284566402435303
0.07635189592838287,-0.11414162814617157,-0.05185538902878761,-0.05934424325823784,-0.06456487625837326,-0.961742103099823,1.3727378845214844,-0.19296854734420776,-0.12780964374542236,-0.2529650628566742,0.3777638375759125,-0.24145618081092834,0.4288747310638428,0.062455520033836365,-1.047967553138733,-0.3366067707538605,-0.3461664021015167,0.14528505504131317,-0.06310278922319412,-0.636124849319458,0.0014708582311868668,0.10274753719568253,-0.011553949676454067,0.05565553903579712,0.03787658363580704,0.08039519935846329,-0.027695218101143837,-0.5624120831489563,0.24608385562896729,0.10078419744968414,0.4775469899177551,-0.19344252347946167,-0.025886351242661476,-0.8369706869125366,1.5162843465805054,-0.7985314130783081,1.1644448041915894,-0.4655352234840393,-3.6416819095611572,-1.8415671586990356,-0.8015623688697815,2.130035400390625,0.3018883466720581,-2.828653335571289,2.6279075145721436
0.03611567243933678,-0.0945291519165039,-0.10954679548740387,0.010393526405096054,-0.0016440004110336304,-1.0055078268051147,1.3727378845214844,-0.19296854734420776,-0.12495529651641846,-0.23274901509284973,0.37062200903892517,-0.2653874158859253,0.4340376853942871,0.1212875172495842,-0.9901312589645386,-0.5890217423439026,-0.25648483633995056,0.19547013938426971,0.13304279744625092,-0.6383422613143921,-0.010221287608146667,0.07138943672180176,-0.03675302863121033,-0.13160274922847748,0.09683771431446075,0.12176399677991867,0.1287885457277298,-0.5380838513374329,0.17633040249347687,0.1847468465566635,0.29129189252853394,0.004973733332008123,-0.00017764569201972336,-0.6770392060279846,1.2967013120651245,-1.027691125869751,1.4346781969070435,0.0506393164396286,-3.4619102478027344,-2.645681142807007,-0.9289761185646057,1.8656946420669556,0.9619647860527039,-2.6198151111602783,2.5423243045806885
0.029655952006578445,-0.1431974172592163,-0.047023236751556396,-0.070229671895504,-0.040028322488069534,-1.012274146080017,1.3727378845214844,-0.19296854734420776,-0.12351524829864502,-0.23149889707565308,0.37900054454803467,-0.27123045921325684,0.4425276815891266,0.14994540810585022,-0.8413001894950867,-0.8187264204025269,-0.16161644458770752,0.2753349840641022,0.17734907567501068,-0.5006080865859985,-0.0158021692186594,-0.036329131573438644,0.009960705414414406,-0.04591091349720955,0.04620683193206787,0.0013440132606774569,0.4838417172431946,-0.5107723474502563,0.17179827392101288,0.18505600094795227,0.05839841440320015,0.2842029631137848,0.03307013586163521,-1.126327633857727,1.2695562839508057,-0.8549007177352905,1.5987378358840942,-0.6660205721855164,-2.6207962036132812,-3.3559436798095703,-0.6482690572738647,1.978670358657837,0.8222294449806213,-1.7981103658676147,2.509277105331421
0.08235220611095428,0.0006306394934654236,0.020799782127141953,-0.05062703788280487,-0.011835284531116486,-1.014538288116455,1.3727378845214844,-0.19296854734420776,-0.12310707569122314,-0.2260465770959854,0.3500272333621979,-0.3019469678401947,0.4448868930339813,0.1692521572113037,-0.6141915917396545,-0.9542564153671265,-0.09463324397802353,0.3589900732040405,0.1476738303899765,-0.3160908818244934,-0.008052610792219639,0.08732298761606216,-0.0375700481235981,-0.057143259793519974,-0.040898989886045456,0.042782630771398544,0.5631265640258789,-0.2698919475078583,0.15609069168567657,0.16746385395526886,-0.08642541617155075,0.28454336524009705,0.017516393214464188,-0.939832866191864,1.0451042652130127,-1.0757135152816772,1.5274877548217773,-0.03255344182252884,-1.943935513496399,-3.548576831817627,-0.5046676397323608,1.6331586837768555,0.42220765352249146,-0.93735271692276,2.744776725769043
-0.023761633783578873,0.212305948138237,-0.04362235218286514,-0.06570185720920563,-0.0620109923183918,-0.9577400088310242,1.3727378845214844,-0.19296854734420776,-0.1223069429397583,-0.23197616636753082,0.33307185769081116,-0.31460246443748474,0.4598679542541504,0.2657623291015625,-0.4208652973175049,-1.0124528408050537,-0.041775114834308624,0.11515506356954575,0.21469929814338684,-0.0512634813785553,0.03637217730283737,-0.023913193494081497,-0.021933531388640404,-0.11904716491699219,-0.010111671872437,0.1190560832619667,0.4465804994106293,-0.0173668023198843,0.11402815580368042,-0.4314163327217102,0.22338758409023285,0.48545724153518677,0.14548109471797943,-0.9013303518295288,1.478211522102356,-1.2696210145950317,0.9743474721908569,0.9321512579917908,-1.1668082475662231,-3.399390935897827,-0.10761546343564987,-0.15921401977539062,0.9619206786155701,0.4682709872722626,2.9475185871124268
0.17258143424987793,0.23039184510707855,-0.016492493450641632,0.02549685165286064,-0.015980388969182968,-0.951754629611969,1.3727378845214844,-0.19296854734420776,-0.1205822229385376,-0.25702181458473206,0.3200484812259674,-0.3391678035259247,0.4617173969745636,0.29341134428977966,-0.4003429114818573,-0.9674506187438965,-0.0066610900685191154,-0.2018032968044281,0.4464104175567627,0.11722200363874435,0.07917004823684692,-0.04170642048120499,-0.042800795286893845,-0.11520006507635117,0.05944490432739258,0.018010783940553665,-0.08065708726644516,0.20422282814979553,-0.007833731360733509,-0.7963890433311462,0.6034737825393677,0.26117607951164246,0.1067400723695755,-1.1227526664733887,0.7177523374557495,-1.043304681777954,1.1919867992401123,0.6757139563560486,-1.6806734800338745,-3.236891984939575,-0.09834349900484085,-2.29590106010437,2.358905076980591,0.7380460500717163,2.5169382095336914
0.054001402109861374,0.4508153200149536,-0.030721120536327362,0.027790602296590805,-0.05590016022324562,-1.038434386253357,1.3727378845214844,-0.19296854734420776,-0.11963808536529541,-0.24896535277366638,0.28717631101608276,-0.3282705843448639,0.45627346634864807,0.16379962861537933,-0.49786925315856934,-0.8543978929519653,0.0034552477300167084,-0.5093531012535095,0.6527606844902039,0.14160926640033722,0.14678455889225006,0.08976364135742188,-0.07106655091047287,0.06351949274539948,-0.004652297589927912,-0.5012934803962708,-0.07053482532501221,0.21786554157733917,-0.0731181725859642,-0.6556733846664429,-0.03921879082918167,0.03144071251153946,0.2117242068052292,-1.116477131843567,0.9442161917686462,-0.9650693535804749,1.2671371698379517,-0.3561182916164398,-2.6712753772735596,-3.271468162536621,0.04735410958528519,-3.0265450477600098,3.1496856212615967,0.45279186964035034,1.9934943914413452
0.17398332059383392,0.5016472339630127,0.02691858634352684,0.07742446660995483,-0.08269573748111725,-1.0090116262435913,1.3727378845214844,-0.19296854734420776,-0.1196514368057251,-0.2329830378293991,0.26869696378707886,-0.35496360063552856,0.4640145003795624,-0.18260891735553741,-0.577480673789978,-0.7731016278266907,-0.01284069288522005,-0.6373182535171509,0.6700416803359985,0.07631927728652954,0.22296251356601715,0.02228902094066143,-0.11835820972919464,-0.042330365628004074,-0.06903249770402908,-0.928235650062561,-0.2476349174976349,0.12984256446361542,0.035057391971349716,-0.29719170928001404,0.012838083319365978,-0.04212681204080582,0.22732606530189514,-1.1457960605621338,1.0599915981292725,-1.238490104675293,1.5500842332839966,-1.6268237829208374,-2.7670605182647705,-3.2645130157470703,-0.011286936700344086,-3.0377840995788574,4.090507507324219,0.045741863548755646,1.0854238271713257
0.19533348083496094,0.46284735202789307,-0.10704917460680008,0.07990668714046478,-0.04474802687764168,-1.03797447681427,1.3727378845214844,-0.19296854734420776,-0.11901676654815674,-0.2548178434371948,0.23274052143096924,-0.3674830496311188,0.4338992238044739,-0.5511549711227417,-0.6706633567810059,-0.7276957035064697,0.02125544659793377,-0.6416856050491333,0.65840744972229,0.037547990679740906,0.05169904977083206,-0.06390461325645447,0.013491416350007057,-0.02260071039199829,-0.07316627353429794,-0.797478199005127,-0.13641519844532013,0.017306173220276833,-0.07429526001214981,-0.09242478758096695,0.06133409962058067,-0.03903767094016075,-0.27091965079307556,-0.8395028710365295,1.0495703220367432,-1.73662269115448,1.3472400903701782,-2.653925895690918,-2.545999765396118,-3.0447309017181396,-0.31951960921287537,-2.7767863273620605,4.632176876068115,0.040164511650800705,-0.30134063959121704
0.04573666676878929,0.42061030864715576,-0.0022030621767044067,0.142984077334404,-0.06535841524600983,-1.028059720993042,1.3727378845214844,-0.19296854734420776,-0.12032425403594971,-0.25631311535835266,0.18747901916503906,-0.38205698132514954,0.4095039963722229,-0.8497949838638306,-0.6940171122550964,-0.7241078019142151,0.0010645445436239243,-0.5229772329330444,0.659091591835022,0.06495752185583115,-0.13653182983398438,-0.01086969394236803,-0.08031982183456421,0.04405103996396065,0.05749624967575073,-0.6357696056365967,-0.042706310749053955,-0.06460414081811905,-0.12360133230686188,0.19503651559352875,0.07336821407079697,0.013281017541885376,-0.2910004258155823,-1.0463417768478394,0.08010706305503845,-1.3436863422393799,1.8708139657974243,-3.5250613689422607,-2.4048006534576416,-3.036717653274536,-0.4545155465602875,-1.915050745010376,4.981550693511963,0.20507538318634033,-0.9298504590988159
-0.17797261476516724,0.40256467461586,-0.01609288528561592,0.12014953792095184,-0.08713702857494354,-0.9372707605361938,1.3727378845214844,-0.19296854734420776,-0.12249910831451416,-0.26145505905151367,0.1461859494447708,-0.3795349597930908,0.39561372995376587,-1.052746057510376,-0.6687546372413635,-0.6056205630302429,-0.12586630880832672,-0.2949160039424896,0.6152172684669495,-0.07454860210418701,-0.2785928547382355,0.08471892029047012,0.09123169630765915,-0.008042526431381702,0.035791754722595215,-0.34822508692741394,0.5264753103256226,0.35734280943870544,-0.3525788486003876,0.4710838794708252,-0.8681173324584961,-0.4202667772769928,-0.3408316671848297,-0.9478209018707275,0.30870839953422546,-1.4818283319473267,1.4755456447601318,-3.9402782917022705,-2.6101083755493164,-2.7892563343048096,-0.9543672204017639,-0.6222110986709595,4.825955390930176,0.41184911131858826,-1.48929762840271
-0.1165814995765686,0.2136273831129074,0.036955345422029495,0.16478481888771057,-0.11285571753978729,-0.9555673003196716,1.3727378845214844,-0.19296854734420776,-0.1255713701248169,-0.3076156973838806,0.1657743752002716,-0.3659934103488922,0.35416752099990845,-1.1775336265563965,-0.5188013911247253,-0.4968355894088745,-0.27412062883377075,0.013796675950288773,0.3936097025871277,-0.18080563843250275,-0.4538467228412628,-0.13878288865089417,0.08555229008197784,-0.029756957665085793,-0.16163356602191925,-0.2145518809556961,0.4196944236755371,0.2727832794189453,-0.4211801588535309,0.609600305557251,-0.42041096091270447,-0.23241554200649261,-0.40383416414260864,-1.2944512367248535,0.5714514851570129,-1.2256742715835571,0.9670041799545288,-4.66975736618042,-3.084815502166748,-1.3047603368759155,-1.3553504943847656,0.7545408606529236,4.655331611633301,1.8844482898712158,-2.3537371158599854
-0.05487101152539253,0.08293038606643677,0.0266253761947155,0.19075313210487366,-0.06931345164775848,-1.027096152305603,1.3727378845214844,-0.19296854734420776,-0.12749731540679932,-0.35675495862960815,0.18254071474075317,-0.36619701981544495,0.28435948491096497,-1.2184854745864868,-0.37759295105934143,-0.38036754727363586,-0.47172707319259644,0.22940613329410553,0.2799350321292877,-0.2659524977207184,-0.6028054356575012,-0.07403218746185303,0.057797934859991074,0.0801701545715332,-0.19676506519317627,0.07324876636266708,0.32812243700027466,0.24244748055934906,-0.5493505001068115,0.4234331250190735,-0.38427868485450745,-0.2422538846731186,-0.21378040313720703,-1.3237836360931396,0.5510345697402954,-1.6654249429702759,0.7929250001907349,-4.658150672912598,-2.918431043624878,-0.5185037851333618,-2.07631254196167,1.3298234939575195,3.785490036010742,2.5997073650360107,-2.731433868408203
-0.2449173629283905,-0.022034892812371254,-0.0358099527657032,0.170342355966568,-0.09791532158851624,-1.0157979726791382,1.3727378845214844,-0.19296854734420776,-0.12761223316192627,-0.40180930495262146,0.19619423151016235,-0.3442092835903168,0.21988914906978607,-1.1805366277694702,-0.2758362293243408,-0.2683984339237213,-0.6626101136207581,0.30304405093193054,0.19416050612926483,-0.32370123267173767,-0.6452739238739014,-0.018622297793626785,0.1156221553683281,0.08325646072626114,-0.10017627477645874,0.14271102845668793,0.31102484464645386,0.30049368739128113,-0.44984522461891174,0.08680646866559982,-0.13130448758602142,-0.17362336814403534,-0.09867409616708755,-1.3727790117263794,1.0770273208618164,-2.0984110832214355,0.6679642200469971,-4.5179314613342285,-2.4119298458099365,-0.31574496626853943,-2.6956334114074707,1.3127305507659912,2.9700305461883545,2.8149526119232178,-2.6614203453063965
-0.2849591076374054,0.00956680253148079,0.04336890950798988,0.1977590173482895,-0.09575322270393372,-0.9550106525421143,1.3727378845214844,-0.19296854734420776,-0.1280442476272583,-0.4324674606323242,0.23602589964866638,-0.3104920983314514,0.1863803267478943,-1.083399772644043,-0.17421627044677734,-0.13592973351478577,-0.8188066482543945,0.3090422451496124,0.14975814521312714,-0.3821521997451782,-0.620509922504425,-0.06408771127462387,0.03837912157177925,0.12740059196949005,-0.07994724065065384,0.17865462601184845,0.16879823803901672,0.2976609170436859,-0.3257022500038147,0.08766613155603409,-0.07530815154314041,-0.05427670478820801,0.09317222982645035,-1.6695139408111572,1.1735535860061646,-1.8548742532730103,0.7406060695648193,-4.288183212280273,-1.517654299736023,-0.33486056327819824,-3.1517789363861084,1.1290720701217651,2.426459789276123,2.6154613494873047,-2.4511232376098633
-0.031700681895017624,0.020184684544801712,-0.059644002467393875,0.21692313253879547,-0.07968076318502426,-1.0066163539886475,1.3727378845214844,-0.19296854734420776,-0.12719595432281494,-0.45571526885032654,0.2552112936973572,-0.29863619804382324,0.17277267575263977,-1.017109990119934,-0.09069298207759857,-0.04407298564910889,-0.9195780754089355,0.31653356552124023,0.12084486335515976,-0.39925652742385864,-0.5411678552627563,0.015393036417663097,-0.009580433368682861,-0.01546866912394762,-0.011600345373153687,0.22821079194545746,0.18335404992103577,0.2700512111186981,-0.2198466807603836,0.04216745123267174,-0.09938859939575195,-0.08268929272890091,0.18566222488880157,-1.42312753200531,1.4000393152236938,-2.4641215801239014,0.5259386301040649,-3.8969056606292725,-1.5026021003723145,0.0010533183813095093,-3.771664619445801,1.2447540760040283,2.4074220657348633,2.3632524013519287,-2.064993143081665
-0.24408872425556183,0.017262760549783707,-0.03255324065685272,0.21629060804843903,-0.06472451984882355,-0.9439562559127808,1.3727378845214844,-0.19296854734420776,-0.12600433826446533,-0.4578295648097992,0.27898600697517395,-0.27469900250434875,0.18041889369487762,-0.9084522724151611,-0.02119261771440506,0.047245629131793976,-0.9960606098175049,0.317061185836792,0.12126553803682327,-0.390243798494339,-0.48714348673820496,0.05017336830496788,0.06561317294836044,0.025057543069124222,0.07897718250751495,0.1678023636341095,0.13351738452911377,0.1824076920747757,-0.17467117309570312,0.10075511038303375,0.03106839768588543,-0.023221958428621292,0.03187093883752823,-1.6359543800354004,1.1539366245269775,-1.6284756660461426,0.781737208366394,-3.4715638160705566,-1.011665940284729,0.38984769582748413,-3.8305091857910156,1.2299060821533203,2.3199920654296875,1.9730517864227295,-1.8577628135681152
-0.17042304575443268,0.06660449504852295,0.008182261139154434,0.19883832335472107,-0.04882495105266571,-0.996549129486084,1.3727378845214844,-0.19296854734420776,-0.1251455545425415,-0.4326215386390686,0.2949848771095276,-0.24678103625774384,0.2194872796535492,-0.8116970062255859,0.04453101009130478,0.1454588919878006,-1.0193861722946167,0.3609957993030548,0.12984402477741241,-0.3753531575202942,-0.4025639295578003,0.07159224897623062,0.011126577854156494,0.010023939423263073,0.05640847608447075,0.185381218791008,0.13494980335235596,0.22617259621620178,-0.050072092562913895,0.10264134407043457,0.03386152908205986,0.17218700051307678,0.23099516332149506,-1.4120479822158813,0.869453489780426,-1.3490849733352661,0.8324816226959229,-3.0071492195129395,-0.9354844689369202,0.6502950191497803,-3.988884210586548,1.422133207321167,2.1332685947418213,1.5116933584213257,-1.4935866594314575
-0.10546647012233734,0.15762892365455627,-0.006482869386672974,0.1915045529603958,0.034851085394620895,-0.9316471219062805,1.3727378845214844,-0.19296854734420776,-0.1239701509475708,-0.3871503174304962,0.3123171031475067,-0.23178152740001678,0.24688903987407684,-0.7309990525245667,0.10379358381032944,0.19428230822086334,-1.0481301546096802,0.529866635799408,0.16901512444019318,-0.3168930411338806,-0.30482086539268494,0.20008325576782227,0.0657634511590004,-0.018692106008529663,0.08844753354787827,0.23037147521972656,0.0787544772028923,0.1003948450088501,0.024951910600066185,0.29369333386421204,0.13350044190883636,0.1330057829618454,0.1758164018392563,-0.9584531784057617,0.9639725685119629,-1.2941938638687134,0.9388920068740845,-2.5953476428985596,-0.8102368116378784,0.5780903697013855,-4.123940467834473,2.438324451446533,1.3435364961624146,1.1042686700820923,-1.1190351247787476
-0.23343311250209808,0.4335268437862396,0.003078959882259369,0.283954918384552,0.009969379752874374,-0.9724956154823303,1.3727378845214844,-0.19296854734420776,-0.12210237979888916,-0.3031567633152008,0.3476397693157196,-0.21574090421199799,0.294841468334198,-0.6884624361991882,0.1619473248720169,0.22916673123836517,-1.0628386735916138,0.6650360822677612,-0.15688277781009674,-0.24914750456809998,-0.20367534458637238,0.19528980553150177,0.08046706020832062,0.08309491723775864,0.1897384226322174,0.07170359045267105,-0.018680114299058914,-0.01777423731982708,0.026831770315766335,-0.0451841726899147,-0.7947391867637634,0.2544986605644226,0.2603120803833008,-0.677423894405365,1.22552490234375,-0.7888365387916565,1.217146873474121,-3.1073663234710693,-0.17281974852085114,0.8623401522636414,-4.170083522796631,4.380734443664551,-2.008699417114258,0.3844144642353058,-0.6206004619598389
-0.31243813037872314,0.6215793490409851,-0.010978780686855316,0.23481102287769318,0.04037539288401604,-0.9948723316192627,1.3727378845214844,-0.19296854734420776,-0.11979448795318604,-0.18541690707206726,0.32570216059684753,-0.22105944156646729,0.35116785764694214,-0.7040374875068665,0.0005969442427158356,0.21621958911418915,-1.0723307132720947,0.6540439128875732,-0.4617834985256195,-0.28705862164497375,-0.06851566582918167,0.24495163559913635,-0.16616462171077728,-0.07840044051408768,0.12994633615016937,-0.1110239028930664,-0.5843681693077087,-0.14340899884700775,0.030446959659457207,0.0627996101975441,-0.8401103019714355,-0.11543001234531403,0.2721961438655853,-0.37279701232910156,1.1847310066223145,-0.9062121510505676,1.2378251552581787,-3.714784860610962,-1.048022985458374,0.5015049576759338,-4.087273120880127,5.673031330108643,-3.1856162548065186,-1.399187684059143,-0.005519837141036987
0.0058068521320819855,0.5442765355110168,0.07722409069538116,0.31663063168525696,0.08681643009185791,-0.9067317843437195,1.3727378845214844,-0.19296854734420776,-0.11930954456329346,-0.1290295571088791,0.21682581305503845,-0.2274799346923828,0.3824334144592285,-0.7531071305274963,-0.3082788288593292,0.1782223880290985,-1.0401060581207275,0.6716039180755615,-0.5970343947410583,-0.4862006604671478,-0.01652076281607151,0.026236558333039284,-0.2574211061000824,0.02330625057220459,-0.009817731566727161,-0.05861936882138252,-0.7722680568695068,-0.17297831177711487,0.04554978758096695,-0.06729090958833694,-0.2508482038974762,-0.4414943754673004,0.13079296052455902,-0.9952098727226257,0.8026309013366699,-0.8992920517921448,1.6175508499145508,-3.1671154499053955,-2.0518722534179688,0.3703191876411438,-3.972306966781616,6.199636459350586,-2.7873785495758057,-2.4053142070770264,0.004518657922744751
0.08286453783512115,0.31366029381752014,0.018421243876218796,0.3537384271621704,0.0801512748003006,-0.9737139344215393,1.3727378845214844,-0.19296854734420776,-0.11922657489776611,-0.11423506587743759,0.19919906556606293,-0.21746553480625153,0.4167477786540985,-0.7017930746078491,-0.6903221011161804,0.08391186594963074,-0.9694398641586304,0.5855844616889954,-0.40491268038749695,-0.7345165014266968,-0.014893783256411552,-0.05559960752725601,-0.06925182789564133,-0.08067025989294052,0.08020281791687012,0.5548481345176697,-0.8375076651573181,-0.22787514328956604,0.23561201989650726,-0.672941267490387,0.3561723828315735,-0.5178324580192566,-0.06159302219748497,-0.5520723462104797,0.9764770865440369,-0.8602867126464844,1.6903672218322754,-3.7822744846343994,-3.334390163421631,0.03401561081409454,-3.680028200149536,6.942148685455322,-1.3719006776809692,-3.447469711303711,-0.04051181674003601
0.09878130257129669,0.13631196320056915,0.0033194534480571747,0.3586188852787018,0.0510895811021328,-0.8842638731002808,1.3727378845214844,-0.19296854734420776,-0.11970245838165283,-0.1061919704079628,0.22882772982120514,-0.18940865993499756,0.42191582918167114,-0.5699105262756348,-0.9932777881622314,-0.03314153105020523,-0.8567582368850708,0.41991525888442993,-0.10854534059762955,-0.8824259042739868,0.008495165035128593,0.01639544405043125,0.1880052387714386,0.028685033321380615,0.07337992638349533,0.32605868577957153,-0.6329536437988281,-0.19394908845424652,0.3815877139568329,-0.41839995980262756,0.6171923875808716,-0.2796914279460907,0.14204345643520355,0.10454845428466797,1.1452887058258057,-0.717373788356781,1.6654080152511597,-5.359141826629639,-4.061260223388672,-0.12472913414239883,-3.0147488117218018,5.706103801727295,0.25431960821151733,-3.7013394832611084,0.10408490896224976
0.1609092801809311,-0.11679442226886749,0.022647466510534286,0.3888609707355499,0.09621734917163849,-0.9531448483467102,1.3727378845214844,-0.19296854734420776,-0.12045109272003174,-0.10357902199029922,0.3090648651123047,-0.1656593382358551,0.4193356931209564,-0.44108259677886963,-1.1627223491668701,-0.14940479397773743,-0.7917836308479309,0.33554449677467346,0.19816428422927856,-0.9288656115531921,0.2020750343799591,-0.0025370658840984106,0.1265934258699417,0.013662409968674183,-0.04754260182380676,0.32319003343582153,-0.29631462693214417,-0.2161269634962082,0.2107088416814804,-0.21633386611938477,0.7854560017585754,-0.05183902382850647,0.2005208283662796,0.4039226770401001,1.344109058380127,-0.6861652135848999,1.360860824584961,-3.8250296115875244,-4.2121686935424805,-0.8028344511985779,-3.152493715286255,4.417731285095215,1.8024556636810303,-3.785433053970337,1.3339873552322388
0.12218768894672394,0.10044245421886444,-0.08525481820106506,0.3539573848247528,0.056872036308050156,-0.8826921582221985,1.3727378845214844,-0.19296854734420776,-0.11977779865264893,-0.1106262356042862,0.42481786012649536,-0.18350829184055328,0.4084305763244629,-0.3363984525203705,-1.2397966384887695,-0.29753631353378296,-0.6643694043159485,0.277893602848053,0.42815181612968445,-0.9110912680625916,0.08911672234535217,-0.02969113551080227,0.2924298942089081,-0.1244664117693901,0.011242187581956387,0.25092723965644836,-0.12705360352993011,-0.3807642161846161,0.23460839688777924,-0.1442236751317978,0.3741949200630188,-0.012963813729584217,-0.18082456290721893,0.43536293506622314,1.8721871376037598,-0.7603508830070496,0.8011225461959839,-3.2497780323028564,-4.622054100036621,-1.473164677619934,-3.4565062522888184,3.4519202709198,2.2498044967651367,-3.6298789978027344,2.207461357116699
-0.026637250557541847,0.0722772628068924,-0.03946904093027115,0.3927893042564392,0.041650187224149704,-0.8944753408432007,1.3727378845214844,-0.19296854734420776,-0.11880457401275635,-0.1043834537267685,0.50933837890625,-0.16600432991981506,0.4223056137561798,-0.2601929306983948,-1.2072328329086304,-0.5046732425689697,-0.5557456612586975,0.23050671815872192,0.487055242061615,-0.7904914617538452,0.04485641419887543,0.05520794540643692,0.17124073207378387,0.03458252176642418,0.06105053424835205,0.24847939610481262,0.16645720601081848,-0.3976869583129883,0.24409213662147522,-0.054893720895051956,0.041664231568574905,0.29290199279785156,-0.08820692449808121,0.37964731454849243,1.8390967845916748,-0.26210927963256836,0.8403221368789673,-2.9739625453948975,-4.285211086273193,-2.215517044067383,-2.178577423095703,3.1047210693359375,2.1404106616973877,-3.050943374633789,1.9187852144241333
0.09736187756061554,0.045786935836076736,-0.026905201375484467,0.3413250744342804,0.0789342075586319,-0.9565450549125671,1.3727378845214844,-0.19296854734420776,-0.11831486225128174,-0.09495992213487625,0.5542746782302856,-0.16647915542125702,0.4316795766353607,-0.1856400966644287,-1.1161853075027466,-0.671437680721283,-0.4736312925815582,0.24005822837352753,0.5457735061645508,-0.681428849697113,0.008183516561985016,-0.05130085349082947,0.07551608234643936,0.0014515757793560624,-0.06188023090362549,0.10112342983484268,0.2257687896490097,-0.3972567617893219,0.1600681096315384,0.07382966578006744,0.17052404582500458,0.23545777797698975,-0.05244101211428642,0.27862995862960815,1.9230533838272095,-0.28490111231803894,0.9923057556152344,-2.7352120876312256,-3.9902870655059814,-2.870178461074829,-1.4716110229492188,2.6366939544677734,2.324376106262207,-2.7109193801879883,1.5365484952926636
0.1826709657907486,0.03466350957751274,-0.03264039754867554,0.3939071595668793,0.033710967749357224,-0.952765941619873,1.3727378845214844,-0.19296854734420776,-0.11787664890289307,-0.1021941751241684,0.569410502910614,-0.14393942058086395,0.42507413029670715,-0.11891978234052658,-0.9785786867141724,-0.8105289936065674,-0.377711683511734,0.2529631555080414,0.5242639183998108,-0.5397474765777588,-0.02378924749791622,0.002673375653102994,0.04258350282907486,-0.050075627863407135,0.006723064463585615,0.10297366231679916,0.29127055406570435,-0.2812831401824951,0.1458800882101059,0.0022905468940734863,-0.042011808604002,0.30827412009239197,-0.08798273652791977,0.06162649393081665,2.0781302452087402,-0.44314050674438477,1.215507984161377,-1.9719816446304321,-3.8440184593200684,-3.280092477798462,-1.19248628616333,2.174546241760254,1.9374477863311768,-1.8694928884506226,1.1393518447875977
0.17398931086063385,0.18479204177856445,-0.009095955640077591,0.436924010515213,-0.004699964076280594,-0.8999736309051514,1.3727378845214844,-0.19296854734420776,-0.11775505542755127,-0.1001061350107193,0.5203242897987366,-0.16722317039966583,0.421528697013855,-0.05603501945734024,-0.9295434951782227,-0.8981801867485046,-0.305512011051178,0.26381492614746094,0.6648734211921692,-0.42042139172554016,-0.02539321407675743,0.008715957403182983,-0.12051349133253098,0.00532382121309638,-0.0058946372009813786,0.1653694212436676,0.15976254642009735,-0.09253113716840744,0.10450390726327896,0.07560606300830841,0.05379612371325493,0.24628977477550507,0.03278319910168648,0.30986177921295166,1.3520792722702026,-0.5623380541801453,1.451904058456421,-1.4493576288223267,-3.874309778213501,-3.4982359409332275,-0.9662001729011536,1.0681334733963013,2.8935723304748535,-1.4950964450836182,0.9836515188217163
-0.03124348446726799,0.18444156646728516,-0.006809350103139877,0.4022568464279175,0.0076530687510967255,-0.9309746623039246,1.3727378845214844,-0.19296854734420776,-0.11921274662017822,-0.06947053968906403,0.5184522271156311,-0.15803642570972443,0.4141966998577118,-0.002602631226181984,-0.8831216096878052,-0.942882776260376,-0.2110854983329773,-0.04294672608375549,0.6611124277114868,-0.32882627844810486,-0.042729027569293976,0.2643354833126068,0.019548719748854637,-0.0005857825162820518,-0.08027061074972153,-0.09947538375854492,-0.0168448518961668,0.012688017450273037,0.22615335881710052,-0.7189313769340515,0.2197456657886505,0.16477127373218536,-0.005379933398216963,0.49185436964035034,1.290840983390808,-0.8255829215049744,1.2059978246688843,-1.071290373802185,-4.320181369781494,-3.481635570526123,-0.6671850085258484,-1.5155147314071655,4.371541500091553,-1.0450631380081177,-0.3156898319721222
0.20082275569438934,0.2331763058900833,0.06601400673389435,0.38786208629608154,-0.0034210793673992157,-0.8798532485961914,1.3727378845214844,-0.19296854734420776,-0.12168610095977783,0.010511236265301704,0.46704134345054626,-0.20350676774978638,0.3422653079032898,-0.12502330541610718,-0.9056906700134277,-0.9411469101905823,-0.1773349791765213,-0.34288519620895386,0.6554834842681885,-0.23738490045070648,-0.08309773355722427,0.17705559730529785,-0.13672485947608948,-0.07243530452251434,-0.23977576196193695,-0.4861595630645752,-0.06888832896947861,0.0353211872279644,0.08709447830915451,-0.7863947749137878,-0.02724352851510048,0.09753631800413132,-0.030349714681506157,0.22736500203609467,1.4718599319458008,-0.747330367565155,1.124985694885254,-1.4021884202957153,-4.365015029907227,-3.483989715576172,-0.9937295317649841,-2.597353458404541,4.560162544250488,-0.7532164454460144,-0.5788500308990479
0.20045660436153412,0.33375799655914307,0.024902451783418655,0.45686250925064087,-0.06142614781856537,-0.9100813865661621,1.3727378845214844,-0.19296854734420776,-0.1253148317337036,0.07119061797857285,0.4365352988243103,-0.24973741173744202,0.3253195583820343,-0.4099547863006592,-0.9212846159934998,-0.922100305557251,-0.11128238588571548,-0.5307039022445679,0.6414391398429871,-0.1313018947839737,-0.07992351055145264,0.0024460554122924805,0.016465628519654274,-0.17306900024414062,-0.01712907664477825,-0.6692526340484619,0.5458735823631287,0.09837456047534943,0.2252836972475052,-0.324636310338974,-0.6764190196990967,0.22946476936340332,0.06670475006103516,-0.0786195769906044,2.031378746032715,-1.040560007095337,0.7470356225967407,-2.2431411743164062,-3.9399538040161133,-3.492072343826294,-1.279930830001831,-2.5896639823913574,4.72038459777832,-0.3362900912761688,-0.15127955377101898
-0.10110560059547424,0.06259022653102875,0.015983503311872482,0.4184330403804779,-0.04524451121687889,-0.9120075702667236,1.3727378845214844,-0.19296854734420776,-0.12664330005645752,0.07339537888765335,0.4468541145324707,-0.28717541694641113,0.3139842748641968,-0.7696508765220642,-0.7615131735801697,-0.8749897480010986,-0.02825011871755123,-0.47487449645996094,0.43439897894859314,-0.1646730899810791,-0.26684442162513733,-0.08382860571146011,0.03161342069506645,-0.061530377715826035,-0.14419853687286377,-0.9698119163513184,0.36338040232658386,0.11760437488555908,0.19625325500965118,0.12850235402584076,-0.4648485779762268,-0.14201028645038605,-0.36183178424835205,0.2526918053627014,1.2667980194091797,-1.1313382387161255,0.8403079509735107,-4.0976338386535645,-5.339199066162109,-3.6874969005584717,-0.22740045189857483,-2.019226551055908,5.167971134185791,-0.8998099565505981,-1.6376250982284546
-0.053458597511053085,-0.012250088155269623,-0.03761819377541542,0.4432825744152069,-0.06624064594507217,-0.9147459864616394,1.3727378845214844,-0.19296854734420776,-0.1258312463760376,-0.01755259372293949,0.43613559007644653,-0.33741992712020874,0.23598304390907288,-1.0968526601791382,-0.6426836252212524,-0.8340882658958435,-0.037903983145952225,-0.29408782720565796,0.29966646432876587,-0.10556839406490326,-0.3354761004447937,-0.30067184567451477,-0.029852455481886864,-0.03598630428314209,0.0746803805232048,-0.6170638799667358,0.3381633460521698,0.12769202888011932,0.3612545132637024,0.3183414936065674,-0.29980388283729553,0.23861698806285858,0.022432386875152588,-0.45399338006973267,0.9507388472557068,-1.3153690099716187,0.6735738515853882,-4.383317470550537,-5.097133159637451,-2.951077699661255,-0.7431322336196899,-0.9418829083442688,3.807833194732666,-0.1821776032447815,-1.6759213209152222
-0.13455112278461456,-0.20426435768604279,-0.011384397745132446,0.4950410723686218,-0.007519412785768509,-0.8742315769195557,1.3727378845214844,-0.19296854734420776,-0.1258937120437622,-0.17135967314243317,0.4385796785354614,-0.3248995542526245,0.26353541016578674,-1.3198262453079224,-0.5005770921707153,-0.8000733852386475,0.0819777399301529,-0.008409158326685429,0.233872190117836,0.03469391167163849,-0.5432884693145752,-0.2781798243522644,0.07967372238636017,0.03464323282241821,-0.06626398861408234,-0.4904513955116272,0.24901139736175537,0.09896714985370636,0.08184581249952316,0.6122136116027832,-0.1783970296382904,0.25662145018577576,-0.4310820698738098,-0.7611147165298462,0.35887953639030457,-0.7668924927711487,0.8703826665878296,-5.3168416023254395,-4.345481872558594,-3.114037036895752,-0.16380420327186584,0.5950067639350891,3.0708425045013428,0.3441675305366516,-2.883368492126465
-0.09212802350521088,-0.10409620404243469,0.04664311930537224,0.4424639344215393,-0.04976721480488777,-0.876166582107544,1.3727378845214844,-0.19296854734420776,-0.12580645084381104,-0.2981981039047241,0.4539380371570587,-0.2567000389099121,0.21136821806430817,-1.453670620918274,-0.38736873865127563,-0.7347899079322815,0.014176322147250175,0.2769952416419983,0.18207895755767822,0.17570476233959198,-0.7330961227416992,-0.29830121994018555,0.018260199576616287,0.09466081112623215,-0.16780221462249756,-0.16269010305404663,0.2824125289916992,0.3000818192958832,-0.4227609634399414,0.5449897050857544,-0.11647476255893707,-0.20597906410694122,-0.43855342268943787,-1.3317344188690186,0.32453465461730957,-0.25933417677879333,0.6486525535583496,-5.463461875915527,-4.222436904907227,-2.8953487873077393,-0.6014781594276428,1.717010259628296,2.2394931316375732,1.267950415611267,-3.496600389480591
-0.08893884718418121,-0.009634241461753845,0.07640410959720612,0.43881067633628845,-0.04796866700053215,-0.8948502540588379,1.3727378845214844,-0.19296854734420776,-0.1273719072341919,-0.42886775732040405,0.45295438170433044,-0.25470200181007385,0.13288730382919312,-1.4744627475738525,-0.30288276076316833,-0.6483293175697327,-0.22463807463645935,0.47950029373168945,0.1560075283050537,0.22063328325748444,-0.816877543926239,-0.21227197349071503,-0.03729471191763878,0.08964133262634277,-0.2293047159910202,0.08581662178039551,0.16830800473690033,0.26452192664146423,-0.5556899905204773,0.36317673325538635,-0.1380368322134018,0.3183160722255707,-0.13797540962696075,-1.7288343906402588,1.1415129899978638,-0.4531899094581604,-0.015303045511245728,-5.429612636566162,-4.076723098754883,-2.160964250564575,-1.1549550294876099,2.378480911254883,2.2092833518981934,1.9479790925979614,-3.5772533416748047
-0.13378123939037323,-0.004440944641828537,-0.02941872552037239,0.4222279191017151,-0.05018996074795723,-0.8553816676139832,1.3727378845214844,-0.19296854734420776,-0.126684308052063,-0.4655575752258301,0.45769718289375305,-0.25165891647338867,0.009624464437365532,-1.3999699354171753,-0.23100607097148895,-0.5625957250595093,-0.46940723061561584,0.5692898035049438,0.14823070168495178,0.23663298785686493,-0.8139700293540955,-0.05576148256659508,0.05302169546484947,0.0009198725456371903,-0.309430330991745,0.2786778509616852,0.19791439175605774,0.15562789142131805,-0.5530373454093933,0.14946198463439941,0.006537288427352905,-0.09338345378637314,0.0906972885131836,-1.7870676517486572,1.8969528675079346,-1.2747623920440674,-0.5286819934844971,-5.168748378753662,-2.913259983062744,-1.966513752937317,-2.1114695072174072,2.5268990993499756,2.205763578414917,2.1599924564361572,-3.307290554046631
-0.07410445809364319,-0.04831356182694435,-0.03346836939454079,0.39010894298553467,0.00553528219461441,-0.9028671979904175,1.3727378845214844,-0.19296854734420776,-0.12481176853179932,-0.4846888482570648,0.45820921659469604,-0.23845648765563965,-0.06371050328016281,-1.2963887453079224,-0.14865966141223907,-0.4740270972251892,-0.6656322479248047,0.6525499820709229,0.15426279604434967,0.21253326535224915,-0.7523666024208069,-0.035654112696647644,0.0632939338684082,0.019932180643081665,-0.189418762922287,0.3801918923854828,0.1329108476638794,0.2174447774887085,-0.32391810417175293,0.12393686920404434,0.07780076563358307,-0.031081218272447586,0.054096437990665436,-1.7554547786712646,1.7670955657958984,-1.5289149284362793,-0.4993140995502472,-4.960396766662598,-2.299659252166748,-1.4157177209854126,-2.6703481674194336,2.780505418777466,1.6483720541000366,2.0880632400512695,-2.919124126434326
-0.04505862668156624,0.12591387331485748,-0.001326289027929306,0.39003756642341614,-0.026464976370334625,-0.9452532529830933,1.3727378845214844,-0.19296854734420776,-0.12258255481719971,-0.4655211269855499,0.48096397519111633,-0.21191714704036713,-0.098080575466156,-1.1573771238327026,-0.07703918218612671,-0.40419802069664,-0.7912818193435669,0.6555744409561157,0.18111266195774078,0.22557173669338226,-0.6862625479698181,0.10561928898096085,0.001917207264341414,-0.02526596002280712,-0.03219955787062645,0.28451094031333923,0.2117154598236084,0.1568622589111328,-0.21031463146209717,-0.05412587150931358,0.015963518992066383,0.002263027476146817,0.040148235857486725,-1.2725673913955688,1.3693695068359375,-1.183005690574646,-0.36109933257102966,-4.383255481719971,-1.472776174545288,-1.3686587810516357,-3.1281116008758545,2.8208956718444824,0.7691424489021301,2.020432472229004,-2.6276025772094727
0.14716550707817078,0.021205324679613113,-0.08326297253370285,0.4452074468135834,0.01997285708785057,-0.9087321758270264,1.3727378845214844,-0.19296854734420776,-0.11928427219390869,-0.4100514054298401,0.4896029233932495,-0.21559345722198486,-0.12158237397670746,-1.0022598505020142,-0.002293203491717577,-0.3188486397266388,-0.8940994739532471,0.6008846163749695,-0.099152572453022,0.2277684509754181,-0.48140212893486023,-0.029278546571731567,-0.0205442663282156,-0.041834987699985504,-0.04841621592640877,0.40834537148475647,0.060880791395902634,0.244790181517601,-0.16588197648525238,-0.6392660140991211,-0.5433031916618347,0.1095498576760292,0.46767178177833557,-1.0168946981430054,1.5656371116638184,-0.9153057932853699,-0.38041630387306213,-3.4680259227752686,-0.5403669476509094,-1.1597604751586914,-3.5620839595794678,3.7961838245391846,-1.2074517011642456,1.2898187637329102,-1.472955584526062
-0.05413883179426193,-0.10255618393421173,-0.08298957347869873,0.47765326499938965,0.02449565753340721,-0.8579618334770203,1.3727378845214844,-0.19296854734420776,-0.11665117740631104,-0.38504111766815186,0.45489501953125,-0.191153421998024,-0.08445048332214355,-0.8466305136680603,0.004895400255918503,-0.25184300541877747,-0.9711936712265015,0.4607507288455963,-0.3963104784488678,0.25610223412513733,-0.3140535354614258,0.13217942416667938,-0.07105281949043274,0.06051800400018692,0.14747114479541779,0.3888936936855316,-0.12087922543287277,0.15410032868385315,-0.11737094074487686,-0.24996724724769592,-0.7366200685501099,-0.001959478948265314,0.34510335326194763,-0.48621100187301636,1.421915888786316,-0.6969408988952637,0.05089673399925232,-3.664867401123047,-0.20166340470314026,-1.6973791122436523,-4.015039443969727,4.283173084259033,-2.8996827602386475,1.1259760856628418,-0.9472527503967285
-0.08971427381038666,-0.19464586675167084,0.06201193109154701,0.4601016044616699,0.04372205212712288,-0.9088343977928162,1.3727378845214844,-0.19296854734420776,-0.11639845371246338,-0.3350960910320282,0.37518399953842163,-0.17869268357753754,0.014588560909032822,-0.8035107254981995,-0.1448947936296463,-0.17849569022655487,-1.0176948308944702,0.5272080302238464,-0.6508495807647705,0.17594769597053528,-0.16495412588119507,0.11994701623916626,-0.22048532962799072,0.10608752071857452,0.3171747624874115,-0.06724032014608383,-0.5074612498283386,0.1965206414461136,0.006717324256896973,0.4550800323486328,-0.4729751646518707,0.09138526767492294,0.20688359439373016,-0.7489280104637146,0.9940945506095886,-0.6923488974571228,0.3995477259159088,-4.321554660797119,-1.222671627998352,-1.1728562116622925,-3.7164978981018066,3.146104574203491,-3.3712570667266846,0.1836847960948944,-0.3121178448200226
-0.21279992163181305,-0.040537286549806595,-0.05976755917072296,0.4536570906639099,-0.028408905491232872,-0.9515860676765442,1.3727378845214844,-0.19296854734420776,-0.11560499668121338,-0.2763861119747162,0.2404632717370987,-0.2095307558774948,0.13052812218666077,-0.8469715118408203,-0.49502047896385193,-0.08171196281909943,-0.9880338311195374,0.6698145866394043,-0.6251323819160461,-0.011652187444269657,-0.06583968549966812,0.249473437666893,-0.3438926637172699,-0.07715045660734177,0.25567612051963806,-0.026513630524277687,-0.8639381527900696,0.11334679275751114,0.13227951526641846,0.1462823897600174,0.007249427028000355,-0.39830780029296875,0.09614699333906174,-0.635113000869751,0.7684322595596313,-1.1479700803756714,0.5089478492736816,-3.727438449859619,-3.0488672256469727,-0.8831919431686401,-3.74301815032959,2.811716079711914,-2.5522711277008057,-0.6322655081748962,-0.12530921399593353
0.06047592684626579,-0.05653464421629906,0.02448391541838646,0.4257257878780365,0.051376793533563614,-0.8615589141845703,1.3727378845214844,-0.19296854734420776,-0.11657774448394775,-0.23649249970912933,0.14077529311180115,-0.21101713180541992,0.2320491373538971,-0.8367828726768494,-0.8056226372718811,-0.030145322903990746,-0.941825270652771,0.6420691013336182,-0.38139206171035767,-0.15533755719661713,-0.05723967403173447,0.07698018848896027,-0.1251733899116516,0.009424090385437012,0.2164449691772461,0.5936041474342346,-0.680651068687439,0.32396450638771057,0.15996848046779633,-0.171986386179924,0.5677193999290466,-0.1863400787115097,0.020582759752869606,-1.5584739446640015,0.6431904435157776,-0.7697927951812744,1.1562607288360596,-4.368414878845215,-3.6590771675109863,-0.7848423719406128,-3.600111246109009,3.9816484451293945,-1.0859718322753906,-1.3536385297775269,-0.17040172219276428
0.20703254640102386,-0.25325578451156616,0.11443577706813812,0.45333003997802734,0.012267660349607468,-0.892585277557373,1.3727378845214844,-0.19296854734420776,-0.11953651905059814,-0.22994524240493774,0.11962280422449112,-0.24273763597011566,0.3124571740627289,-0.6908544301986694,-1.053916573524475,0.06496357172727585,-0.8708621263504028,0.5001896619796753,-0.16753797233104706,-0.4693445563316345,-0.01687326841056347,-0.08090469241142273,0.0694449171423912,-0.02808769978582859,0.12473390251398087,0.3372064530849457,-0.5254920721054077,0.04838230833411217,0.25709038972854614,-0.2787216305732727,0.2630431354045868,-0.6223931312561035,0.12867601215839386,-0.5411065816879272,0.7145404815673828,-0.9820436835289001,1.256352424621582,-5.391537666320801,-4.398626327514648,-0.14559246599674225,-3.223283529281616,3.86981201171875,-0.3944489359855652,-2.848916530609131,0.0064473748207092285
0.1944924294948578,-0.43314284086227417,0.0011464506387710571,0.3524259030818939,0.012986775487661362,-0.9112717509269714,1.3727378845214844,-0.19296854734420776,-0.12074530124664307,-0.24272657930850983,0.18484574556350708,-0.29489824175834656,0.32278773188591003,-0.5623453855514526,-1.233398675918579,0.05499759316444397,-0.8490892648696899,0.4200635254383087,0.09088704735040665,-0.7605685591697693,0.23275524377822876,-0.0774029865860939,0.22470812499523163,-0.11779042333364487,-0.019062532112002373,0.301901251077652,-0.2937122583389282,-0.21438255906105042,0.1636064052581787,-0.20109693706035614,0.4523645043373108,-0.6387025713920593,0.483149915933609,0.3295387029647827,1.0667765140533447,-1.4938654899597168,0.8503432273864746,-4.486955642700195,-4.790591716766357,-0.19931384921073914,-3.332430362701416,3.288433790206909,0.8766615986824036,-3.8528435230255127,1.2705974578857422
0.08929257094860077,-0.1813332885503769,-0.04756293445825577,0.3549467623233795,-0.015645913779735565,-0.9088674187660217,1.3727378845214844,-0.19296854734420776,-0.119698166847229,-0.23344504833221436,0.28406593203544617,-0.36061200499534607,0.3238396942615509,-0.4273039400577545,-1.3247624635696411,-0.1170799657702446,-0.7395691275596619,0.3814968764781952,0.2848982810974121,-0.8569735884666443,0.16223903000354767,0.02408757247030735,0.19559550285339355,-0.17349733412265778,0.04328203201293945,0.2986706495285034,-0.051092684268951416,-0.500809371471405,0.44585728645324707,-0.07341926544904709,0.33791571855545044,-0.049336571246385574,-0.3321983814239502,-0.02074507251381874,1.0830403566360474,-1.6747336387634277,0.6863274574279785,-2.7749881744384766,-4.909062385559082,-0.7356328964233398,-3.8901448249816895,2.356292486190796,1.5535238981246948,-3.494259834289551,2.972642183303833
0.15664853155612946,-0.15151646733283997,0.006151583045721054,0.37346482276916504,-0.0451689139008522,-0.8902528882026672,1.3727378845214844,-0.19296854734420776,-0.11778748035430908,-0.2247326523065567,0.35546112060546875,-0.375285267829895,0.3368575870990753,-0.33176758885383606,-1.2990050315856934,-0.290612131357193,-0.5923458337783813,0.36665257811546326,0.4075865149497986,-0.8113622069358826,0.04664052277803421,-0.048747848719358444,0.10724055767059326,0.009885859675705433,-0.056340541690588,0.284894198179245,0.08636697381734848,-0.3307466506958008,0.3270908296108246,-0.024850642308592796,0.18065884709358215,0.1346544772386551,-0.2506120204925537,-0.6854439973831177,1.4189684391021729,-0.8527474999427795,0.007641851902008057,-2.693636417388916,-4.542900562286377,-1.0367186069488525,-3.1596028804779053,2.447226047515869,1.9740979671478271,-3.3372857570648193,3.446720838546753
0.16191473603248596,-0.043794866651296616,-0.14249253273010254,0.28934362530708313,0.0017343126237392426,-0.9575238227844238,1.3727378845214844,-0.19296854734420776,-0.11426222324371338,-0.2249954640865326,0.44728049635887146,-0.3537026047706604,0.3391464352607727,-0.26923826336860657,-1.2038670778274536,-0.4344383180141449,-0.4803650379180908,0.35331931710243225,0.449988454580307,-0.7583053112030029,-0.023430194705724716,-0.019285893067717552,0.1970992535352707,-0.0018896699184551835,-0.05707317590713501,0.23502503335475922,0.22274766862392426,-0.3607419431209564,0.344689279794693,0.0002764344390016049,0.09453383833169937,0.0770028755068779,-0.12184392660856247,-0.3273600935935974,2.009657859802246,-0.8999611139297485,-0.01714034378528595,-2.7452774047851562,-4.355372428894043,-1.8635478019714355,-2.321380615234375,2.8253097534179688,1.8746898174285889,-3.02744197845459,2.8779561519622803
-0.01569383218884468,-0.026895545423030853,-0.0634155422449112,0.3607841432094574,-0.014435488730669022,-0.9099329113960266,1.3727378845214844,-0.19296854734420776,-0.11191856861114502,-0.19524507224559784,0.4968883991241455,-0.2882330119609833,0.3678396940231323,-0.1955329179763794,-1.0449658632278442,-0.6184044480323792,-0.3834959864616394,0.3824178874492645,0.36338403820991516,-0.6066414713859558,-0.06197391450405121,0.06449808925390244,0.08541810512542725,0.17235875129699707,-0.0394122414290905,0.13168151676654816,0.46298104524612427,-0.40454578399658203,0.24071912467479706,0.04386138916015625,-0.03747520595788956,0.3627735674381256,-0.10397261381149292,-0.4563586711883545,1.6237757205963135,-0.6712000370025635,1.3306552171707153,-2.5246992111206055,-3.7463817596435547,-2.697697401046753,-1.129184603691101,2.6995372772216797,1.2203904390335083,-2.2434401512145996,2.1279191970825195
-0.021420873701572418,0.009631674736738205,0.012799415737390518,0.28872114419937134,0.02762821689248085,-0.9672486782073975,1.3727378845214844,-0.19296854734420776,-0.11134254932403564,-0.187769815325737,0.48961400985717773,-0.24245372414588928,0.38249775767326355,-0.14783479273319244,-0.8978054523468018,-0.7700382471084595,-0.2818363606929779,0.40764370560646057,0.38223013281822205,-0.5106525421142578,-0.07333720475435257,0.07905800640583038,-0.14843891561031342,-0.022133750841021538,0.10408388823270798,0.14650623500347137,0.4075101912021637,-0.319506973028183,0.1531756967306137,0.03815143182873726,0.14187629520893097,0.1378844827413559,-0.018172651529312134,-0.33847230672836304,1.2314778566360474,-0.8945879936218262,1.7763028144836426,-1.8624848127365112,-3.487701177597046,-3.170337200164795,-0.7478628158569336,2.140199899673462,1.4081623554229736,-1.9222112894058228,1.6391146183013916
0.03649202361702919,0.16900311410427094,0.016021084040403366,0.2962550222873688,-0.035051070153713226,-0.9287601113319397,1.3727378845214844,-0.19296854734420776,-0.11120760440826416,-0.171402245759964,0.46434181928634644,-0.23620818555355072,0.3877433240413666,-0.10262662172317505,-0.808576226234436,-0.8943843841552734,-0.2352679967880249,0.40691497921943665,0.4008869230747223,-0.3098200857639313,-0.06859301775693893,0.09484300762414932,0.018936920911073685,-0.0392833836376667,-0.002089435001835227,0.06147728115320206,0.22703838348388672,-0.24104999005794525,0.12757430970668793,0.005130279343575239,0.10013794898986816,0.29949548840522766,0.06036777421832085,-0.6768976449966431,1.8891656398773193,-0.8665876984596252,1.1338508129119873,-1.6732301712036133,-3.3548834323883057,-3.403297185897827,-0.6525726914405823,1.620477557182312,1.5493979454040527,-0.8921534419059753,1.3555585145950317
0.03483464941382408,0.35926395654678345,-0.024617649614810944,0.32592931389808655,-0.02190231904387474,-0.9081880450248718,1.3727378845214844,-0.19296854734420776,-0.11010849475860596,-0.16060686111450195,0.4326900839805603,-0.2607460618019104,0.38531550765037537,-0.005776653066277504,-0.8021438121795654,-0.9517857432365417,-0.17133112251758575,0.13072411715984344,0.6333320736885071,-0.14384794235229492,-0.035036418586969376,0.0795433446764946,-0.12576088309288025,-0.03338838741183281,0.034786831587553024,0.09796652942895889,0.07600798457860947,-0.09660925716161728,0.1330142319202423,-0.6191048622131348,0.3045569062232971,0.2906055450439453,0.10198533535003662,-0.3007446527481079,1.4970848560333252,-1.2329918146133423,1.095330834388733,-0.49543672800064087,-3.241612195968628,-3.4952290058135986,-0.46408790349960327,-0.36789631843566895,2.901104211807251,-0.16520163416862488,0.7413331270217896
