Huisouan/isaac-rl-lab/algo_obs.csv
base_ang_vel_x,base_ang_vel_y,base_ang_vel_z,projected_gravity_x,projected_gravity_y,projected_gravity_z,velocity_command_x,velocity_command_y,velocity_command_z,joint_pos_0,joint_pos_1,joint_pos_2,joint_pos_3,joint_pos_4,joint_pos_5,joint_pos_6,joint_pos_7,joint_pos_8,joint_pos_9,joint_pos_10,joint_pos_11,joint_vel_0,joint_vel_1,joint_vel_2,joint_vel_3,joint_vel_4,joint_vel_5,joint_vel_6,joint_vel_7,joint_vel_8,joint_vel_9,joint_vel_10,joint_vel_11,action_0,action_1,action_2,action_3,action_4,action_5,action_6,action_7,action_8,action_9,action_10,action_11
1.0810850858688354,-0.6463714241981506,-0.029074659571051598,-0.051948096603155136,-0.02592746540904045,-0.980073869228363,-0.8526499271392822,-0.6205015182495117,-0.23030972480773926,-0.19744156301021576,0.20209185779094696,-0.15992189943790436,0.04337063431739807,-1.6003414392471313,-0.0912887379527092,-1.0771446228027344,-0.9752698540687561,-0.4280632734298706,0.5125390291213989,-0.6558157801628113,0.25863033533096313,-0.019155049696564674,-0.15597999095916748,-0.4511118531227112,-0.35409218072891235,1.234344720840454,0.15094494819641113,0.5424851775169373,1.0152796506881714,-0.15527360141277313,0.18949006497859955,0.8327871561050415,-0.8384925723075867,-0.4067695140838623,0.9414048194885254,-1.6908411979675293,0.15248847007751465,-2.6109485626220703,-0.41998475790023804,-2.866173028945923,-1.5003612041473389,-2.3208768367767334,2.285308599472046,2.8900146484375,-0.6263134479522705
0.39693349599838257,-0.6623939275741577,-0.004727665334939957,-0.08100534975528717,-0.08943046629428864,-0.9745319485664368,-0.8526499271392822,-0.6205015182495117,-0.2281891107559204,-0.177892804145813,0.16982032358646393,-0.21962305903434753,-0.02306292951107025,-1.1560829877853394,-0.07845084369182587,-0.8123137950897217,-0.616206705570221,-0.3422398269176483,0.5263542532920837,-0.33463239669799805,-0.050156429409980774,0.08630352467298508,-0.030536144971847534,-0.06736245006322861,-0.10014815628528595,0.9758709073066711,0.011017478071153164,0.5332361459732056,0.8199579119682312,0.2331678867340088,0.07504471391439438,0.7788382768630981,-0.7055874466896057,-0.6091378927230835,0.9681310653686523,-0.828575074672699,-0.20790255069732666,-3.1335561275482178,-1.439127802848816,-2.2551045417785645,-2.664292097091675,-1.3735811710357666,1.7843666076660156,2.0017166137695312,-1.5215857028961182
0.1268199235200882,-0.5582729578018188,-0.010903246700763702,-0.10657896101474762,-0.09196504950523376,-0.9979901909828186,-0.8526499271392822,-0.6205015182495117,-0.22484993934631348,-0.17202523350715637,0.19998781383037567,-0.26529908180236816,-0.04705722630023956,-0.7736561894416809,-0.1075676754117012,-0.6497434973716736,-0.3699799180030823,-0.24302168190479279,0.4348122179508209,-0.023435447365045547,-0.35447072982788086,0.024484116584062576,0.11656315624713898,-0.12221743911504745,-0.011335509829223156,0.9510716795921326,-0.23581643402576447,0.2841953635215759,0.4168854355812073,0.3114093542098999,-0.11272958666086197,0.7143424153327942,-0.5854396224021912,-0.6708102226257324,1.2832672595977783,-1.1631146669387817,-0.22501087188720703,-2.15120005607605,-1.574691891670227,-2.407916307449341,-1.72066068649292,-0.8272489309310913,1.242203712463379,1.9469001293182373,-2.3208651542663574
0.022147763520479202,-0.5363212823867798,-0.06985176354646683,-0.1538185477256775,-0.10710546374320984,-0.9387566447257996,-0.8526499271392822,-0.6205015182495117,-0.2203446626663208,-0.16188225150108337,0.2644462287425995,-0.31369534134864807,-0.06488271802663803,-0.4244869351387024,-0.21334199607372284,-0.5787069797515869,-0.22552332282066345,-0.054712384939193726,0.39635613560676575,0.24433232843875885,-0.5402657389640808,-0.048840444535017014,0.22384069859981537,-0.02198871411383152,-0.00305082811973989,0.7294894456863403,-0.23773491382598877,0.1602909117937088,0.308134526014328,0.344123899936676,-0.17118044197559357,-0.0619736909866333,-0.32670077681541443,-0.49528664350509644,1.468130111694336,-1.5818257331848145,-0.33198869228363037,-0.8385676741600037,-1.0824633836746216,-2.290968179702759,-0.9224420785903931,0.14593692123889923,1.4074385166168213,3.082380771636963,-2.508051872253418
0.3711036741733551,-0.167296901345253,0.061689551919698715,-0.17856524884700775,-0.11918999254703522,-0.9586650729179382,-0.8526499271392822,-0.6205015182495117,-0.21946394443511963,-0.17817984521389008,0.3490011692047119,-0.32558897137641907,-0.06041571497917175,-0.20002204179763794,-0.3159177303314209,-0.4895332157611847,-0.12105771154165268,0.19499829411506653,0.4348735511302948,0.10532175004482269,-0.578944981098175,-0.09069154411554337,0.12873399257659912,-0.06071222946047783,0.10133007913827896,0.5366730093955994,-0.23025362193584442,0.14331379532814026,0.24198201298713684,0.46900779008865356,0.11992960423231125,-0.33313295245170593,-0.06511461734771729,-0.61831134557724,1.8550293445587158,-1.5826159715652466,-0.062374405562877655,-0.3874884843826294,-0.7331441640853882,-2.543288230895996,-0.27308928966522217,1.119156837463379,2.038621664047241,3.893958568572998,-2.3221640586853027
-0.2530974745750427,0.031061287969350815,0.13528339564800262,-0.25396978855133057,-0.119283527135849,-1.0083307027816772,-0.8526499271392822,-0.6205015182495117,-0.22242951393127441,-0.14487001299858093,0.3739834427833557,-0.330783486366272,-0.022882523015141487,-0.12595728039741516,-0.32190173864364624,-0.48339012265205383,-0.11961569637060165,0.4813983738422394,0.44347456097602844,0.01812443695962429,-0.5020446181297302,0.09766700118780136,0.08499681949615479,0.06584470719099045,0.10890686511993408,0.1584441214799881,0.059783827513456345,0.10240950435400009,0.0027595162391662598,0.6138080954551697,-0.37713441252708435,-0.1914992481470108,0.08776599168777466,-0.1557321548461914,2.5179224014282227,-1.4318040609359741,-0.4077484607696533,-0.8543996810913086,-1.643959403038025,-2.1262011528015137,-0.5090144872665405,2.4563841819763184,3.7604660987854004,3.450660467147827,-2.034147024154663
0.037538234144449234,-0.19023780524730682,-0.039655521512031555,-0.25645682215690613,-0.13397197425365448,-0.9470788240432739,-0.8526499271392822,-0.6205015182495117,-0.22318792343139648,-0.12866108119487762,0.3953142464160919,-0.3035084903240204,0.010754076763987541,-0.09787409752607346,-0.31221744418144226,-0.47511860728263855,-0.10351444780826569,0.5717065930366516,0.373855859041214,-0.046858422458171844,-0.5233880877494812,0.08278985321521759,-0.016155673190951347,0.060727931559085846,0.06359817832708359,0.04670577123761177,0.14314500987529755,0.09581368416547775,0.1256178468465805,-0.1360524743795395,-0.24623481929302216,-0.12664930522441864,-0.03504089638590813,-0.639056384563446,4.1067328453063965,-2.832420825958252,-0.35351547598838806,-0.9727253913879395,-2.7117762565612793,-2.0725722312927246,-0.2101106345653534,3.26729154586792,3.222047805786133,2.4700889587402344,-2.2049765586853027
-0.3779432475566864,-0.10951755195856094,-0.03335871174931526,-0.23089726269245148,-0.10125510394573212,-0.9569370746612549,-0.8526499271392822,-0.6205015182495117,-0.221382737159729,-0.08645796030759811,0.447747141122818,-0.2721184492111206,0.1271006017923355,-0.0881309062242508,-0.33271199464797974,-0.47794708609580994,-0.020632825791835785,0.5378314852714539,0.35831013321876526,-0.06544968485832214,-0.6495316028594971,0.10547961294651031,0.1313726156949997,0.08346076309680939,0.34152817726135254,0.013726509176194668,-0.09061912447214127,-0.07599542289972305,0.15590892732143402,-0.13706307113170624,-0.10663383454084396,-0.15384581685066223,-0.228582963347435,0.018195845186710358,3.6779539585113525,-2.0437211990356445,0.48537275195121765,-0.6567494869232178,-2.2747232913970947,-3.0046424865722656,0.3230069577693939,2.7360942363739014,2.706916570663452,3.7191367149353027,-2.8432276248931885
-0.2670430541038513,0.0329483263194561,-0.037280187010765076,-0.19429035484790802,-0.09541766345500946,-0.9579473733901978,-0.8526499271392822,-0.6205015182495117,-0.219427227973938,-0.04096880555152893,0.48029547929763794,-0.22847743332386017,0.21023470163345337,-0.08030912280082703,-0.3489445745944977,-0.4953555762767792,0.07772481441497803,0.484474778175354,0.3726605772972107,-0.07470706105232239,-0.651654064655304,0.038458824157714844,0.07684389501810074,0.07144745439291,0.1452050507068634,-0.01883171871304512,0.001165837049484253,-0.07187094539403915,0.18516471982002258,-0.21914134919643402,-0.007924431934952736,0.03969144821166992,0.06506090611219406,-0.0781724750995636,3.1527676582336426,-1.1263811588287354,0.5680809020996094,0.005737170577049255,-1.7269041538238525,-2.886934995651245,0.8373652100563049,1.9218170642852783,2.414846658706665,3.9746079444885254,-2.620806932449341
0.07712778449058533,0.02036634460091591,-0.07028278708457947,-0.24099552631378174,-0.12132346630096436,-0.9948310852050781,-0.8526499271392822,-0.6205015182495117,-0.217911958694458,-0.07881097495555878,0.5063887238502502,-0.19905170798301697,0.23776377737522125,-0.012573996558785439,-0.3926306962966919,-0.5512351989746094,0.163005530834198,0.3469576835632324,0.36389344930648804,-0.06654465943574905,-0.5906205177307129,-0.16832515597343445,0.04605382680892944,-0.014621364884078503,-0.01147877611219883,0.10882873833179474,-0.04838832840323448,-0.18864011764526367,0.2590756416320801,-0.1605340540409088,-0.06869606673717499,0.08377553522586823,0.059654880315065384,-0.5615904927253723,2.864379644393921,-0.7900712490081787,0.7352204322814941,0.4855097532272339,-1.681840181350708,-2.550523042678833,0.9348676204681396,1.2072018384933472,2.4835193157196045,3.5416603088378906,-2.3690900802612305
0.11849039793014526,0.03039001300930977,0.007911544293165207,-0.21874655783176422,-0.13181716203689575,-0.9535678029060364,-0.8526499271392822,-0.6205015182495117,-0.2177886962890625,-0.1432199627161026,0.5344849228858948,-0.1804344356060028,0.23190869390964508,0.07122712582349777,-0.4142865538597107,-0.5971968770027161,0.17402403056621552,0.24798054993152618,0.3574766516685486,-0.04847019910812378,-0.5532000064849854,-0.19050076603889465,-0.008848321624100208,0.09533270448446274,0.13316035270690918,0.05938151106238365,-0.09970029443502426,-0.11205114424228668,-0.10492856800556183,-0.08197366446256638,0.013670808635652065,0.05717680603265762,-0.0491337776184082,-0.9737194180488586,2.4375839233398438,-0.31990888714790344,0.8617451190948486,0.7367215156555176,-1.4143153429031372,-2.0034995079040527,1.0043597221374512,1.0330564975738525,2.0803487300872803,3.3066821098327637,-1.4220881462097168
0.3127020299434662,0.1832997053861618,-0.012292005121707916,-0.17663075029850006,-0.1499749720096588,-0.97230064868927,-0.8526499271392822,-0.6205015182495117,-0.21901309490203857,-0.1430000364780426,0.5481234192848206,-0.16855688393115997,0.247691348195076,0.050348542630672455,-0.3745356798171997,-0.6853594779968262,0.12085013836622238,0.1898602992296219,0.1517891138792038,0.016759851947426796,-0.586299479007721,0.011645162478089333,-0.08823072165250778,0.008601593784987926,0.009494769386947155,-0.11768583208322525,0.12806759774684906,-0.2611212730407715,-0.08155794441699982,-0.032719917595386505,-0.36164113879203796,0.14887027442455292,-0.07621061056852341,-0.8851252794265747,1.944921612739563,-0.16044017672538757,1.036676287651062,0.7209829688072205,-0.9624776244163513,-1.398816704750061,-0.2317754626274109,1.940474510192871,0.30695921182632446,1.6696351766586304,0.33256855607032776
0.10228101909160614,0.21627311408519745,-0.006137065589427948,-0.14864873886108398,-0.10905039310455322,-0.933996319770813,-0.8526499271392822,-0.6205015182495117,-0.21844828128814697,-0.11340666562318802,0.5077493786811829,-0.15865209698677063,0.2881351113319397,0.012733470648527145,-0.24324503540992737,-0.5567394495010376,0.05399999022483826,0.16021005809307098,-0.15759746730327606,-0.28714218735694885,-0.5961875915527344,-0.002473437925800681,-0.14243446290493011,0.08004798740148544,0.1501229852437973,-0.12112511694431305,0.3023020625114441,0.4416082799434662,-0.245144322514534,-0.15796148777008057,-0.6999684572219849,-0.6619033217430115,-0.08190182596445084,-0.45154720544815063,1.0108379125595093,-0.1252807080745697,2.0201432704925537,-0.18135708570480347,-0.38670235872268677,-0.9443598985671997,-1.1778234243392944,2.6964468955993652,-1.6744961738586426,-1.722594141960144,1.0146536827087402
0.12586471438407898,0.2555299401283264,-0.09620967507362366,-0.17612087726593018,-0.16877274215221405,-0.9372907876968384,-0.8526499271392822,-0.6205015182495117,-0.2166358232498169,-0.11384999752044678,0.3843429982662201,-0.21156993508338928,0.30180254578590393,-0.01984429359436035,-0.08067663758993149,-0.2845713198184967,-0.024391505867242813,0.12089986354112625,-0.4569503962993622,-0.5810048580169678,-0.6119070649147034,0.08357005566358566,-0.38192039728164673,-0.22456303238868713,0.1242142915725708,-0.10439398139715195,0.4174868166446686,0.6948015093803406,-0.2317015677690506,-0.10397537052631378,-0.6515836119651794,-0.5476044416427612,-0.07618862390518188,0.3960396647453308,0.5798949003219604,-1.1513410806655884,2.117450714111328,0.06534230709075928,0.35458534955978394,-0.08375293016433716,-0.7005367279052734,2.556040048599243,-2.5737204551696777,-2.945786237716675,1.4215145111083984
0.2337944656610489,0.25161802768707275,-0.055589061230421066,-0.12417533993721008,-0.2090587168931961,-0.9524644613265991,-0.8526499271392822,-0.6205015182495117,-0.2145155668258667,-0.09643759578466415,0.143845334649086,-0.3637305796146393,0.3178613781929016,-0.04829142987728119,0.1312512904405594,0.06531082093715668,-0.10602528601884842,0.08162848651409149,-0.5283753871917725,-0.730403482913971,-0.6089012622833252,0.124874047935009,-0.6266672015190125,-0.3954389691352844,0.13937604427337646,-0.07070764154195786,0.48262539505958557,0.7434964179992676,-0.19089318811893463,-0.10298006981611252,-0.04545898362994194,-0.1218772903084755,0.049456965178251266,-0.3487033247947693,-0.24147799611091614,-1.8969206809997559,2.3568928241729736,0.5186196565628052,1.4702425003051758,1.097798466682434,-0.33335715532302856,2.044778347015381,-2.3140528202056885,-3.263045310974121,2.249319314956665
-0.02568809688091278,0.320327490568161,-0.042321737855672836,-0.11631517112255096,-0.20968060195446014,-0.9537880420684814,-0.8526499271392822,-0.6205015182495117,-0.21316349506378174,-0.07476431131362915,-0.07288911193609238,-0.5646765232086182,0.3504180908203125,-0.10621952265501022,0.2904362082481384,0.3229125142097473,-0.18795782327651978,0.05887969583272934,-0.3162288963794708,-0.6643291115760803,-0.6065848469734192,0.04340479522943497,-0.3977784812450409,-0.4423087239265442,0.08089321851730347,-0.0769507884979248,0.3001369833946228,0.543472409248352,-0.2672003209590912,-0.06386437267065048,0.35755524039268494,0.2471175640821457,0.024945979937911034,-0.899953305721283,-0.24254846572875977,-2.7271673679351807,1.9045895338058472,0.18774671852588654,1.5068846940994263,1.4400179386138916,-0.740168035030365,1.5429151058197021,-0.8729161620140076,-2.694359540939331,1.9460653066635132
0.2767523229122162,0.1972472220659256,-0.10857968032360077,-0.10329270362854004,-0.24947284162044525,-0.9424110054969788,-0.8526499271392822,-0.6205015182495117,-0.21183359622955322,-0.03770752251148224,-0.08150516450405121,-0.6625012159347534,0.39782097935676575,-0.16110657155513763,0.29908689856529236,0.35588914155960083,-0.27733877301216125,0.06330417096614838,-0.3731924593448639,-0.5589781999588013,-0.593854546546936,0.0238649845123291,0.06206244230270386,-0.09265526384115219,0.1488216370344162,-0.22674880921840668,-0.013122188858687878,-0.08006354421377182,-0.24887721240520477,0.09530279785394669,-0.2504677474498749,0.024406148120760918,0.04020268842577934,-0.995873212814331,0.4422520101070404,-3.2992019653320312,0.8811759948730469,-0.3655216097831726,0.5551941394805908,1.395857810974121,-0.6936783790588379,1.1208492517471313,0.2583921551704407,-1.2042772769927979,1.0584620237350464
-0.10072769224643707,0.18074093759059906,-0.05168062821030617,-0.0964013934135437,-0.2470942586660385,-0.9958811402320862,-0.8526499271392822,-0.6205015182495117,-0.21186280250549316,-0.08036621659994125,-0.03942892700433731,-0.6149320602416992,0.450859010219574,-0.1810641884803772,0.2684168219566345,0.2947596609592438,-0.3916477560997009,-0.12855342030525208,-0.4316123127937317,-0.5648386478424072,-0.5568623542785645,-0.255754292011261,0.12015082687139511,0.14516083896160126,0.09924273937940598,-0.10639510303735733,-0.10437102615833282,-0.2284511774778366,-0.20598502457141876,-0.3083329200744629,-0.11231030523777008,0.0245340708643198,0.07343566417694092,-1.141117811203003,1.4765945672988892,-2.071868896484375,0.8683996200561523,-0.7708881497383118,-0.8474925756454468,0.5588287711143494,-0.927744448184967,-0.8448461890220642,0.6507343053817749,0.36145278811454773,-0.8351486921310425
-0.5106990933418274,0.05508209392428398,-0.07407939434051514,-0.036301713436841965,-0.20668070018291473,-0.9794294834136963,-0.8526499271392822,-0.6205015182495117,-0.2108614444732666,-0.2006249725818634,0.035758741199970245,-0.5529634356498718,0.3767949044704437,-0.14396747946739197,0.22429433465003967,0.22738344967365265,-0.2945684790611267,-0.3967321217060089,-0.4495922327041626,-0.5643070340156555,-0.6164998412132263,-0.3129039406776428,0.1996164321899414,0.13064169883728027,-0.3021731972694397,-0.017661435529589653,-0.0830446407198906,-0.22390210628509521,0.4441983699798584,-0.5878245830535889,-0.1452057808637619,-0.07713009417057037,-0.08919497579336166,-0.9478066563606262,1.683239221572876,-0.6657324433326721,-0.31381574273109436,-0.29172366857528687,-0.9789663553237915,-0.16815724968910217,0.3015194535255432,-2.168510913848877,0.683134138584137,1.7895128726959229,-2.741259813308716
-0.3724629580974579,0.02423280104994774,-0.054855551570653915,-0.11327749490737915,-0.1587734967470169,-1.008562445640564,-0.8526499271392822,-0.6205015182495117,-0.20980405807495117,-0.348516047000885,0.10259352624416351,-0.4775314927101135,0.24799992144107819,-0.08820242434740067,0.14580830931663513,0.14181749522686005,-0.13527072966098785,-0.5091552734375,-0.46577441692352295,-0.5753762125968933,-0.6308343410491943,-0.2915360629558563,0.11321057379245758,0.20880766212940216,-0.23305068910121918,0.22859279811382294,-0.22702161967754364,-0.1594875454902649,0.23694418370723724,-0.1024656668305397,-0.006429606582969427,-0.03568273410201073,-0.060694705694913864,-1.4337289333343506,0.9515829086303711,-2.2761337757110596,0.5442261695861816,0.24127675592899323,-0.8243604302406311,0.080717071890831,-0.06839373707771301,-2.150071382522583,0.5654023289680481,0.8927673101425171,-2.3363518714904785
-0.4078806936740875,0.0702744722366333,0.011608358472585678,-0.08257102966308594,-0.15876644849777222,-1.0320661067962646,-0.8526499271392822,-0.6205015182495117,-0.21048331260681152,-0.4431738555431366,0.1723041832447052,-0.40531936287879944,0.15379488468170166,0.007861146703362465,0.080995112657547,0.06949169933795929,0.02128889225423336,-0.5417417287826538,-0.44283968210220337,-0.5581161975860596,-0.626239538192749,-0.13399247825145721,0.23991265892982483,0.2213050127029419,-0.1947406381368637,0.19054530560970306,-0.1461929827928543,-0.2194957286119461,0.4304138123989105,-0.01654442586004734,0.026927625760436058,-0.01879071071743965,0.17880678176879883,-1.3104729652404785,1.2886707782745361,-2.435844898223877,0.31493452191352844,0.549084484577179,0.5162270069122314,-0.20997460186481476,1.2944788932800293,-2.3438093662261963,0.05828438699245453,1.2946914434432983,-1.7130032777786255
-0.33050188422203064,0.05348270758986473,-0.02316461130976677,-0.026252958923578262,-0.07318359613418579,-0.953361988067627,-0.8526499271392822,-0.6205015182495117,-0.2112199068069458,-0.51630038022995,0.23181818425655365,-0.3232986330986023,0.08715247362852097,0.15361663699150085,0.00960114598274231,-0.02260788530111313,0.165088951587677,-0.5513297319412231,-0.4399346709251404,-0.54311203956604,-0.5689267516136169,-0.10465081036090851,0.11646034568548203,0.1899571418762207,-0.15524591505527496,0.41602063179016113,-0.18682479858398438,-0.14380156993865967,0.3912585377693176,-0.023179931566119194,0.012978619895875454,0.04507050663232803,0.25306153297424316,-1.6900049448013306,1.7742706537246704,-2.3532028198242188,0.13155825436115265,1.1471799612045288,0.17612986266613007,-0.11442305147647858,1.2215917110443115,-2.277639627456665,-0.019290193915367126,1.0641380548477173,-1.6436725854873657
-0.1784321814775467,0.04454891011118889,-0.0027670077979564667,-0.06826218962669373,-0.10626454651355743,-0.9571232199668884,-0.8526499271392822,-0.6205015182495117,-0.21239161491394043,-0.5658040046691895,0.29232895374298096,-0.27133652567863464,0.055627189576625824,0.305582731962204,-0.07136663794517517,-0.10587664693593979,0.27508217096328735,-0.4701851010322571,-0.4398660361766815,-0.49846869707107544,-0.5080739855766296,-0.1275828778743744,0.20310115814208984,0.17929649353027344,-0.15040311217308044,0.3561311662197113,-0.2584409713745117,-0.18698851764202118,0.22028565406799316,0.17897212505340576,0.07840782403945923,0.009385532699525356,0.27781420946121216,-2.246393918991089,1.8778066635131836,-1.830329179763794,0.21960899233818054,1.5356247425079346,0.14836494624614716,-0.12599971890449524,1.2133253812789917,-1.8629791736602783,0.19075097143650055,1.0312256813049316,-1.491304636001587
-0.24618929624557495,0.05140925571322441,0.07430654764175415,-0.03241155669093132,-0.028007064014673233,-0.9680065512657166,-0.8526499271392822,-0.6205015182495117,-0.2136220932006836,-0.5996342897415161,0.3478839695453644,-0.20681071281433105,0.059641025960445404,0.37438589334487915,-0.1463499665260315,-0.19637688994407654,0.30711349844932556,-0.45038142800331116,-0.4025686979293823,-0.4692166745662689,-0.45165014266967773,-0.12979336082935333,0.18832436203956604,0.09593867510557175,-0.06602936238050461,0.10109250992536545,-0.2366785854101181,-0.26982465386390686,0.0033177377190440893,0.15081866085529327,0.038959529250860214,0.05571284517645836,0.38477858901023865,-2.5278658866882324,2.0943548679351807,-1.3281968832015991,0.19304245710372925,1.5932997465133667,0.023485317826271057,0.10163773596286774,1.1416844129562378,-1.3953522443771362,0.601401150226593,0.9747748374938965,-0.9373329877853394
-0.015474725514650345,-0.01371484249830246,-0.08697627484798431,-0.0819731056690216,-0.004107952117919922,-1.00928795337677,-0.8526499271392822,-0.6205015182495117,-0.2122669219970703,-0.5532355904579163,0.40531018376350403,-0.15103940665721893,0.09734290838241577,0.3576241731643677,-0.21589402854442596,-0.26022088527679443,0.2611260712146759,-0.4482031762599945,-0.376123309135437,-0.42782291769981384,-0.4848617613315582,0.14020578563213348,0.13986502587795258,0.0417117141187191,0.14106790721416473,-0.13196653127670288,-0.2348795384168625,-0.11620327085256577,-0.13976795971393585,0.0433046817779541,0.054799437522888184,0.09361608326435089,-0.032721299678087234,-1.6926841735839844,2.242027997970581,-1.635071873664856,0.25235462188720703,1.794788122177124,-0.414581835269928,-0.1422252058982849,0.6929681301116943,-0.5490978360176086,0.1802627593278885,1.3211332559585571,-0.762558102607727
-0.097073033452034,0.051022108644247055,0.026386436074972153,-0.030058864504098892,0.004514638334512711,-1.0385760068893433,-0.8526499271392822,-0.6205015182495117,-0.21111774444580078,-0.5143386125564575,0.4356314241886139,-0.10388899594545364,0.1507399082183838,0.28364449739456177,-0.19776493310928345,-0.3437241315841675,0.20918862521648407,-0.4579377770423889,-0.40920010209083557,-0.36467280983924866,-0.49528393149375916,0.07358574867248535,0.09464981406927109,0.08894683420658112,0.17371217906475067,-0.10416197776794434,0.08504016697406769,-0.19424034655094147,-0.1795291155576706,-0.018413353711366653,-0.0648675262928009,0.12395905703306198,-0.015860378742218018,-0.8592621088027954,1.3333109617233276,-0.4759324789047241,1.3114131689071655,0.8196827173233032,-0.19628024101257324,-1.0050283670425415,0.4197593033313751,0.20230640470981598,-1.7366001605987549,0.7595286965370178,-0.38874852657318115
-0.33038148283958435,0.12850411236286163,-0.11454282701015472,-0.053694967180490494,0.0016499720513820648,-1.0271172523498535,-0.8526499271392822,-0.6205015182495117,-0.20919084548950195,-0.4515227973461151,0.42536747455596924,-0.10609649866819382,0.19063939154148102,0.22634121775627136,-0.11402174085378647,-0.33039090037345886,0.12345608323812485,-0.453860878944397,-0.6000198125839233,-0.37129971385002136,-0.489301860332489,0.185495525598526,-0.11289763450622559,-0.07158871740102768,0.10847953706979752,-0.10361441224813461,0.155711367726326,0.19959484040737152,-0.17607899010181427,-0.08367908000946045,-0.36928144097328186,0.004198354668915272,-0.037599459290504456,-0.2434692680835724,0.805436372756958,-0.6269411444664001,1.3687739372253418,-0.1011941134929657,-0.12994301319122314,-0.404344767332077,-0.24149096012115479,0.41185319423675537,-2.8543474674224854,-1.2244623899459839,0.04503515362739563
-0.1251203566789627,0.21394838392734528,-0.0759538859128952,-0.008092362433671951,-0.00489424541592598,-1.0187209844589233,-0.8526499271392822,-0.6205015182495117,-0.2072232961654663,-0.4054825007915497,0.3086293339729309,-0.1802583485841751,0.24599389731884003,0.1496773064136505,-0.02592555433511734,-0.17816975712776184,0.03955251723527908,-0.4570220708847046,-0.6768170595169067,-0.45406803488731384,-0.45999056100845337,0.12711592018604279,-0.2673620283603668,-0.17621983587741852,0.12413634359836578,-0.18471096456050873,0.27764612436294556,0.3828377425670624,-0.2882182002067566,0.029335999861359596,-0.1809767782688141,-0.09759191423654556,0.13422678411006927,-1.425830602645874,0.6718305349349976,-0.9124752879142761,1.85334050655365,-0.9596914052963257,0.3849342465400696,-0.07883797585964203,0.12158165127038956,0.5815045833587646,-2.932025909423828,-1.9346407651901245,0.1329173445701599
-0.1916617602109909,0.10516597330570221,0.05924001708626747,-0.012052495032548904,-0.003552895039319992,-0.9621216654777527,-0.8526499271392822,-0.6205015182495117,-0.20678699016571045,-0.36544397473335266,0.16449666023254395,-0.3088831305503845,0.28074249625205994,0.07896042615175247,0.112610824406147,0.024835621938109398,-0.0314616933465004,-0.4529161751270294,-0.6727390289306641,-0.5226125717163086,-0.4413939118385315,0.15152287483215332,-0.2592536509037018,-0.27599939703941345,0.11356409639120102,-0.22744838893413544,0.3362657129764557,0.5463906526565552,-0.13595886528491974,0.07461333274841309,0.11978518962860107,-0.12972135841846466,0.05914268642663956,-1.2937690019607544,0.44981446862220764,-1.364815592765808,1.581884741783142,-0.6805737018585205,0.8051190972328186,0.5957930088043213,0.32634952664375305,0.7121037244796753,-2.6893343925476074,-2.3161563873291016,0.3827453553676605
-0.09907518327236176,0.08483953773975372,-0.07256978750228882,-0.03403770178556442,0.045541826635599136,-0.9759363532066345,-0.8526499271392822,-0.6205015182495117,-0.20512890815734863,-0.32169950008392334,0.08730755746364594,-0.48795071244239807,0.327018678188324,0.006275691092014313,0.24291549623012543,0.22841529548168182,-0.10589879006147385,-0.4219519793987274,-0.6347312331199646,-0.48224830627441406,-0.4184482991695404,0.09828870743513107,-0.184540793299675,-0.3629114329814911,0.09631805866956711,-0.21375122666358948,0.3512360751628876,0.4900835156440735,-0.1424744874238968,0.10599180310964584,0.10041763633489609,0.1731421947479248,0.12297313660383224,-0.510330080986023,0.4567342698574066,-2.181483268737793,0.5700147151947021,-0.1864084154367447,1.1214277744293213,1.2898693084716797,-0.36094996333122253,1.1457387208938599,-2.5612995624542236,-1.9257875680923462,0.5868695974349976
-0.10498913377523422,0.05388037487864494,-0.05199176445603371,0.00509294867515564,0.01687745377421379,-0.9811180830001831,-0.8526499271392822,-0.6205015182495117,-0.2035919427871704,-0.26402607560157776,0.04541900008916855,-0.5862295627593994,0.36683058738708496,-0.06904614716768265,0.31637808680534363,0.30824998021125793,-0.19689005613327026,-0.3870941698551178,-0.5307313203811646,-0.32068774104118347,-0.38724052906036377,0.13387472927570343,-0.09652875363826752,-0.16105391085147858,0.09511023014783859,-0.24274973571300507,0.11611641943454742,0.18803291022777557,-0.12924224138259888,0.06197533756494522,0.210261732339859,0.23777678608894348,0.10029619187116623,-0.7932567000389099,0.14819610118865967,-2.1086504459381104,0.966484785079956,-0.4337705969810486,1.342684268951416,1.1828314065933228,-0.2442931830883026,0.83050936460495,-2.0221309661865234,-1.2399104833602905,0.43771305680274963
-0.0816936194896698,-0.036327704787254333,0.020727243274450302,0.03300405666232109,0.05556720867753029,-1.0324900150299072,-0.8526499271392822,-0.6205015182495117,-0.20268559455871582,-0.21994295716285706,0.03435656428337097,-0.5939897298812866,0.39800694584846497,-0.15201735496520996,0.3326362669467926,0.3060098886489868,-0.2657594680786133,-0.33861929178237915,-0.39690667390823364,-0.24050314724445343,-0.36360588669776917,0.07794787734746933,-0.042229827493429184,-0.06722602993249893,0.13933630287647247,-0.19672153890132904,0.006258517503738403,0.0085796182975173,-0.1912861317396164,0.17772860825061798,0.23351497948169708,0.03320138528943062,0.11303489655256271,-0.6420915722846985,0.19036519527435303,-2.2584095001220703,1.3151588439941406,-0.5370191931724548,1.1086199283599854,0.7550410032272339,-0.5200616717338562,0.8722959756851196,-1.4156532287597656,-0.9635884165763855,0.59929358959198
0.11489826440811157,0.06350010633468628,-0.08200989663600922,-0.04103974997997284,0.032775845378637314,-1.0119695663452148,-0.8526499271392822,-0.6205015182495117,-0.2002413272857666,-0.17199839651584625,0.08127561956644058,-0.5630929470062256,0.42802098393440247,-0.2379879653453827,0.31907451152801514,0.2696247100830078,-0.34138062596321106,-0.2798129916191101,-0.3537880480289459,-0.26796793937683105,-0.33126622438430786,0.06830357760190964,0.1191655769944191,0.06579645723104477,0.03125648573040962,-0.2653154730796814,-0.12085123360157013,-0.12468906491994858,-0.15695570409297943,0.15924465656280518,0.03458390384912491,0.016720479354262352,0.12270288914442062,-0.07189509272575378,0.6819922924041748,-2.138559341430664,1.0081055164337158,-0.796066403388977,0.9505025148391724,0.4115293025970459,-0.7842167019844055,1.0580507516860962,-1.3744909763336182,-0.592969536781311,0.1856670081615448
0.2734616994857788,0.02715359255671501,-0.0776483565568924,0.006331246346235275,0.06484436988830566,-1.0248229503631592,-0.8526499271392822,-0.6205015182495117,-0.19728291034698486,-0.13293860852718353,0.11261953413486481,-0.5254358649253845,0.4546995162963867,-0.3049046993255615,0.25706174969673157,0.2248927503824234,-0.3904992938041687,-0.2239430844783783,-0.2318156212568283,-0.28377723693847656,-0.2956056296825409,0.0691770687699318,0.0940239354968071,0.036468591541051865,0.002412086818367243,-0.2403646558523178,-0.08474069088697433,-0.16788554191589355,-0.12184906005859375,0.1333726942539215,0.0004032015858683735,0.01844724453985691,0.12627029418945312,-0.27430230379104614,0.7827944755554199,-1.3341110944747925,1.479362964630127,-0.8060819506645203,1.0023729801177979,0.4727206230163574,-0.8684639930725098,0.3256767988204956,-0.45385992527008057,0.10041642189025879,-0.6070258617401123
-0.17541442811489105,0.017917167395353317,-0.00031807273626327515,0.05425957962870598,0.047452520579099655,-1.032186508178711,-0.8526499271392822,-0.6205015182495117,-0.19612741470336914,-0.10260017961263657,0.16876864433288574,-0.5041223764419556,0.4603007435798645,-0.3695423901081085,0.23016506433486938,0.17473529279232025,-0.41212359070777893,-0.156834214925766,-0.2571674883365631,-0.31149759888648987,-0.30169108510017395,0.027931606397032738,0.16893325746059418,0.1487334817647934,-0.027962524443864822,-0.1756538599729538,-0.054553594440221786,-0.12638023495674133,0.08797196298837662,0.20486636459827423,-0.023870056495070457,-0.08347117155790329,0.049852218478918076,-0.5108181238174438,1.1448651552200317,-0.5345817804336548,1.241358757019043,-1.0103198289871216,0.12765130400657654,-0.03146713972091675,-1.2524276971817017,-0.1590547263622284,0.030775144696235657,0.14553746581077576,-1.208244800567627
-0.07382050156593323,0.06777006387710571,0.03415947034955025,-0.026715261861681938,0.09247158467769623,-1.0250732898712158,-0.8526499271392822,-0.6205015182495117,-0.19629311561584473,-0.05941510200500488,0.20555268228054047,-0.46082162857055664,0.410005122423172,-0.41019928455352783,0.18270373344421387,0.12875770032405853,-0.36967915296554565,-0.14315800368785858,-0.2755657136440277,-0.3192875385284424,-0.3641352951526642,-0.005259019322693348,0.08451924473047256,0.10302729904651642,-0.22238779067993164,-0.01584307663142681,-0.09837549179792404,-0.17748062312602997,0.091471366584301,0.007933747954666615,-0.05284414812922478,-0.10244818031787872,-0.17474626004695892,-0.6224629282951355,1.6633145809173584,-0.940962016582489,0.9558833837509155,-0.8628856539726257,-0.36580342054367065,-0.2612895667552948,-1.1943739652633667,0.06511335074901581,-0.10445685684680939,-0.23696565628051758,-1.7051525115966797
-0.03246743604540825,0.015000414103269577,-0.06324665248394012,0.05303936079144478,0.08346231281757355,-1.004262089729309,-0.8526499271392822,-0.6205015182495117,-0.19538497924804688,-0.03279600292444229,0.24187539517879486,-0.4178641140460968,0.3098371624946594,-0.4827254116535187,0.14312152564525604,0.08842963725328445,-0.28748103976249695,-0.08859755843877792,-0.2951018512248993,-0.331668496131897,-0.45579731464385986,0.08521237224340439,0.09119682759046555,0.1332077533006668,-0.27294543385505676,-0.19086340069770813,-0.08513868600130081,-0.10460392385721207,0.1341729611158371,0.09341486543416977,-0.1053699404001236,-0.024386633187532425,-0.09208124130964279,-0.25929808616638184,2.2423336505889893,-1.7680375576019287,0.6816290616989136,-0.881502628326416,-0.10989624261856079,-0.3753521144390106,-0.9109792113304138,0.700535774230957,-0.11215387284755707,0.05871303379535675,-2.0687413215637207
-0.10559253394603729,-0.017741620540618896,0.06960593163967133,0.03770257160067558,0.05859341844916344,-1.0315475463867188,-0.8526499271392822,-0.6205015182495117,-0.195440411567688,0.009114960208535194,0.2776281237602234,-0.3736707270145416,0.2071777880191803,-0.5415010452270508,0.11035002768039703,0.033660173416137695,-0.21912872791290283,-0.009534244425594807,-0.30679118633270264,-0.3526779115200043,-0.5508686900138855,0.026472140103578568,0.12360334396362305,0.17707625031471252,-0.1445038765668869,-0.20149026811122894,-0.11779705435037613,-0.0547063834965229,0.20729513466358185,0.2490767538547516,-0.03368034586310387,-0.07258889079093933,-0.20416830480098724,-0.5639939308166504,1.941765546798706,-1.2141547203063965,0.7482060194015503,-1.2818126678466797,-0.1732831597328186,-0.574747622013092,-0.7931991219520569,0.9241222739219666,0.008566752076148987,-0.2123231291770935,-2.393197536468506
-0.06385582685470581,-0.06686170399188995,-0.06506813317537308,0.044022802263498306,0.09818539023399353,-0.9714667797088623,-0.8526499271392822,-0.6205015182495117,-0.1953279972076416,0.002938300371170044,0.3056548237800598,-0.3470657467842102,0.1067521944642067,-0.5402361750602722,0.0600387379527092,-0.01867344044148922,-0.16616880893707275,-0.01691972278058529,-0.32108572125434875,-0.3523050546646118,-0.6071085929870605,-0.014700854197144508,0.14264307916164398,0.12261603027582169,-0.24669848382472992,0.1516483575105667,-0.04150746017694473,-0.1743563413619995,0.01490743737667799,0.008752471767365932,0.01997537724673748,0.049256134778261185,-0.14187629520893097,-0.30062544345855713,2.459689140319824,-1.6870580911636353,0.09094847738742828,-1.040510892868042,-0.657501757144928,-0.6269772052764893,-0.6572108864784241,0.46051687002182007,0.6069620251655579,0.24394258856773376,-2.6393558979034424
-0.034783270210027695,0.01178288459777832,-0.006058026105165482,-0.02457316964864731,0.047489266842603683,-0.9684035181999207,-0.8526499271392822,-0.6205015182495117,-0.19590210914611816,-0.018827369436621666,0.35563749074935913,-0.29678353667259216,0.04071316123008728,-0.45717760920524597,-0.006454236339777708,-0.06491432338953018,-0.11310254782438278,-0.07077062875032425,-0.2993152141571045,-0.3483566641807556,-0.6903623938560486,-0.13321435451507568,0.15107755362987518,0.043121326714754105,-0.06486227363348007,0.17235532402992249,-0.1926460713148117,-0.16303735971450806,0.1357274055480957,-0.10702917724847794,0.04315901920199394,0.04080312326550484,-0.10340376943349838,-0.46678757667541504,2.2404778003692627,-1.4022296667099,0.10349641740322113,-1.1735830307006836,-0.6710944175720215,-0.9950722455978394,-0.25710195302963257,-0.15603041648864746,0.36671239137649536,0.8200333714485168,-2.9448864459991455
-0.031586531549692154,0.02283039316534996,0.03593559190630913,-0.02908697910606861,0.026804756373167038,-1.0187761783599854,-0.8526499271392822,-0.6205015182495117,-0.19672608375549316,-0.10596516728401184,0.3840705454349518,-0.27371904253959656,-0.011274228803813457,-0.2658841907978058,-0.07223745435476303,-0.1324072927236557,-0.037223801016807556,-0.2662461996078491,-0.2908819019794464,-0.31288808584213257,-0.7259684801101685,-0.12045709043741226,0.15202665328979492,0.08112640678882599,-0.0730966255068779,0.4320223927497864,-0.1826256811618805,-0.13072675466537476,0.16630175709724426,-0.3488093912601471,0.015537017956376076,0.050385404378175735,0.02442602626979351,-0.4531005024909973,2.450092315673828,-1.5719380378723145,-0.20176246762275696,-0.26243773102760315,-0.6307137608528137,-1.0204743146896362,0.13704198598861694,-1.3716124296188354,0.9354402422904968,1.4095768928527832,-2.9632537364959717
-0.15212109684944153,-0.002716057002544403,-0.05643255263566971,-0.008956599980592728,0.06562928855419159,-0.9573031067848206,-0.8526499271392822,-0.6205015182495117,-0.19648313522338867,-0.19659681618213654,0.4237566590309143,-0.22183360159397125,-0.02651621215045452,-0.01385977678000927,-0.12595611810684204,-0.2009376585483551,0.0539611354470253,-0.44886088371276855,-0.2719174325466156,-0.29823631048202515,-0.7095513939857483,-0.17259714007377625,0.11972572654485703,0.12928585708141327,0.003934782929718494,0.6165719628334045,-0.15829764306545258,-0.1979592889547348,0.24799838662147522,-0.2318744659423828,0.13474015891551971,0.01546854991465807,0.10611901432275772,-0.739734411239624,3.0131049156188965,-1.9630323648452759,-0.3052480220794678,0.518949568271637,-0.6277723908424377,-0.7787017226219177,0.5840372443199158,-2.198444128036499,1.2553333044052124,1.8888282775878906,-2.7538280487060547
-0.14363056421279907,-0.024836912751197815,-0.023450493812561035,-0.0017150118947029114,0.07562904059886932,-0.9871855974197388,-0.8526499271392822,-0.6205015182495117,-0.19630897045135498,-0.3118719458580017,0.46052420139312744,-0.1786428540945053,-0.026274796575307846,0.238271102309227,-0.20085322856903076,-0.27040180563926697,0.19302335381507874,-0.47921112179756165,-0.23485368490219116,-0.2659032940864563,-0.6178064942359924,-0.3113550841808319,0.13595716655254364,0.16323339939117432,0.07167243212461472,0.6227678656578064,-0.10538263618946075,-0.1771952360868454,0.29005759954452515,0.02862689457833767,0.1373233050107956,0.0955379530787468,0.19588761031627655,-1.3138659000396729,2.710171699523926,-1.448677897453308,-0.008911550045013428,1.4068562984466553,-0.5020464062690735,-0.9266957640647888,1.1214146614074707,-2.0653467178344727,1.0641436576843262,2.183335542678833,-2.3588173389434814
-0.09299646317958832,-0.10414698719978333,-0.0037751086056232452,0.04942213371396065,0.05531763657927513,-0.9612881541252136,-0.8526499271392822,-0.6205015182495117,-0.19631612300872803,-0.42387208342552185,0.5074033141136169,-0.14284145832061768,0.0077903736382722855,0.39171919226646423,-0.2560255527496338,-0.33202165365219116,0.2897486984729767,-0.3531281352043152,-0.1850523203611374,-0.24877817928791046,-0.49635201692581177,-0.3043261468410492,0.15377771854400635,0.09116976708173752,0.014433848671615124,0.33678752183914185,-0.09998109191656113,-0.10709509998559952,0.20273375511169434,0.21382544934749603,0.14374680817127228,0.0551949143409729,0.2871270477771759,-1.7560441493988037,2.67010235786438,-1.1201775074005127,0.07503092288970947,1.5860073566436768,-0.6307381987571716,-0.8483657240867615,1.2625834941864014,-1.4261698722839355,1.2072551250457764,2.233961820602417,-1.7893872261047363
-0.004250910133123398,-0.09628352522850037,-0.07216234505176544,-0.026618359610438347,0.05042778328061104,-1.0400032997131348,-0.8526499271392822,-0.6205015182495117,-0.19561231136322021,-0.4755282998085022,0.5288231372833252,-0.10861174762248993,0.026906510815024376,0.42456120252609253,-0.3207130432128906,-0.3846912980079651,0.32824233174324036,-0.18155121803283691,-0.139216810464859,-0.21233627200126648,-0.3539547920227051,-0.18007443845272064,0.06410922855138779,0.14470568299293518,0.00499764084815979,0.033523499965667725,-0.21932514011859894,-0.18837551772594452,-0.008675473742187023,0.30493223667144775,0.06594852358102798,0.05052640661597252,0.27418646216392517,-1.8743305206298828,2.6588170528411865,-0.8243824243545532,0.14451172947883606,1.3534631729125977,-0.9054253101348877,-0.9525081515312195,1.0227652788162231,-0.5933780074119568,1.4421635866165161,2.2491977214813232,-1.3517016172409058
0.1665487140417099,-0.10653223097324371,0.04475715383887291,0.010954558849334717,0.09494675695896149,-1.0005780458450317,-0.8526499271392822,-0.6205015182495117,-0.19561541080474854,-0.47058841586112976,0.5648608207702637,-0.07436095923185349,0.07289598137140274,0.38980963826179504,-0.38506579399108887,-0.45716965198516846,0.2925965189933777,-0.14668893814086914,-0.08736279606819153,-0.1652490347623825,-0.2570876479148865,0.06867767870426178,0.0884127989411354,0.04732539877295494,-0.0009980201721191406,-0.05239120125770569,-0.12392634153366089,-0.1990894228219986,-0.09009364992380142,-0.04129071161150932,0.1779262125492096,0.14943473041057587,0.16593728959560394,-1.6049060821533203,2.2318174839019775,-0.29616546630859375,0.44121530652046204,1.066504716873169,-0.7701593637466431,-1.3126777410507202,0.9387576580047607,-0.05033931881189346,0.8465251326560974,1.9883168935775757,-0.9428702592849731
0.17390409111976624,-0.21956901252269745,0.05548350140452385,0.017575722187757492,0.11953683197498322,-1.0091122388839722,-0.8526499271392822,-0.6205015182495117,-0.19651293754577637,-0.4493218958377838,0.5754582285881042,-0.03928408771753311,0.0874582827091217,0.3561510443687439,-0.3569481372833252,-0.5108751654624939,0.21349401772022247,-0.1733895242214203,-0.17633065581321716,-0.1122942864894867,-0.18627800047397614,0.09789934009313583,0.00961887277662754,-0.023936539888381958,0.016291970387101173,-0.027522534132003784,0.16283249855041504,-0.1562267690896988,-0.26057490706443787,-0.02113933674991131,-0.11298143118619919,0.062262844294309616,0.05919621139764786,0.2845034599304199,1.976961374282837,-0.5166479349136353,0.49307534098625183,-0.04052373766899109,-0.6869364976882935,-0.8966646790504456,0.2866328954696655,1.1491655111312866,-0.7560475468635559,1.2882506847381592,-0.7625169157981873
0.33422204852104187,-0.32211005687713623,0.014412116259336472,-0.07396794855594635,0.048791225999593735,-1.039991021156311,-0.8526499271392822,-0.6205015182495117,-0.19613921642303467,-0.4238852560520172,0.5636195540428162,-0.06913302838802338,0.10008347034454346,0.32017782330513,-0.2561504542827606,-0.48362496495246887,0.10078326612710953,-0.16828057169914246,-0.3331853449344635,-0.13278144598007202,-0.046917371451854706,0.08554315567016602,-0.07117428630590439,-0.09740166366100311,0.04001384973526001,-0.1201777458190918,0.19862666726112366,0.1004287526011467,0.12779517471790314,0.06666912138462067,-0.29745909571647644,0.010215222835540771,-0.3125098645687103,0.6110000610351562,1.650254487991333,-1.0026330947875977,0.5104362964630127,-0.4450160264968872,-0.9854852557182312,-0.8613787293434143,-0.10740149766206741,1.0226958990097046,-1.7846629619598389,0.08079687505960464,0.11747843027114868
-0.15137596428394318,-0.05821095034480095,-0.06377235054969788,-0.08046828210353851,0.05151691660284996,-0.9613459706306458,-0.8526499271392822,-0.6205015182495117,-0.19364750385284424,-0.3951132297515869,0.4804258942604065,-0.13901852071285248,0.11969601362943649,0.2943771481513977,-0.22286970913410187,-0.35207685828208923,0.11352083832025528,-0.16562913358211517,-0.5110630393028259,-0.2135668247938156,-0.12283512204885483,0.15195026993751526,-0.2649042010307312,-0.18715019524097443,0.11884728819131851,-0.04253078252077103,0.03901031240820885,0.30327779054641724,-0.046296246349811554,-0.08784518390893936,-0.35961470007896423,-0.2240496128797531,-0.10856082290410995,0.030545122921466827,1.1488592624664307,-0.7638928294181824,0.7294658422470093,-0.13984958827495575,-0.9407688975334167,-0.6019708514213562,-0.7307074666023254,0.6024726033210754,-2.4793894290924072,-0.9075586795806885,0.555382251739502
0.0416526161134243,-0.07138491421937943,-0.08985047042369843,-0.010159451514482498,0.017889734357595444,-0.9572178721427917,-0.8526499271392822,-0.6205015182495117,-0.1904219388961792,-0.37780940532684326,0.33895543217658997,-0.23801568150520325,0.14813728630542755,0.24054454267024994,-0.19145254790782928,-0.20867383480072021,0.08741117268800735,-0.17646077275276184,-0.5996429920196533,-0.2960652709007263,-0.15884914994239807,0.04677506908774376,-0.3039714992046356,-0.15999947488307953,0.04682910442352295,-0.1396900862455368,0.1343235969543457,0.25505051016807556,-0.06905996054410934,-0.061020202934741974,-0.16092270612716675,-0.07601984590291977,-0.07362837344408035,-1.0968964099884033,0.9297903776168823,-0.9103332161903381,0.7529706954956055,-0.6515467166900635,-0.4429938793182373,-0.40128207206726074,-0.26206400990486145,0.7503678202629089,-2.514298915863037,-1.1835378408432007,0.4131411015987396
-0.039993032813072205,-0.011732567101716995,-0.05591960251331329,-0.0505693294107914,0.08059577643871307,-0.9789677262306213,-0.8526499271392822,-0.6205015182495117,-0.18859446048736572,-0.34861722588539124,0.2032151222229004,-0.3063182234764099,0.15523087978363037,0.19203245639801025,-0.12916597723960876,-0.06660468131303787,0.05783414840698242,-0.18647295236587524,-0.6290985345840454,-0.3300033211708069,-0.1872250884771347,0.1373484581708908,-0.2999703586101532,-0.14016854763031006,0.15637898445129395,-0.1233619973063469,0.1326427012681961,0.2483062595129013,-0.09189844876527786,0.03166257217526436,-0.09293520450592041,0.02040289156138897,-0.0982239618897438,-1.232362985610962,0.5308983325958252,-1.1522095203399658,1.2047340869903564,-0.853023111820221,-0.20682017505168915,0.06774099171161652,-0.0937921479344368,0.9530462622642517,-2.6415958404541016,-1.2997822761535645,0.20451626181602478
-0.10194502770900726,-0.07010126113891602,-0.012631300836801529,-0.06631247699260712,0.05160539969801903,-1.0016719102859497,-0.8526499271392822,-0.6205015182495117,-0.1879805326461792,-0.3082117438316345,0.07926944643259048,-0.37048104405403137,0.19217701256275177,0.14822609722614288,-0.059667497873306274,0.06833533197641373,0.01746913604438305,-0.18607982993125916,-0.6325775384902954,-0.33766549825668335,-0.22215911746025085,0.025885213166475296,-0.23830977082252502,-0.19513367116451263,0.1345156729221344,-0.09456659853458405,0.2369157373905182,0.23176757991313934,-0.03597144037485123,0.055368851870298386,0.04801427200436592,0.0038721144665032625,-0.012215584516525269,-1.0688318014144897,0.2321101278066635,-1.523552417755127,1.160963535308838,-0.8781583309173584,-0.0668402835726738,0.5013266801834106,-0.22251319885253906,0.958387553691864,-2.525155782699585,-1.433332920074463,0.08841529488563538
-0.016019653528928757,-0.01728895679116249,-0.03333348035812378,-0.10904461145401001,-0.0007782243192195892,-1.0227274894714355,-0.8526499271392822,-0.6205015182495117,-0.18724167346954346,-0.2726372182369232,0.01572946086525917,-0.4557585120201111,0.23921909928321838,0.08271672576665878,0.016758475452661514,0.17965854704380035,-0.019409164786338806,-0.1716592013835907,-0.6220235228538513,-0.2937195301055908,-0.25416168570518494,0.0313926599919796,-0.09242041409015656,-0.2811844050884247,0.14430366456508636,-0.17431239783763885,0.2873474657535553,0.2714675962924957,-0.05426490306854248,-0.009395009838044643,0.07736153900623322,0.18235035240650177,-0.0011754095321521163,-0.6410176157951355,-0.09270159900188446,-1.9313658475875854,0.8757824897766113,-0.5204609632492065,0.36137551069259644,0.9609161019325256,-0.2873742878437042,1.0673024654388428,-2.4769046306610107,-1.1532609462738037,0.5036962032318115
-0.10269491374492645,-0.061261843889951706,-0.025953805074095726,-0.03103780373930931,0.03014153614640236,-0.9853888750076294,-0.8526499271392822,-0.6205015182495117,-0.18634819984436035,-0.23841619491577148,-0.03973054140806198,-0.5263799428939819,0.2658780813217163,0.019037429243326187,0.11723802238702774,0.2454865425825119,-0.06371305882930756,-0.14170652627944946,-0.555295467376709,-0.22631800174713135,-0.2620882987976074,0.04063744470477104,-0.02847183309495449,-0.19464389979839325,0.11095570772886276,-0.2206580638885498,0.24262528121471405,0.14026053249835968,-0.1957574337720871,0.025823747739195824,0.1155993714928627,0.14383533596992493,-0.07874616235494614,-0.5058650970458984,-0.28705522418022156,-2.1383931636810303,1.005837321281433,-0.07721475511789322,0.7129434943199158,1.0349769592285156,0.006348671391606331,1.4597625732421875,-2.0816476345062256,-0.789116621017456,1.1391350030899048
-0.051054853945970535,-0.000470232218503952,-0.08530141413211823,-0.07905148714780807,0.05125988647341728,-1.032141923904419,-0.8526499271392822,-0.6205015182495117,-0.18507850170135498,-0.18317431211471558,-0.05815093219280243,-0.5457621216773987,0.3105340003967285,-0.028037529438734055,0.19517800211906433,0.2553325891494751,-0.1145554631948471,-0.11101169884204865,-0.5041401386260986,-0.2294415533542633,-0.25289157032966614,0.051005687564611435,0.016864776611328125,0.05485482141375542,0.1314171850681305,-0.1750958114862442,0.12791824340820312,-0.045197781175374985,-0.18750837445259094,0.017744606360793114,0.10394725948572159,-0.08824214339256287,-0.0385279655456543,-0.2846379280090332,-0.35560426115989685,-2.1555519104003906,1.0457627773284912,-0.27851155400276184,0.8897918462753296,0.8057296872138977,-0.08679736405611038,1.515486478805542,-2.0017642974853516,-0.5403006076812744,0.9987303018569946
-0.09184285998344421,-0.06332319974899292,-0.018894603475928307,-0.0667150542140007,0.10948379337787628,-0.9721127152442932,-0.8526499271392822,-0.6205015182495117,-0.18436682224273682,-0.15303713083267212,-0.08661886304616928,-0.49250590801239014,0.34576401114463806,-0.11023467034101486,0.2231522500514984,0.21109610795974731,-0.1810823231935501,-0.07917939871549606,-0.404260516166687,-0.2509571611881256,-0.2492050975561142,0.08842196315526962,-0.08943592756986618,0.14212742447853088,0.05649537965655327,-0.18849527835845947,0.1127435714006424,-0.026561355218291283,-0.15940909087657928,0.13754676282405853,0.1553749144077301,-0.02194737270474434,0.04450547695159912,-0.5285889506340027,-0.49743399024009705,-1.7935972213745117,1.9123746156692505,-0.7159867286682129,0.8300857543945312,0.9392746090888977,-0.21879813075065613,1.3759490251541138,-1.4746508598327637,-0.21105164289474487,0.8076461553573608
0.09733116626739502,0.03955473378300667,-0.01880619116127491,-0.0625363290309906,0.09778662025928497,-0.9463675618171692,-0.8526499271392822,-0.6205015182495117,-0.183518648147583,-0.1127413809299469,-0.08588427305221558,-0.45648837089538574,0.37042373418807983,-0.16754038631916046,0.22167609632015228,0.16872647404670715,-0.23811259865760803,-0.045484356582164764,-0.33475393056869507,-0.27517956495285034,-0.22898100316524506,0.0004965484258718789,0.028257323428988457,0.14644642174243927,0.11443302780389786,-0.12773919105529785,0.023616939783096313,-0.14809095859527588,-0.20909881591796875,0.1764841079711914,0.16915404796600342,-0.05133881792426109,0.011884653940796852,-0.23992882668972015,-0.2425793558359146,-1.8245879411697388,1.8445292711257935,-0.7343799471855164,0.7178874611854553,0.5859224796295166,-0.6621156930923462,1.2246986627578735,-1.2721326351165771,0.17943066358566284,0.2387770116329193
0.097914919257164,-0.034000150859355927,0.012364786118268967,-0.09883712232112885,0.03905526176095009,-1.0124845504760742,-0.8526499271392822,-0.6205015182495117,-0.18277502059936523,-0.08783639222383499,-0.03661712259054184,-0.43538832664489746,0.40478357672691345,-0.2513819634914398,0.21171870827674866,0.12271565943956375,-0.31059369444847107,0.019814014434814453,-0.26454949378967285,-0.28281503915786743,-0.2174111008644104,0.024970609694719315,0.1395508348941803,0.14620600640773773,0.11774533241987228,-0.1950574666261673,0.013824141584336758,-0.20913563668727875,-0.17392820119857788,0.10788245499134064,0.08394183218479156,0.04022851213812828,0.07475445419549942,0.05878756195306778,0.30551931262016296,-1.2089028358459473,1.4571483135223389,-0.9957236647605896,0.6980201601982117,0.21453650295734406,-0.7051494717597961,1.4559621810913086,-0.9253056645393372,0.49876946210861206,-0.29748407006263733
0.15909366309642792,0.03960345312952995,-0.058414068073034286,-0.06624559313058853,0.08707375824451447,-0.9887803792953491,-0.8526499271392822,-0.6205015182495117,-0.1819084882736206,-0.04537539929151535,0.07790670543909073,-0.40708863735198975,0.39270856976509094,-0.2691847085952759,0.1878214031457901,0.05408720672130585,-0.2918253540992737,0.04891572892665863,-0.15588845312595367,-0.2916911840438843,-0.2331250160932541,0.08420190960168839,0.23811756074428558,-0.016216957941651344,-0.08984387665987015,-0.0029720186721533537,-0.027660226449370384,-0.13638298213481903,0.14045849442481995,0.08390241116285324,0.13963305950164795,0.06294001638889313,-0.0065603675320744514,0.3642216920852661,0.7897372245788574,-0.9141018986701965,0.9144272804260254,-0.452673077583313,0.6368274092674255,-0.22817949950695038,-0.5239155292510986,0.38173216581344604,-0.4834228754043579,1.072794795036316,-0.9190454483032227
0.3628968894481659,0.1465149223804474,0.07625080645084381,-0.02421128749847412,0.01953474059700966,-0.9668479561805725,-0.8526499271392822,-0.6205015182495117,-0.1821744441986084,-0.011589236557483673,0.19605350494384766,-0.385579913854599,0.3394250273704529,-0.25061824917793274,0.14712274074554443,0.006170907989144325,-0.22764579951763153,0.05913042277097702,-0.04917503148317337,-0.27950212359428406,-0.27644088864326477,0.07942235469818115,0.33267661929130554,0.021848339587450027,-0.18634477257728577,0.07344652712345123,-0.04840080067515373,-0.16315987706184387,0.21629193425178528,0.09466397017240524,0.12354015558958054,-0.013282621279358864,-0.09275533258914948,-0.18763983249664307,1.21308434009552,-0.5272510051727295,0.9585715532302856,-0.47367364168167114,0.5648047924041748,-0.3001874089241028,-0.47825509309768677,0.7806549668312073,-0.06346739828586578,0.7419225573539734,-1.2270084619522095
-0.11371007561683655,0.11443865299224854,-0.06827827543020248,-0.08665502071380615,-0.018321052193641663,-0.9628528952598572,-0.8526499271392822,-0.6205015182495117,-0.18168425559997559,0.009436754509806633,0.21649299561977386,-0.36078664660453796,0.26372259855270386,-0.21707816421985626,0.11163697391748428,-0.07132202386856079,-0.16380402445793152,0.059199847280979156,-0.08823710680007935,-0.2820287048816681,-0.3129846751689911,0.08866578340530396,0.10724609345197678,0.13810501992702484,-0.1901187151670456,0.14710132777690887,-0.06026706099510193,-0.07269718497991562,0.16786299645900726,0.18486809730529785,-0.11239655315876007,-0.07320831716060638,-0.08486076444387436,0.32445257902145386,1.9115558862686157,-1.5857082605361938,0.48970988392829895,-0.32347020506858826,-0.8405634760856628,0.13111884891986847,-0.6652909517288208,0.7327209711074829,1.3763893842697144,0.487687349319458,-1.4226775169372559
0.12392285466194153,-0.01737820729613304,0.058337416499853134,-0.0283743217587471,0.034104857593774796,-0.9769800305366516,-0.8526499271392822,-0.6205015182495117,-0.1817547082901001,-0.011614372953772545,0.24415166676044464,-0.3432648181915283,0.16069822013378143,-0.12197340279817581,0.07838275283575058,-0.111720971763134,-0.06735992431640625,-0.04919848591089249,-0.13987551629543304,-0.29241976141929626,-0.4125601351261139,-0.22836290299892426,0.1341499537229538,0.11814618110656738,-0.2174103707075119,0.24039795994758606,-0.13399679958820343,-0.17550772428512573,0.18652291595935822,-0.13037800788879395,-0.11247570812702179,0.030671095475554466,-0.09183671325445175,-0.6586856245994568,2.252800703048706,-1.6057300567626953,0.3851598799228668,-0.3493013381958008,-0.5753398537635803,-0.31743717193603516,0.10552483052015305,-0.3831847310066223,1.0798736810684204,0.9129946827888489,-1.8009157180786133
-0.061252348124980927,-0.03621651232242584,-0.042878441512584686,-0.04821120575070381,0.011728957295417786,-1.0332728624343872,-0.8526499271392822,-0.6205015182495117,-0.1811695098876953,-0.113872230052948,0.268729031085968,-0.31461191177368164,0.08762987703084946,0.0023129358887672424,0.03922898322343826,-0.1784878522157669,0.01921660080552101,-0.17767858505249023,-0.14747418463230133,-0.2896244525909424,-0.4724067449569702,-0.24966080486774445,0.1590900421142578,0.11850237846374512,-0.15740644931793213,0.26070186495780945,-0.12859538197517395,-0.21140041947364807,0.20605145394802094,-0.13261456787586212,-0.10106883198022842,0.01681085303425789,-0.06620275229215622,-0.5013703107833862,2.719010591506958,-2.490884780883789,0.13380669057369232,0.34701061248779297,-0.4490903615951538,-0.4359952509403229,0.25420844554901123,-0.9797416925430298,1.0813390016555786,1.4603172540664673,-2.06900954246521
0.028863858431577682,0.010540623217821121,0.019642580300569534,-0.07659445703029633,0.03596954420208931,-0.9593563079833984,-0.8526499271392822,-0.6205015182495117,-0.18083739280700684,-0.2229945808649063,0.3019730746746063,-0.27629148960113525,0.05219190567731857,0.12018205970525742,0.00402672216296196,-0.23098716139793396,0.1431877762079239,-0.26974770426750183,-0.1755446344614029,-0.26995787024497986,-0.5067333579063416,-0.2395377904176712,0.013995754532516003,0.08321394771337509,0.0009226620313711464,0.24062025547027588,-0.17506685853004456,-0.16946278512477875,0.361002117395401,-0.12793658673763275,0.01153874397277832,0.022839678451418877,-0.09423326700925827,-1.0040453672409058,2.3293302059173584,-2.0613443851470947,0.34361639618873596,0.6781258583068848,0.20848502218723297,-0.6717990040779114,0.9165374040603638,-1.2346869707107544,0.7774842381477356,1.9590778350830078,-2.014819383621216
-0.060761451721191406,0.018431778997182846,-0.05105865001678467,-0.026296593248844147,-0.004598479717969894,-0.9755775928497314,-0.8526499271392822,-0.6205015182495117,-0.18060719966888428,-0.3138595521450043,0.3456145226955414,-0.2446574717760086,0.06382667273283005,0.21154329180717468,-0.04228602349758148,-0.28531861305236816,0.25130337476730347,-0.2362925112247467,-0.1969190239906311,-0.2657912075519562,-0.462418794631958,-0.16096442937850952,0.1647682934999466,0.08385901898145676,0.04486804082989693,0.21644292771816254,-0.17637990415096283,-0.10570814460515976,0.2931470274925232,0.13186411559581757,-0.10356133431196213,0.04205406829714775,0.14255523681640625,-1.171729326248169,2.458346366882324,-1.9271069765090942,0.3397770822048187,1.0509378910064697,0.05892796814441681,-0.8140906691551208,1.1635756492614746,-0.9657949209213257,0.885744035243988,2.1176536083221436,-1.7864314317703247
-0.0358356274664402,0.012678992003202438,0.05818865820765495,-0.02157871052622795,-0.023530209437012672,-0.9998974800109863,-0.8526499271392822,-0.6205015182495117,-0.18096506595611572,-0.40402597188949585,0.3680756688117981,-0.19198045134544373,0.09975974261760712,0.25987508893013,-0.09653038531541824,-0.3424621522426605,0.3034557104110718,-0.22204576432704926,-0.20165103673934937,-0.23961926996707916,-0.36846330761909485,-0.28260836005210876,0.1532084047794342,0.03440181165933609,0.1344687044620514,0.0681610256433487,-0.1488325595855713,-0.15704767405986786,0.10572361946105957,0.03652836009860039,0.004099023528397083,0.0017975092632696033,0.19084511697292328,-1.8506317138671875,2.0594310760498047,-0.983299195766449,0.39130935072898865,0.9417389035224915,-0.23558051884174347,-0.8505505323410034,1.1356549263000488,-0.7965531349182129,1.384103536605835,2.009657859802246,-1.4363268613815308
0.06867477297782898,-0.09541094303131104,0.023658696562051773,-0.00022637099027633667,0.07609911262989044,-1.0085800886154175,-0.8526499271392822,-0.6205015182495117,-0.1809558868408203,-0.39393511414527893,0.4134795069694519,-0.1669175624847412,0.09596707671880722,0.25481247901916504,-0.14226453006267548,-0.4014201760292053,0.2870014011859894,-0.24239079654216766,-0.1844051480293274,-0.22584955394268036,-0.27988582849502563,0.11716143041849136,0.08751092106103897,0.03961518034338951,-0.09998264163732529,-0.08592333644628525,-0.149590864777565,-0.16498272120952606,-0.053754743188619614,-0.039772991091012955,0.021008610725402832,0.07335739582777023,0.06770987808704376,-1.4650644063949585,2.192246437072754,-1.1591463088989258,0.23291179537773132,1.1836369037628174,-0.6343588829040527,-0.8044888377189636,0.8700595498085022,-0.298836350440979,1.4337929487228394,2.040964365005493,-1.115606427192688
0.14815683662891388,-0.20119808614253998,-0.012391358613967896,-0.039355047047138214,0.039281364530324936,-0.9530782103538513,-0.8526499271392822,-0.6205015182495117,-0.18029260635375977,-0.3613342046737671,0.4460974633693695,-0.12372303754091263,0.08873701095581055,0.19973982870578766,-0.19450895488262177,-0.45592808723449707,0.24227608740329742,-0.2335689663887024,-0.16363529860973358,-0.19026869535446167,-0.2344929426908493,0.1376330405473709,0.09090711921453476,0.06900928169488907,0.08792556822299957,-0.05190819501876831,-0.07071687281131744,-0.13877485692501068,-0.17059902846813202,-0.046285565942525864,0.10195503383874893,0.09339916706085205,0.058603860437870026,-0.7575697898864746,2.4285449981689453,-1.1842795610427856,0.5801403522491455,0.6374887824058533,-0.880427360534668,-1.2598189115524292,0.6551005244255066,0.5119410753250122,0.5034590363502502,2.1512370109558105,-0.8566145896911621
-0.06823597103357315,-0.1158328503370285,0.019912388175725937,-0.04450564458966255,0.06839954853057861,-1.003876805305481,-0.8526499271392822,-0.6205015182495117,-0.1796783208847046,-0.3221956193447113,0.46374475955963135,-0.10090770572423935,0.1244330182671547,0.16305169463157654,-0.19658049941062927,-0.5225085020065308,0.2174859344959259,-0.22984904050827026,-0.21485371887683868,-0.15733928978443146,-0.23266743123531342,0.08766110241413116,-0.03162511810660362,0.15549349784851074,0.06599757820367813,-0.11447488516569138,0.03870685026049614,-0.16010871529579163,-0.01959027163684368,-0.00581936864182353,-0.14676064252853394,0.10472762584686279,-0.0704948678612709,-0.17199841141700745,1.283280611038208,-0.3633481562137604,1.0079327821731567,0.539604127407074,-0.3772839307785034,-1.191900610923767,-0.06870907545089722,0.6682143807411194,-1.002148151397705,0.8879801034927368,0.22729834914207458
-0.041347306221723557,-0.037805669009685516,-0.030871722847223282,-0.0711132138967514,0.0567496083676815,-1.0438379049301147,-0.8526499271392822,-0.6205015182495117,-0.17759203910827637,-0.3030327260494232,0.424159973859787,-0.095871701836586,0.16548016667366028,0.11021827906370163,-0.14875000715255737,-0.4805004596710205,0.18149690330028534,-0.21968695521354675,-0.4179447889328003,-0.1930486410856247,-0.2673720419406891,0.0730598196387291,-0.21817336976528168,-0.08186423033475876,0.13994498550891876,-0.12614235281944275,0.14347083866596222,0.23746155202388763,-0.15693624317646027,-0.03365785628557205,-0.37799862027168274,-0.10481460392475128,-0.15427398681640625,-0.44637352228164673,1.0138051509857178,-0.6097702980041504,1.3918976783752441,-0.1522253453731537,-0.3302658498287201,-0.7995709776878357,-0.2185969054698944,1.1909775733947754,-2.150343179702759,-0.5269392728805542,0.4808966815471649
0.15473760664463043,0.04639403149485588,-0.0714753121137619,-0.1124861091375351,0.0017882771790027618,-0.9880272150039673,-0.8526499271392822,-0.6205015182495117,-0.1745622158050537,-0.2623819410800934,0.33200135827064514,-0.18437661230564117,0.19485487043857574,0.04201068729162216,-0.10627338290214539,-0.31436389684677124,0.14328338205814362,-0.21752844750881195,-0.5695827603340149,-0.3004588782787323,-0.3136851489543915,0.013895553536713123,-0.21487562358379364,-0.1791953295469284,0.0635213851928711,-0.10294260084629059,0.09182289987802505,0.3874748647212982,-0.12011802196502686,0.07023897022008896,-0.21288752555847168,-0.11021967977285385,-0.049307096749544144,-0.8789325952529907,0.8795100450515747,-0.8612499237060547,1.2800203561782837,-0.7168738842010498,-0.21652081608772278,-0.45951783657073975,0.20971772074699402,1.3127946853637695,-2.620762348175049,-1.3451353311538696,0.5579071044921875
-0.10131126642227173,0.07679454982280731,0.003099534660577774,-0.06653205305337906,0.011111333966255188,-0.9888426065444946,-0.8526499271392822,-0.6205015182495117,-0.17233669757843018,-0.23521043360233307,0.18869991600513458,-0.2959296405315399,0.2171253114938736,-0.004238387569785118,-0.044692277908325195,-0.09444192796945572,0.11314218491315842,-0.19589313864707947,-0.6323881149291992,-0.4008980989456177,-0.33855539560317993,0.06017003208398819,-0.31255683302879333,-0.27896395325660706,0.04607119783759117,-0.09754312038421631,0.2579626739025116,0.5063273310661316,-0.12125568836927414,0.06727850437164307,-0.05406899005174637,-0.16574381291866302,0.016266321763396263,-0.7589630484580994,0.34354159235954285,-1.2816095352172852,1.5575412511825562,-0.7239423394203186,0.3165591359138489,0.10474880039691925,0.2414250671863556,1.6339808702468872,-2.658351182937622,-1.8823000192642212,0.8455349206924438
-0.039017945528030396,0.07071101665496826,-0.09942907094955444,-0.04943905025720596,0.00045272335410118103,-0.9485384821891785,-0.8526499271392822,-0.6205015182495117,-0.17004776000976562,-0.20691819489002228,0.08183474093675613,-0.44510963559150696,0.25649142265319824,-0.08395256847143173,0.06332536041736603,0.11487951129674911,0.05442815274000168,-0.17297175526618958,-0.6322290897369385,-0.4284146726131439,-0.3403238356113434,0.09738922119140625,-0.15214145183563232,-0.31769177317619324,0.11143418401479721,-0.16539128124713898,0.2923600375652313,0.40066543221473694,-0.22031736373901367,0.07621115446090698,0.07023262977600098,0.008488858118653297,0.013979596085846424,-0.5189422965049744,0.27269798517227173,-1.9059590101242065,0.8299616575241089,-0.9178415536880493,0.6470441222190857,0.8019087910652161,-0.1334492266178131,1.8869165182113647,-2.5266122817993164,-1.91246497631073,0.4184127748012543
-0.05663938447833061,0.03190157935023308,0.002674464136362076,-0.04006030410528183,-0.0034857802093029022,-1.0466052293777466,-0.8526499271392822,-0.6205015182495117,-0.16949594020843506,-0.15826502442359924,0.002605430781841278,-0.5417622923851013,0.27874845266342163,-0.1603105366230011,0.17503799498081207,0.24419565498828888,-0.0123020950704813,-0.16100506484508514,-0.523309588432312,-0.3627486228942871,-0.3390986919403076,0.16792772710323334,-0.12605707347393036,-0.11244725435972214,0.09646427631378174,-0.10915849357843399,0.18809235095977783,0.233605295419693,-0.2295743077993393,0.1183367520570755,0.2494308203458786,0.10851090401411057,0.05445287376642227,-0.8404223918914795,-0.09596119821071625,-1.998595118522644,1.3849560022354126,-0.9872094392776489,0.9490078687667847,0.9575297236442566,0.11584462225437164,1.708931803703308,-1.9383628368377686,-1.492200255393982,0.6199120283126831
-0.03227799013257027,0.057551320642232895,-0.04031793773174286,-0.07699871808290482,0.04353373125195503,-0.9872168898582458,-0.8526499271392822,-0.6205015182495117,-0.16927862167358398,-0.12082947045564651,-0.02402890846133232,-0.5935773849487305,0.3277917802333832,-0.22122055292129517,0.24081604182720184,0.26814499497413635,-0.0878685787320137,-0.11518730968236923,-0.39685770869255066,-0.24457235634326935,-0.34399306774139404,0.07889559119939804,0.042412545531988144,-0.07026852667331696,0.10489286482334137,-0.2046302855014801,0.061314620077610016,0.0477391742169857,-0.17791500687599182,0.0829339250922203,0.2675757110118866,0.202968031167984,-0.07062046974897385,-0.3575356602668762,0.0784357339143753,-2.430302858352661,1.260923147201538,-0.745445728302002,0.8323203325271606,0.7937619090080261,-0.11117806285619736,1.744338870048523,-1.4211108684539795,-0.9523974657058716,0.8717536926269531
-0.004520941525697708,-0.07063159346580505,0.016720149666070938,-0.08150821924209595,0.04302024468779564,-1.0433788299560547,-0.8526499271392822,-0.6205015182495117,-0.16914474964141846,-0.07820751518011093,0.006785716861486435,-0.5896654725074768,0.3602519631385803,-0.2959778904914856,0.26331427693367004,0.22672325372695923,-0.1548597663640976,-0.07627701014280319,-0.2603718340396881,-0.11585903912782669,-0.21019338071346283,0.16273055970668793,0.11350654810667038,0.016531599685549736,-0.051002711057662964,-0.11208933591842651,0.046695828437805176,-0.06937853991985321,-0.14192286133766174,0.11341740936040878,0.21217572689056396,0.13438652455806732,0.7689838409423828,-0.30702656507492065,0.03561084344983101,-2.186445713043213,1.5756245851516724,-0.4139738082885742,0.9714769124984741,0.6921892762184143,-0.045753031969070435,1.8604196310043335,-0.9268251657485962,-0.3828917443752289,0.9749805927276611
0.03439251706004143,-0.3056601285934448,0.033222656697034836,-0.05160462483763695,0.0030227787792682648,-0.9602234959602356,-0.8526499271392822,-0.6205015182495117,-0.16903841495513916,-0.03622155636548996,0.0645570233464241,-0.5685120820999146,0.3545285165309906,-0.3591271936893463,0.2498624175786972,0.17028319835662842,-0.19654516875743866,-0.008216196671128273,-0.17736463248729706,-0.06162182241678238,-0.012668313458561897,0.1307058334350586,0.11686400324106216,0.025906657800078392,0.027128005400300026,-0.09592892229557037,-0.055366236716508865,-0.1346561461687088,-0.06007125601172447,0.16320455074310303,0.13123460114002228,0.09753362089395523,0.2784307897090912,-0.003869064152240753,0.6515358090400696,-1.9914997816085815,1.1822792291641235,-0.7454116344451904,0.5147371292114258,0.3495703339576721,-0.9340891242027283,1.288465142250061,-0.6688839793205261,-0.20383545756340027,0.20990273356437683
-0.03825690597295761,-0.2988428473472595,-0.0368807353079319,-0.13429106771945953,0.07210993766784668,-0.9925247430801392,-0.8526499271392822,-0.6205015182495117,-0.16760599613189697,0.022424766793847084,0.11977346986532211,-0.5042705535888672,0.3192107677459717,-0.38062727451324463,0.22052139043807983,0.08283013850450516,-0.23403598368167877,0.03585990518331528,-0.16942624747753143,0.030165808275341988,0.06732629984617233,0.1064034104347229,0.09147591888904572,0.18337960541248322,-0.051451802253723145,0.08289282768964767,-0.006762003991752863,-0.26874399185180664,-0.11979088932275772,0.054027725011110306,-0.13249661028385162,0.09654375165700912,0.10186479240655899,0.18776968121528625,1.1608667373657227,-1.8820359706878662,0.9470692873001099,-0.7697070240974426,0.41020500659942627,-0.07194527983665466,-1.2097448110580444,0.5831593871116638,-0.4428972601890564,0.15419763326644897,0.33162376284599304
-0.07422363758087158,-0.368871808052063,-0.07748712599277496,-0.1233350932598114,0.060579609125852585,-1.0336246490478516,-0.8526499271392822,-0.6205015182495117,-0.16638028621673584,0.036817893385887146,0.1758483499288559,-0.4294339716434479,0.28308144211769104,-0.30259421467781067,0.23114660382270813,-0.01146490778774023,-0.2515432834625244,-0.016659338027238846,-0.21644796431064606,0.13228358328342438,0.09019946306943893,-0.013642668724060059,0.14703045785427094,0.06824564933776855,-0.1505424827337265,0.22837166488170624,0.08675432205200195,0.3174317479133606,-0.0690736174583435,-0.07660763710737228,-0.08697856962680817,-0.41998592019081116,-0.023104524239897728,-0.0665876492857933,1.3953595161437988,-1.587043285369873,0.9590526819229126,-0.7814561128616333,0.5710473656654358,-0.39053475856781006,-0.9371225237846375,0.059098049998283386,-0.23534181714057922,0.840442419052124,0.40681615471839905
0.13129468262195587,-0.18490755558013916,0.016514088958501816,-0.17958910763263702,0.04704315587878227,-0.9574849605560303,-0.8526499271392822,-0.6205015182495117,-0.1669093370437622,0.04449700564146042,0.2050905078649521,-0.4304031431674957,0.2524489760398865,-0.30713024735450745,0.23432430624961853,0.03668168932199478,-0.22895711660385132,-0.020714938640594482,-0.2810429334640503,0.017163483425974846,0.03133426606655121,0.06575917452573776,0.0819944366812706,-0.019899338483810425,-0.03708633780479431,-0.03655632957816124,-0.0697794184088707,0.1074151024222374,0.032911598682403564,0.09464538097381592,-0.19225631654262543,-0.2319214791059494,-0.15036390721797943,-0.3127076029777527,1.5209791660308838,-1.0307066440582275,0.8785654306411743,-0.7504633665084839,0.7543396353721619,-1.2806947231292725,-0.6312680840492249,0.5307785868644714,-0.21938738226890564,1.2726719379425049,0.02082499861717224
0.05843591317534447,-0.0346703864634037,0.04986679181456566,-0.14758950471878052,0.013954337686300278,-0.9734808802604675,-0.8526499271392822,-0.6205015182495117,-0.16859662532806396,0.06777071207761765,0.2470131665468216,-0.4035511016845703,0.21937264502048492,-0.33127790689468384,0.20657573640346527,0.05399081110954285,-0.1959562450647354,-0.017911970615386963,-0.33869072794914246,-0.08608748018741608,-0.02193964645266533,0.08685054630041122,0.028361821547150612,0.022804176434874535,-0.00949860829859972,-0.09324388951063156,-0.027513831853866577,0.026218866929411888,-0.009195339865982533,0.09505035728216171,-0.10284867137670517,-0.2683729827404022,-0.15934084355831146,-0.22600969672203064,2.168318033218384,-1.0157794952392578,0.4171489179134369,-0.20430496335029602,0.7033412456512451,-0.9697778820991516,-0.47951769828796387,0.7223626375198364,0.26239365339279175,1.4819852113723755,-0.077430859208107
-0.014439597725868225,-0.10968545079231262,0.06111427769064903,-0.12418891489505768,0.009067807346582413,-0.968882143497467,-0.8526499271392822,-0.6205015182495117,-0.16994571685791016,0.08223962038755417,0.28780436515808105,-0.36669921875,0.1784498691558838,-0.3514687120914459,0.1765100508928299,0.055739983916282654,-0.16218852996826172,-0.011615226045250893,-0.3967601954936981,-0.14709320664405823,-0.06364185363054276,0.06715480238199234,0.0931113138794899,0.07854372262954712,-0.07307443767786026,-0.056389179080724716,-0.07800576090812683,0.048523642122745514,0.15688517689704895,-0.026039713993668556,-0.02979629673063755,-0.1742161363363266,-0.031247491016983986,-0.3019236922264099,2.8057360649108887,-1.2993717193603516,0.1575530469417572,-0.08095167577266693,0.47758305072784424,-0.5774734616279602,-0.1681477129459381,0.8425862789154053,0.7920750975608826,1.454089641571045,-0.2703201174736023
-0.0018715821206569672,-0.16953176259994507,-0.004944402724504471,-0.1504463404417038,0.0711987316608429,-1.0338484048843384,-0.8526499271392822,-0.6205015182495117,-0.16990292072296143,0.051702000200748444,0.3226284682750702,-0.3426315188407898,0.12910935282707214,-0.27532127499580383,0.13747750222682953,0.045235201716423035,-0.11369336396455765,-0.08751402795314789,-0.40301546454429626,-0.19691011309623718,-0.09318673610687256,-0.015269231982529163,0.18739090859889984,0.04662904888391495,-0.08777087926864624,0.2292633056640625,-0.10900869220495224,-0.09891849011182785,0.15140433609485626,-0.12103312462568283,-0.06015091761946678,-0.1470618098974228,-0.020425373688340187,-0.3191477060317993,2.8225152492523193,-1.6288825273513794,0.209650456905365,-0.006079420447349548,0.22176678478717804,-0.5077008605003357,-0.28215479850769043,0.03736869990825653,1.2413640022277832,1.4552621841430664,-0.3363853693008423
-0.10129183530807495,-0.15835411846637726,-0.053207091987133026,-0.21489238739013672,0.03179025277495384,-0.9445642232894897,-0.8526499271392822,-0.6205015182495117,-0.16962110996246338,-0.016041500493884087,0.36059239506721497,-0.31458449363708496,0.0921667218208313,-0.14195787906646729,0.09383296221494675,0.0026829298585653305,-0.05816159397363663,-0.23829098045825958,-0.4231850206851959,-0.23191694915294647,-0.11912336200475693,-0.27483269572257996,0.08532699197530746,0.04530242830514908,-0.10530301183462143,0.37464576959609985,-0.06560118496417999,-0.12859752774238586,0.15339601039886475,-0.2978873550891876,-0.02524477057158947,-0.10629415512084961,0.060295749455690384,-0.3971482515335083,2.6260344982147217,-1.5711474418640137,0.32855069637298584,0.1507195085287094,0.5316493511199951,-0.4741576313972473,0.061206623911857605,-1.0829308032989502,0.8405895829200745,1.6616572141647339,-0.3274870812892914
0.08552968502044678,-0.061415981501340866,0.06458692252635956,-0.17139965295791626,-0.020710080862045288,-0.9850413203239441,-0.8526499271392822,-0.6205015182495117,-0.1706392765045166,-0.14315466582775116,0.39626625180244446,-0.2861015200614929,0.10185834765434265,0.028369324281811714,0.04833408445119858,-0.022661201655864716,0.025832122191786766,-0.3632107973098755,-0.4111567735671997,-0.26869162917137146,-0.16758233308792114,-0.29024457931518555,0.13223031163215637,0.0795464739203453,0.01760212890803814,0.2842247188091278,-0.1496918499469757,-0.08362608402967453,0.19598574936389923,-0.30524155497550964,0.04312380775809288,-0.13508696854114532,-0.00426031369715929,-0.6681293845176697,2.501519203186035,-1.6697641611099243,0.3703555464744568,0.5044717192649841,1.000282883644104,-0.771101176738739,0.6451095342636108,-1.6570254564285278,0.4505736231803894,2.199627161026001,-0.34847527742385864
0.12301425635814667,-0.09779782593250275,0.03265630826354027,-0.14088992774486542,0.015842478722333908,-1.0062949657440186,-0.8526499271392822,-0.6205015182495117,-0.17113220691680908,-0.24759604036808014,0.4418993592262268,-0.25032657384872437,0.10762593895196915,0.17284248769283295,-0.026311255991458893,-0.06901854276657104,0.0937688872218132,-0.44507262110710144,-0.4149731695652008,-0.2761484682559967,-0.1946157068014145,-0.18275903165340424,0.15007780492305756,0.11396531015634537,-0.060674626380205154,0.2759813964366913,-0.14787891507148743,-0.08391638845205307,0.17013640701770782,-0.09207679331302643,0.10907959938049316,-0.11169689148664474,0.07677599042654037,-0.953731894493103,2.9335484504699707,-1.7339156866073608,0.13724355399608612,1.2206765413284302,0.6613598465919495,-0.2580234408378601,0.6955188512802124,-1.6894246339797974,1.2297357320785522,2.0602612495422363,-0.30828332901000977
-0.02748878486454487,-0.17162123322486877,-0.08844772726297379,-0.24488551914691925,-0.020278973504900932,-0.9939219951629639,-0.8526499271392822,-0.6205015182495117,-0.17011523246765137,-0.30981677770614624,0.4769946336746216,-0.22310727834701538,0.11034440249204636,0.29097723960876465,-0.0937105342745781,-0.10791515558958054,0.10650181025266647,-0.48621824383735657,-0.3857499659061432,-0.28600209951400757,-0.25034958124160767,-0.20716634392738342,0.06278838962316513,0.018325895071029663,0.1254511922597885,0.19065900146961212,-0.2358642816543579,-0.05177224799990654,0.029101014137268066,-0.06340966373682022,0.09361212700605392,0.05277293920516968,-0.16471898555755615,-1.4752061367034912,3.0355231761932373,-1.3411577939987183,0.2278752624988556,1.5305105447769165,0.35902130603790283,-0.07420901954174042,0.6350303888320923,-1.7155498266220093,1.4605538845062256,1.9257398843765259,-0.25476184487342834
0.06419944763183594,-0.06716102361679077,0.04468927159905434,-0.22809982299804688,-0.00483882799744606,-0.9296010136604309,-0.8526499271392822,-0.6205015182495117,-0.1702277660369873,-0.37204688787460327,0.5187195539474487,-0.17952769994735718,0.1519937664270401,0.35729900002479553,-0.15134118497371674,-0.17978888750076294,0.08264482766389847,-0.5231996178627014,-0.34041306376457214,-0.27445775270462036,-0.31238487362861633,-0.17561720311641693,0.13855896890163422,0.12874741852283478,0.14714978635311127,0.1006326898932457,-0.16487714648246765,-0.09228568524122238,-0.07978256046772003,-0.021053994074463844,0.08669199794530869,0.01409850176423788,-0.09216972440481186,-1.483750581741333,2.0750088691711426,-0.579191267490387,0.6343159675598145,1.7654273509979248,0.2966166138648987,-0.8412339091300964,0.9710738658905029,-1.848768949508667,0.15859825909137726,1.6490646600723267,0.5042440891265869
0.12847737967967987,0.07134050130844116,0.0092901811003685,-0.2473301738500595,0.024980660527944565,-1.0242210626602173,-0.8526499271392822,-0.6205015182495117,-0.17077875137329102,-0.33042266964912415,0.5413634181022644,-0.13631530106067657,0.1880982667207718,0.3345979154109955,-0.15470606088638306,-0.23982486128807068,0.0537533164024353,-0.5324395298957825,-0.3693084120750427,-0.23419304192066193,-0.33302247524261475,0.11435188353061676,0.060194384306669235,0.08570573478937149,0.03788570314645767,-0.14331018924713135,-0.020505523309111595,-0.1584235280752182,-0.13414756953716278,-0.09228698164224625,-0.13373030722141266,0.07784032821655273,-0.1274566799402237,-1.262690544128418,2.039229393005371,-0.6534711122512817,1.0396044254302979,2.1286962032318115,0.2256091684103012,-0.0036906450986862183,-0.22225776314735413,-0.7251256108283997,-1.138148546218872,0.7091262936592102,1.2549928426742554
-0.04011496156454086,0.09258833527565002,-0.05307227373123169,-0.1707923263311386,-0.011006999760866165,-0.9432482719421387,-0.8526499271392822,-0.6205015182495117,-0.16957390308380127,-0.30689337849617004,0.5388880372047424,-0.14126692712306976,0.21923092007637024,0.2591024339199066,-0.047348618507385254,-0.1859075278043747,-0.010132776573300362,-0.5160475969314575,-0.5903913974761963,-0.26429125666618347,-0.351188063621521,0.08836280554533005,-0.15654636919498444,-0.05188624933362007,0.1445823758840561,-0.1410389393568039,0.30372506380081177,0.307577520608902,-0.17915593087673187,0.05854165554046631,-0.4932793080806732,-0.09017862379550934,-0.04953564330935478,-0.4597100615501404,1.1139174699783325,-0.5180051922798157,1.80857253074646,1.0942332744598389,0.3137426972389221,0.7778698801994324,-1.0844331979751587,0.5152343511581421,-2.868140459060669,-0.6050098538398743,1.4155551195144653
0.13983963429927826,0.13852791488170624,-0.019553307443857193,-0.23636776208877563,-0.06606967747211456,-1.023344874382019,-0.8526499271392822,-0.6205015182495117,-0.1672602891921997,-0.2748035788536072,0.3697313964366913,-0.253578782081604,0.24937321245670319,0.19690407812595367,0.0745982825756073,0.04673614352941513,-0.06143365055322647,-0.5227314829826355,-0.704649031162262,-0.44534581899642944,-0.3690166771411896,0.12925882637500763,-0.5252729058265686,-0.35622647404670715,0.0009235262987203896,-0.16851000487804413,0.2606988847255707,0.571725070476532,-0.16145627200603485,-0.05755137279629707,-0.1345282793045044,-0.29986467957496643,-0.06234190613031387,-0.6513572931289673,0.590074360370636,-1.4151538610458374,2.0836524963378906,0.8827456831932068,0.8790729641914368,0.8701803088188171,-0.5557105541229248,0.22751484811306,-3.1013755798339844,-2.085777759552002,1.7961171865463257
0.041157010942697525,0.064376100897789,-0.0715702623128891,-0.18968097865581512,-0.08506707847118378,-0.9524126648902893,-0.8526499271392822,-0.6205015182495117,-0.16446542739868164,-0.24131512641906738,0.1534101665019989,-0.4636296033859253,0.27052685618400574,0.11909737437963486,0.2215263694524765,0.3090837299823761,-0.12159936875104904,-0.48693597316741943,-0.6416652798652649,-0.5208185911178589,-0.36554935574531555,0.1306922882795334,-0.4825340211391449,-0.5239278078079224,0.13974006474018097,-0.2687188684940338,0.3185250461101532,0.6053038239479065,-0.19859181344509125,0.09966599941253662,0.10582063347101212,0.053097497671842575,-0.06951083242893219,-0.8422961831092834,0.14767466485500336,-2.295339345932007,1.5787612199783325,1.1302647590637207,1.411538004875183,1.7166852951049805,-0.5397117733955383,0.24505667388439178,-2.4606728553771973,-2.242371082305908,2.0616204738616943
-0.06691235303878784,0.12624701857566833,-0.06827771663665771,-0.14164023101329803,-0.09199661761522293,-0.9337741136550903,-0.8526499271392822,-0.6205015182495117,-0.162192702293396,-0.19887779653072357,-0.013912941329181194,-0.6407265067100525,0.29024049639701843,0.04204726219177246,0.30930644273757935,0.46175625920295715,-0.2075815051794052,-0.4823705554008484,-0.470918208360672,-0.36458659172058105,-0.3544580340385437,0.19785824418067932,-0.3182869851589203,-0.3045293986797333,0.1408679038286209,-0.2583343982696533,0.18460170924663544,0.2988784909248352,-0.11679869890213013,-0.00983582716435194,0.28046584129333496,0.24531863629817963,-0.053382523357868195,-1.2440608739852905,-0.048545386642217636,-2.828366994857788,1.3563511371612549,0.8902163505554199,1.2789521217346191,1.9015830755233765,-0.4569084644317627,-0.3855658769607544,-1.6573797464370728,-1.4160679578781128,1.8660591840744019
-0.08542674034833908,0.06317867338657379,-0.060711417347192764,-0.18475578725337982,-0.012628171592950821,-1.0148886442184448,-0.8526499271392822,-0.6205015182495117,-0.16106784343719482,-0.1281389445066452,-0.05116470158100128,-0.707617998123169,0.3529091775417328,-0.04503553360700607,0.3418545126914978,0.4536074101924896,-0.27354928851127625,-0.45276203751564026,-0.24914874136447906,-0.20869377255439758,-0.34199440479278564,0.16391408443450928,0.052096378058195114,-0.14740809798240662,0.15708975493907928,-0.14432717859745026,0.09369494765996933,-0.021693427115678787,-0.17863328754901886,0.03526197746396065,0.43312183022499084,0.2083970308303833,0.05816836282610893,-1.2224026918411255,0.13527941703796387,-2.777737855911255,1.4178880453109741,0.20589353144168854,1.1092652082443237,1.2269785404205322,-0.5037247538566589,0.2241239994764328,-0.7093513011932373,-0.8062011003494263,1.6948333978652954
-0.10308738797903061,0.001326095312833786,-0.009399347007274628,-0.20108036696910858,-0.016484510153532028,-0.976690948009491,-0.8526499271392822,-0.6205015182495117,-0.16143476963043213,-0.07099730521440506,-0.006044063717126846,-0.6748464703559875,0.39989274740219116,-0.13871468603610992,0.32958051562309265,0.3629343807697296,-0.3564985394477844,-0.3903493881225586,-0.09617529064416885,-0.07986587285995483,-0.3201325535774231,0.09074997901916504,0.08363081514835358,0.008795362897217274,0.14036250114440918,-0.2507612109184265,-0.06364887207746506,-0.28569740056991577,-0.14710073173046112,0.191681906580925,0.2857673168182373,0.21920016407966614,0.004676163196563721,-0.8678216338157654,0.2859047055244446,-2.424341917037964,1.5971758365631104,0.10112093389034271,0.7517893314361572,1.014816164970398,-0.49611151218414307,-0.09528744965791702,-0.23509500920772552,-0.22856208682060242,0.9984602928161621
0.09409047663211823,-0.1487574726343155,-0.005025055259466171,-0.22186946868896484,-0.05808441713452339,-0.9385100603103638,-0.8526499271392822,-0.6205015182495117,-0.16267788410186768,-0.04256415367126465,0.05463772267103195,-0.6295721530914307,0.453848659992218,-0.1613214612007141,0.2879542410373688,0.22572220861911774,-0.3953661024570465,-0.3818378150463104,-0.021925881505012512,0.10735930502414703,-0.3282724916934967,0.05805927515029907,0.16288669407367706,0.08259250968694687,0.12114919722080231,-0.013843762688338757,-0.0901685282588005,-0.28404471278190613,-0.0698639526963234,0.012757671065628529,0.07153668254613876,0.22202615439891815,0.04393063858151436,-0.3014671206474304,0.6220120191574097,-2.1936967372894287,1.2947969436645508,0.25406450033187866,0.7464427947998047,0.7616599202156067,-0.6228649616241455,-0.9136551022529602,-0.01617106795310974,0.6922608613967896,-0.07421308755874634
-0.00782422348856926,-0.2508889138698578,0.0611417256295681,-0.24250228703022003,-0.028636112809181213,-1.0053623914718628,-0.8526499271392822,-0.6205015182495117,-0.1644296646118164,-0.06519531458616257,0.11339949816465378,-0.5488076210021973,0.4304894506931305,-0.0927228331565857,0.2665509581565857,0.15053650736808777,-0.3396699130535126,-0.48574209213256836,-0.0021960819140076637,0.24208025634288788,-0.3668017089366913,-0.09388672560453415,0.10656936466693878,0.060189153999090195,-0.09526165574789047,0.24396005272865295,-0.008600003086030483,0.19683575630187988,0.18384304642677307,-0.2317468374967575,-0.11722256988286972,-0.4494505822658539,-0.12191684544086456,-0.2248792052268982,1.3752623796463013,-1.370453119277954,0.7734102010726929,-0.012401461601257324,0.4330350160598755,0.0297488272190094,-0.49038273096084595,-2.1774847507476807,0.8362520337104797,2.1013128757476807,-1.524383544921875
-0.10838420689105988,0.0002994053065776825,-0.04244999215006828,-0.23302727937698364,-0.06785169988870621,-0.9402546286582947,-0.8526499271392822,-0.6205015182495117,-0.1644824743270874,-0.04846007376909256,0.1404711902141571,-0.51897132396698,0.33942386507987976,-0.027767732739448547,0.25714173913002014,0.18056605756282806,-0.21915729343891144,-0.4784897267818451,-0.08259574323892593,0.12885279953479767,-0.447104275226593,-0.0022136687766760588,0.10022427886724472,0.05492701753973961,-0.21933279931545258,0.0982227548956871,-0.02227514423429966,0.07617507129907608,0.3266291618347168,-0.07563259452581406,-0.24571101367473602,-0.20813997089862823,-0.1116935983300209,-0.2510974109172821,2.0862255096435547,-1.613574743270874,0.5121192932128906,0.16945229470729828,0.22893880307674408,-0.9715100526809692,-0.27049362659454346,-1.7459558248519897,0.41773349046707153,1.6208940744400024,-2.120450258255005
-0.02097095176577568,0.07534484565258026,0.0006768591701984406,-0.23971529304981232,-0.05113131180405617,-0.9585806727409363,-0.8526499271392822,-0.6205015182495117,-0.16484558582305908,-0.04270612448453903,0.18073028326034546,-0.49543899297714233,0.21348673105239868,-0.01387045718729496,0.26197493076324463,0.19355815649032593,-0.08819052577018738,-0.530246376991272,-0.16290712356567383,0.05439412593841553,-0.45251551270484924,0.06570680439472198,0.15882611274719238,0.04441935941576958,-0.3395463824272156,-0.004596150014549494,-0.005783677101135254,0.021788978949189186,0.3729255199432373,-0.1283831149339676,-0.22645698487758636,-0.26037049293518066,0.11698772758245468,-0.6689479351043701,1.615232229232788,-1.7680433988571167,0.5129094123840332,0.30788612365722656,0.2794817090034485,-0.20176827907562256,-0.0036964230239391327,-1.8047401905059814,0.8208486437797546,1.199352741241455,-1.8317515850067139
0.005837131291627884,0.03980964794754982,-0.014416534453630447,-0.1811307668685913,-0.04691479355096817,-1.0276514291763306,-0.8526499271392822,-0.6205015182495117,-0.16604232788085938,-0.05247420072555542,0.22636541724205017,-0.46243616938591003,0.1014675498008728,-0.01805293746292591,0.23929253220558167,0.18203520774841309,-0.008331909775733948,-0.5806000232696533,-0.21364478766918182,-0.02277221716940403,-0.3674358129501343,-0.06365401297807693,0.11900203675031662,0.04595453664660454,-0.1802508682012558,-0.09457550942897797,-0.029573852196335793,0.00448796758428216,0.1878536194562912,-0.03159758448600769,-0.08914551883935928,-0.1843440681695938,0.21691523492336273,-0.6268057823181152,1.6749457120895386,-2.261770725250244,0.3677893280982971,0.6417307257652283,0.3629533052444458,0.24732361733913422,0.04278332740068436,-1.7608075141906738,1.090618371963501,1.4919863939285278,-1.3654148578643799
0.004471000283956528,0.033425796777009964,0.06387858092784882,-0.21374160051345825,-0.008504722267389297,-1.0246270895004272,-0.8526499271392822,-0.6205015182495117,-0.16794562339782715,-0.060629814863204956,0.2529335916042328,-0.42159131169319153,0.03989814966917038,-0.034615643322467804,0.19683919847011566,0.14046882092952728,0.05671365559101105,-0.6020099520683289,-0.24690307676792145,-0.05705299973487854,-0.32603511214256287,-0.046503257006406784,0.13683728873729706,0.019527090713381767,-0.10619550943374634,0.07222187519073486,-0.048111896961927414,-0.057859908789396286,0.16244564950466156,-0.06195301562547684,-0.15080296993255615,-0.07686858624219894,0.007690179627388716,-0.6770712733268738,1.5666035413742065,-1.8231401443481445,0.10963746905326843,0.641277551651001,0.027643606066703796,0.15155760943889618,0.11927764117717743,-1.9491592645645142,1.0117360353469849,1.2013154029846191,-1.3678795099258423
0.029953937977552414,0.038953524082899094,-0.024211402982473373,-0.18536511063575745,-0.0008681975305080414,-0.9969295859336853,-0.8526499271392822,-0.6205015182495117,-0.16911530494689941,-0.09400985389947891,0.2886810898780823,-0.40280163288116455,0.011181997135281563,0.010840246453881264,0.17104654014110565,0.11869574338197708,0.10668385773897171,-0.6034331321716309,-0.28695833683013916,-0.08883365988731384,-0.3424632251262665,-0.0545499287545681,0.08484329283237457,0.03490297868847847,-0.09850198775529861,0.11563265323638916,-0.0693606361746788,-0.02952284924685955,0.048510242253541946,0.04981417581439018,-0.11319141834974289,-0.017553377896547318,-0.054831888526678085,-0.5546925663948059,2.2078096866607666,-2.0742762088775635,-0.12699611485004425,0.7576282024383545,0.21745751798152924,0.02852889895439148,0.4042220115661621,-2.0760598182678223,0.9203917384147644,1.5143721103668213,-1.4881645441055298
-0.11901208758354187,0.05740795657038689,0.01951928809285164,-0.17156390845775604,-0.04853116720914841,-0.9477897882461548,-0.8526499271392822,-0.6205015182495117,-0.1700739860534668,-0.1690971553325653,0.3125925660133362,-0.3607610762119293,0.001846974715590477,0.113197460770607,0.10202759504318237,0.07516581565141678,0.14882773160934448,-0.5666583180427551,-0.2983924150466919,-0.11248689144849777,-0.3905905783176422,-0.2448737621307373,0.12547345459461212,0.06307581812143326,-0.057279616594314575,0.17127692699432373,-0.16162608563899994,-0.08979912847280502,0.07382608950138092,0.028456568717956543,-0.05812731385231018,-0.1004204973578453,-0.11799658834934235,-1.0052204132080078,2.2594516277313232,-1.5347143411636353,-0.20148254930973053,0.7093502283096313,0.06758762896060944,-0.19193768501281738,0.7557282447814941,-2.215709924697876,1.100825309753418,1.5819151401519775,-1.7402924299240112
-0.08605654537677765,0.04199628159403801,-0.018654923886060715,-0.22293001413345337,-0.028194494545459747,-1.0201374292373657,-0.8526499271392822,-0.6205015182495117,-0.17082226276397705,-0.3131246268749237,0.3424074351787567,-0.33680400252342224,-0.02028970792889595,0.21438725292682648,0.040759868919849396,0.017715876922011375,0.19550664722919464,-0.5577417612075806,-0.30428212881088257,-0.1387079954147339,-0.3788539469242096,-0.3189821243286133,0.07344404608011246,0.0779961347579956,-0.04614292457699776,0.2302558720111847,-0.13834238052368164,-0.10535774379968643,0.14605699479579926,0.09271180629730225,-0.01966058649122715,-0.026369018480181694,-0.005653894040733576,-1.342821717262268,2.4556381702423096,-1.8661752939224243,-0.30220675468444824,1.118442416191101,0.37751418352127075,-0.01483982801437378,1.0238362550735474,-2.2492668628692627,1.2532141208648682,2.010864019393921,-1.4777467250823975
-0.17130742967128754,0.011974688619375229,0.008487384766340256,-0.1478148102760315,0.033721428364515305,-0.9464770555496216,-0.8526499271392822,-0.6205015182495117,-0.17189419269561768,-0.42597755789756775,0.3767401874065399,-0.2929777204990387,-0.029535571113228798,0.2966808080673218,-0.01439675036817789,-0.025811634957790375,0.2550884485244751,-0.4601241648197174,-0.2824192941188812,-0.1377985030412674,-0.33077794313430786,-0.28588131070137024,0.14553304016590118,0.051316987723112106,0.012735790573060513,0.1783771961927414,-0.21656470000743866,-0.09982556104660034,0.11898870766162872,0.22531448304653168,-0.010885286144912243,-0.05913938209414482,0.13604150712490082,-1.7660541534423828,2.3547842502593994,-1.5898562669754028,-0.16994145512580872,1.247159481048584,0.76526939868927,0.007402524352073669,1.3172622919082642,-1.8388116359710693,1.166577935218811,2.2754440307617188,-1.215686321258545
-0.1527368426322937,-0.04105352982878685,-0.0031496845185756683,-0.1730440855026245,0.018537309020757675,-0.9483810067176819,-0.8526499271392822,-0.6205015182495117,-0.17260706424713135,-0.48138242959976196,0.43193376064300537,-0.24802325665950775,-0.016249023377895355,0.3074961006641388,-0.06910019367933273,-0.0569152906537056,0.3082948923110962,-0.37988579273223877,-0.2777639627456665,-0.1577068418264389,-0.31051358580589294,-0.020820021629333496,0.021811677142977715,0.1722857505083084,0.003494811011478305,0.008672964759171009,-0.18542487919330597,-0.09564783424139023,0.17207109928131104,-0.025635767728090286,0.03873183950781822,0.04564636945724487,0.05559246614575386,-1.8344000577926636,2.3905649185180664,-1.4295322895050049,-0.16845263540744781,1.2639918327331543,0.44035065174102783,-0.16113272309303284,1.200839638710022,-1.1379772424697876,1.1587828397750854,2.2187604904174805,-1.3667328357696533
-0.01270628347992897,-0.1025363951921463,0.027302663773298264,-0.14486382901668549,0.014347713440656662,-0.9889147281646729,-0.8526499271392822,-0.6205015182495117,-0.17307472229003906,-0.4465291500091553,0.46476835012435913,-0.20564419031143188,-0.008645065128803253,0.255435973405838,-0.13168512284755707,-0.11862430721521378,0.3279593586921692,-0.39105090498924255,-0.24150840938091278,-0.15700292587280273,-0.3150131106376648,0.1305433064699173,0.13402993977069855,0.08493965119123459,0.04115011915564537,-0.20183232426643372,-0.15316152572631836,-0.11374557018280029,-0.03358585387468338,0.010520798154175282,0.07229367643594742,0.068333700299263,-0.01703133061528206,-1.4888854026794434,2.2806129455566406,-1.0235916376113892,0.01442255824804306,1.3424614667892456,0.08277776837348938,-0.5150840282440186,1.2054237127304077,-0.7138572931289673,0.6482861042022705,2.072519063949585,-1.2885727882385254
0.02996751293540001,-0.04580794647336006,-0.04016692936420441,-0.1861640214920044,-0.010350566357374191,-0.9755224585533142,-0.8526499271392822,-0.6205015182495117,-0.1732553243637085,-0.39285382628440857,0.5004439353942871,-0.17441590130329132,0.011794069781899452,0.20067620277404785,-0.20905545353889465,-0.17150460183620453,0.2876008152961731,-0.39603155851364136,-0.2147878259420395,-0.15241853892803192,-0.24585983157157898,0.14035645127296448,0.03942115232348442,0.040090858936309814,-0.0309869647026062,-0.12122070789337158,-0.13157203793525696,-0.12640155851840973,-0.14152896404266357,-0.016231626272201538,0.1046857163310051,-0.008020562119781971,0.06216144561767578,-1.0021113157272339,2.3981006145477295,-0.8320371508598328,0.07128827273845673,1.3122280836105347,-0.34602224826812744,-0.4491448998451233,0.8953225016593933,-0.5121245384216309,0.28565168380737305,1.6953372955322266,-0.8834891319274902
0.21291722357273102,-0.1481577605009079,0.045124541968107224,-0.2006833702325821,0.006069760769605637,-1.0270525217056274,-0.8526499271392822,-0.6205015182495117,-0.17458665370941162,-0.3725522458553314,0.5155221819877625,-0.14668942987918854,0.04019273817539215,0.1489257514476776,-0.1786128729581833,-0.20728608965873718,0.21160171926021576,-0.3679804801940918,-0.2730487585067749,-0.14740321040153503,-0.06880667805671692,0.12014370411634445,-0.03839404508471489,0.02772446908056736,0.12662959098815918,-0.0835634097456932,0.1474779099225998,-0.13247746229171753,-0.081917904317379,0.1156439334154129,-0.1713896244764328,-0.05152861028909683,0.2606283724308014,-0.8232042789459229,1.6451067924499512,-0.4627397656440735,0.5314521789550781,1.2274764776229858,-0.15813268721103668,-0.2006387859582901,0.6112185120582581,0.039676979184150696,-1.1348971128463745,1.0530173778533936,0.06104147434234619
