Huisouan/isaac-rl-lab/algo_obs1.csv
base_ang_vel_x,base_ang_vel_y,base_ang_vel_z,projected_gravity_x,projected_gravity_y,projected_gravity_z,velocity_command_x,velocity_command_y,velocity_command_z,joint_pos_0,joint_pos_1,joint_pos_2,joint_pos_3,joint_pos_4,joint_pos_5,joint_pos_6,joint_pos_7,joint_pos_8,joint_pos_9,joint_pos_10,joint_pos_11,joint_vel_0,joint_vel_1,joint_vel_2,joint_vel_3,joint_vel_4,joint_vel_5,joint_vel_6,joint_vel_7,joint_vel_8,joint_vel_9,joint_vel_10,joint_vel_11,action_0,action_1,action_2,action_3,action_4,action_5,action_6,action_7,action_8,action_9,action_10,action_11
-0.07646545022726059,0.3999609053134918,0.06779834628105164,0.02331746369600296,0.012055806815624237,-0.9996553063392639,0.0,0.0,-0.0,-0.06034557521343231,0.1047142818570137,-0.2287713885307312,0.08546747267246246,-1.0702753067016602,-0.04913109540939331,-0.9037207365036011,0.03977394104003906,0.007040143013000488,0.14506089687347412,0.6622414588928223,0.567977249622345,-0.1681147813796997,-0.12565627694129944,0.009173158556222916,0.5115895867347717,0.09452112764120102,-0.31739237904548645,-0.12581545114517212,-0.618889331817627,0.33652788400650024,0.7850003242492676,4.985332634532824e-05,-0.06712757796049118,-1.0336121320724487,0.23883993923664093,-1.5818837881088257,2.1325459480285645,-3.2971343994140625,-0.2896265983581543,-3.2004525661468506,-2.371461868286133,0.6110962629318237,2.724703311920166,3.9903857707977295,1.536211609840393
0.06645572185516357,-0.015985816717147827,-0.06239405646920204,0.03299327939748764,0.005758707411587238,-0.999439001083374,0.0,0.0,-0.0,-0.13953952491283417,0.12359727919101715,-0.23416146636009216,0.1828337013721466,-0.8927974700927734,-0.12123626470565796,-0.9053613543510437,-0.16039860248565674,0.08358991146087646,0.45906782150268555,0.6622427105903625,0.3017401695251465,-0.1791064590215683,0.14445023238658905,-0.010326804593205452,0.11761535704135895,0.562982976436615,-0.11261872202157974,0.059031713753938675,-0.5563978552818298,0.20638158917427063,0.7850000262260437,-0.00023466863785870373,-0.5451982021331787,-0.6475483179092407,1.3248833417892456,-0.8327818512916565,0.13545241951942444,-2.433164358139038,-0.21991804242134094,-1.9242295026779175,-1.272903561592102,0.5899783372879028,3.498833656311035,5.169901371002197,0.18855783343315125
0.13779668509960175,0.08826851099729538,0.004595761653035879,0.037852171808481216,-0.009259601123631,-0.999240517616272,0.0,0.0,-0.0,-0.20832973718643188,0.13496308028697968,-0.24913284182548523,0.23352685570716858,-0.7136106491088867,-0.10240280628204346,-0.897007167339325,-0.3707045316696167,0.2446650266647339,0.47159135341644287,0.637620747089386,0.18191730976104736,-0.154419407248497,-0.021150339394807816,-0.025927841663360596,0.16460590064525604,0.4173838794231415,0.0689159631729126,0.0403132401406765,-0.4495173990726471,0.31689944863319397,-0.13960738480091095,-0.11402197182178497,-0.25028541684150696,-0.6532259583473206,0.7662784457206726,-0.5769787430763245,0.8017787337303162,-2.6934244632720947,-0.5574522018432617,-1.9464836120605469,-0.9091603755950928,1.0715751647949219,2.651266098022461,4.948309898376465,0.6020030975341797
-0.017043037340044975,0.10322888195514679,0.07595968246459961,0.046099040657281876,-0.009762242436408997,-0.9988895058631897,0.0,0.0,-0.0,-0.2529657781124115,0.13616138696670532,-0.24736100435256958,0.2942097783088684,-0.5918796062469482,-0.08377814292907715,-0.8971537947654724,-0.5041996240615845,0.3330864906311035,0.43132877349853516,0.6222977042198181,0.23562443256378174,-0.09657032787799835,0.006925083231180906,0.009672790765762329,0.14161883294582367,0.2418995201587677,0.03339776024222374,0.01016522478312254,-0.17312179505825043,0.13935180008411407,-0.0764421746134758,-0.06038188934326172,0.0863782986998558,-0.6303314566612244,1.2184168100357056,-0.9726158380508423,0.6747965216636658,-2.8718271255493164,-0.9876580238342285,-1.7107058763504028,-0.9046051502227783,1.1286606788635254,3.7232656478881836,5.3601837158203125,1.3294391632080078
-0.11718142032623291,0.006749060936272144,0.056148335337638855,0.04900997877120972,-0.0032769814133644104,-0.9987930059432983,0.0,0.0,-0.0,-0.27658596634864807,0.1435128003358841,-0.23860660195350647,0.3162430226802826,-0.5249046087265015,-0.07066172361373901,-0.8879855871200562,-0.5225964784622192,0.34614646434783936,0.4116281270980835,0.5990411639213562,0.24011588096618652,-0.03357662260532379,0.0248800627887249,0.02740185335278511,0.002089129062369466,0.10503049194812775,0.027491530403494835,0.03217120096087456,0.007768265902996063,0.013896005228161812,-0.03137749433517456,-0.06536301225423813,0.013138568960130215,-0.7334617972373962,1.539265751838684,-1.300132155418396,0.4648178517818451,-2.6814680099487305,-1.16753351688385,-1.6231801509857178,-1.5862940549850464,1.107682704925537,3.1127986907958984,4.559234619140625,1.0341217517852783
-0.11084200441837311,-0.10849454998970032,0.003941676579415798,0.0433618426322937,0.0034795086830854416,-0.9990533590316772,0.0,0.0,-0.0,-0.29965806007385254,0.15053696930408478,-0.23404085636138916,0.27541160583496094,-0.4893837869167328,-0.052886962890625,-0.8503037691116333,-0.5004382729530334,0.2475571632385254,0.3972572088241577,0.5411496758460999,0.18750131130218506,-0.044228456914424896,0.021876631304621696,0.018150269985198975,-0.1514904499053955,0.006850005593150854,0.052580785006284714,0.09149547666311264,0.03786114603281021,-0.17150436341762543,-0.03636614605784416,-0.1410377472639084,-0.08466004580259323,-1.0803097486495972,1.3350611925125122,-1.5213820934295654,0.42856094241142273,-2.517162799835205,-1.6197798252105713,-2.005099058151245,-1.9787263870239258,0.5747125148773193,2.2841711044311523,3.0493340492248535,0.5762476921081543
-0.059774331748485565,-0.05300161987543106,0.00019060797058045864,0.036299608647823334,0.00572445522993803,-0.9993247389793396,0.0,0.0,-0.0,-0.3251393139362335,0.15270866453647614,-0.23400509357452393,0.2118445187807083,-0.5141475200653076,-0.028903186321258545,-0.8135215640068054,-0.4662451148033142,0.19948101043701172,0.37237799167633057,0.47909021377563477,0.02357017993927002,-0.0524526908993721,0.011661238968372345,0.005340264178812504,-0.16090844571590424,-0.09906474500894547,0.06314880400896072,0.08325090259313583,0.012055817060172558,-0.09153008460998535,-0.08152832835912704,-0.1547052264213562,-0.28345221281051636,-1.2700403928756714,1.032615065574646,-1.3310610055923462,0.6311445832252502,-2.2763705253601074,-1.4730350971221924,-2.21014404296875,-1.9363290071487427,0.628960371017456,1.7138879299163818,3.1551177501678467,-0.3146817684173584
-0.14447547495365143,0.008384676650166512,0.030307361856102943,0.034151963889598846,0.013020740821957588,-0.9993318915367126,0.0,0.0,-0.0,-0.34100961685180664,0.1594587117433548,-0.22868439555168152,0.17056965827941895,-0.5610999464988708,-0.007405459880828857,-0.7886973023414612,-0.4501168727874756,0.20048034191131592,0.3425140380859375,0.42853593826293945,-0.18230068683624268,-0.027088139206171036,0.026276318356394768,0.02311842143535614,-0.08391588181257248,-0.10667238384485245,0.047584306448698044,0.05676121637225151,-0.02512417547404766,-0.006113884504884481,-0.07667090743780136,-0.1326558142900467,-0.36776548624038696,-1.2542551755905151,0.8665923476219177,-1.209676742553711,0.6212687492370605,-2.1811656951904297,-1.3294386863708496,-2.199861526489258,-1.787013053894043,0.8078368902206421,2.045194149017334,3.404430866241455,-1.1667572259902954
-0.13348203897476196,0.03518519550561905,0.045288681983947754,0.03580424562096596,0.02290722168982029,-0.9990962743759155,0.0,0.0,-0.0,-0.3439508080482483,0.16800454258918762,-0.2205386459827423,0.14164979755878448,-0.5866217017173767,0.009099304676055908,-0.7753973007202148,-0.466042160987854,0.19412684440612793,0.3145836591720581,0.39283037185668945,-0.3640866279602051,0.009211163967847824,0.027585411444306374,0.020775413140654564,-0.07406945526599884,-0.041888277977705,0.033729344606399536,0.03433534875512123,-0.08509712666273117,-0.012728946283459663,-0.06759049743413925,-0.09900760650634766,-0.33291199803352356,-1.0590572357177734,0.789854109287262,-1.2951263189315796,0.4175891578197479,-2.151137113571167,-1.1228487491607666,-2.1096415519714355,-1.8768391609191895,0.7789669036865234,2.2408716678619385,3.4327242374420166,-1.831400752067566
-0.07001899182796478,0.05250537768006325,0.04648633673787117,0.03949591517448425,0.029625914990901947,-0.9987804889678955,0.0,0.0,-0.0,-0.330188512802124,0.17258906364440918,-0.21579165756702423,0.10682831704616547,-0.5788313746452332,0.02308666706085205,-0.7690377235412598,-0.5063983798027039,0.1674710512161255,0.28758418560028076,0.36766982078552246,-0.4886728525161743,0.05280769616365433,0.01112720463424921,0.007260526996105909,-0.09099701046943665,0.03426828607916832,0.031506408005952835,0.02026870660483837,-0.11264258623123169,-0.03912699595093727,-0.06747446209192276,-0.07241000235080719,-0.2271203249692917,-0.9158942103385925,0.8907115459442139,-1.4571702480316162,0.26076701283454895,-2.069298267364502,-0.9700299501419067,-2.0364441871643066,-2.0001633167266846,0.63059401512146,2.0729568004608154,3.347738265991211,-2.189854621887207
-0.050151072442531586,0.07253473252058029,0.044868990778923035,0.044733766466379166,0.03418295830488205,-0.9984139800071716,0.0,0.0,-0.0,-0.2994522154331207,0.17460957169532776,-0.21358993649482727,0.07187164574861526,-0.545853316783905,0.036363065242767334,-0.7661809921264648,-0.5467510223388672,0.14535605907440186,0.25945329666137695,0.34716641902923584,-0.5603606700897217,0.0874183252453804,0.002600050764158368,0.003004596335813403,-0.08072631806135178,0.09204904735088348,0.03381013870239258,0.009451562538743019,-0.08860724419355392,-0.025190243497490883,-0.07346715033054352,-0.05789642408490181,-0.12719497084617615,-0.8793421387672424,1.167394757270813,-1.5519040822982788,0.1477026641368866,-1.9201672077178955,-0.9369638562202454,-1.9740217924118042,-2.105907917022705,0.5526186227798462,1.7565964460372925,3.23828125,-2.3600122928619385
-0.06431770324707031,0.0872587040066719,0.03707096353173256,0.051255613565444946,0.03931589052081108,-0.9979113340377808,0.0,0.0,-0.0,-0.2587742209434509,0.17695161700248718,-0.2114127278327942,0.044814351946115494,-0.49856850504875183,0.05011403560638428,-0.7643845081329346,-0.5713034868240356,0.14589881896972656,0.22860288619995117,0.32651495933532715,-0.5933258533477783,0.1007775291800499,0.004942856729030609,0.004067183006554842,-0.05759267136454582,0.1245952844619751,0.04096456617116928,0.005424114875495434,-0.04237920045852661,0.015623112209141254,-0.08564577251672745,-0.05664220452308655,-0.05422351881861687,-0.8319492340087891,1.4116421937942505,-1.6052041053771973,0.05828549712896347,-1.7647995948791504,-0.9824063777923584,-1.9045075178146362,-2.1778571605682373,0.5877485275268555,1.4438711404800415,3.05316424369812,-2.4222805500030518
-0.05739837512373924,0.04497183486819267,0.01381318736821413,0.056447818875312805,0.043961282819509506,-0.9974372982978821,0.0,0.0,-0.0,-0.2440655529499054,0.17863748967647552,-0.21068832278251648,0.025717630982398987,-0.4712185263633728,0.06496715545654297,-0.7590857744216919,-0.5755400061607361,0.11307990550994873,0.19745326042175293,0.30105578899383545,-0.6056005954742432,-0.009303300641477108,0.004876578692346811,0.001318380469456315,-0.03858966380357742,0.020589293912053108,0.04390973597764969,0.018087314441800117,0.0063955956138670444,-0.08172212541103363,-0.0793786570429802,-0.06681570410728455,-0.01696065627038479,-0.7599384188652039,1.5190829038619995,-1.6103917360305786,0.01970752328634262,-1.6634992361068726,-0.9975723624229431,-1.8439083099365234,-2.1994636058807373,0.772937536239624,1.185937762260437,2.8302152156829834,-2.4434120655059814
-0.043816473335027695,0.03257180377840996,0.004049249459058046,0.059447795152664185,0.04840676859021187,-0.9970570206642151,0.0,0.0,-0.0,-0.24609380960464478,0.18027295172214508,-0.21077072620391846,0.022164613008499146,-0.46145784854888916,0.07983338832855225,-0.7504935264587402,-0.5637990236282349,0.07888567447662354,0.1684356927871704,0.27206146717071533,-0.6080818176269531,-0.007210925221443176,0.0015416963724419475,-0.0031995319295674562,0.004556117579340935,0.026112914085388184,0.03977000713348389,0.025587787851691246,0.03699064999818802,-0.08904355019330978,-0.07630948722362518,-0.07972022145986557,0.0016670142067596316,-0.7987036108970642,1.207932710647583,-1.3227275609970093,0.05501433461904526,-1.5924557447433472,-0.8780285120010376,-1.9939191341400146,-2.1558525562286377,0.8281979560852051,1.01516592502594,2.6949961185455322,-2.442829132080078
-0.015926040709018707,0.02315855398774147,0.006103247404098511,0.061620987951755524,0.05125698447227478,-0.9967825412750244,0.0,0.0,-0.0,-0.24942666292190552,0.18054252862930298,-0.21242770552635193,0.03506891429424286,-0.45316842198371887,0.09452551603317261,-0.7423546314239502,-0.5453084707260132,0.04746437072753906,0.1395096778869629,0.24348294734954834,-0.6043906211853027,-0.012671001255512238,-0.0034680161625146866,-0.008776194415986538,0.04063648357987404,0.02204190008342266,0.03958132117986679,0.0252298004925251,0.04591989144682884,-0.0826767310500145,-0.07642120867967606,-0.08097880333662033,0.01342772226780653,-0.8765910863876343,1.0332697629928589,-1.0009185075759888,0.11338391155004501,-1.55452561378479,-0.6934514045715332,-2.019017219543457,-2.1115293502807617,0.7991989850997925,0.8934051990509033,2.602374315261841,-2.4289393424987793
-0.034962210804224014,0.017752043902873993,0.012215199880301952,0.06331407278776169,0.0546049103140831,-0.9964988231658936,0.0,0.0,-0.0,-0.2524518072605133,0.18143361806869507,-0.213406503200531,0.058694928884506226,-0.44633445143699646,0.10882121324539185,-0.7350174784660339,-0.5275949239730835,0.017348885536193848,0.11068141460418701,0.2148895263671875,-0.5929784774780273,-0.009748139418661594,0.0017316610319539905,-0.0049428255297243595,0.059823211282491684,0.017471199855208397,0.03827473148703575,0.02403341233730316,0.04052260145545006,-0.07797612994909286,-0.07653243094682693,-0.08376257866621017,0.028053775429725647,-0.9290161728858948,0.9752110838890076,-0.7847634553909302,0.14608058333396912,-1.5053097009658813,-0.6285514235496521,-2.000513792037964,-2.0600876808166504,0.5832617282867432,0.8562687635421753,2.53944993019104,-2.3861265182495117
-0.053925611078739166,0.020048242062330246,0.01865430921316147,0.06494702398777008,0.05930743366479874,-0.996125340461731,0.0,0.0,-0.0,-0.2547394335269928,0.1836240291595459,-0.2129288613796234,0.08520867675542831,-0.44069594144821167,0.12282699346542358,-0.7287157773971558,-0.5116926431655884,-0.01292884349822998,0.08154296875,0.18609261512756348,-0.5877506732940674,-0.007464779075235128,0.003767114132642746,-0.0012807449093088508,0.05911771208047867,0.012162014842033386,0.03675973415374756,0.022119911387562752,0.034191809594631195,-0.07423064857721329,-0.07636907696723938,-0.08651994913816452,0.011080172844231129,-0.9003022313117981,0.9532949328422546,-0.737671434879303,0.18945512175559998,-1.4103798866271973,-0.5807976722717285,-1.9564149379730225,-2.003596544265747,0.3137814998626709,0.8594100475311279,2.5610952377319336,-2.3945388793945312
-0.058330290019512177,0.024469075724482536,0.022771470248699188,0.06685789674520493,0.06427149474620819,-0.9956902861595154,0.0,0.0,-0.0,-0.257412850856781,0.1859954297542572,-0.21218177676200867,0.10825971513986588,-0.4362102150917053,0.13657796382904053,-0.7239789962768555,-0.49602293968200684,-0.043370604515075684,0.05183708667755127,0.15820622444152832,-0.5989363193511963,-0.008622084744274616,0.007806538138538599,-0.0009076183778233826,0.046732883900403976,0.004589713644236326,0.03479471802711487,0.019722213968634605,0.032869890332221985,-0.06702114641666412,-0.078077532351017,-0.08675592392683029,-0.022631622850894928,-0.8238787055015564,0.9483285546302795,-0.7931469678878784,0.24469909071922302,-1.3050436973571777,-0.5012376308441162,-1.9094470739364624,-1.9331552982330322,0.10801959037780762,0.8659980297088623,2.6273701190948486,-2.4746925830841064
-0.046477172523736954,0.027726758271455765,0.02510465867817402,0.06915626674890518,0.06857547163963318,-0.9952459931373596,0.0,0.0,-0.0,-0.26016807556152344,0.1874823272228241,-0.21212321519851685,0.12479537725448608,-0.4308953285217285,0.14941078424453735,-0.7213629484176636,-0.4795035123825073,-0.07382357120513916,0.02250993251800537,0.13281261920928955,-0.6218888759613037,-0.013634189032018185,0.004945618566125631,-0.0035917542409151793,0.029297856613993645,0.0021999746095389128,0.03132712095975876,0.016114169731736183,0.03577093034982681,-0.07722216099500656,-0.07500038295984268,-0.0824451670050621,-0.04329301044344902,-0.7497332692146301,0.9445280432701111,-0.8702092170715332,0.2986954152584076,-1.2210056781768799,-0.4094010591506958,-1.8798911571502686,-1.8508483171463013,-0.02162829041481018,0.8701640367507935,2.6893832683563232,-2.582381248474121
-0.04040059447288513,0.031243398785591125,0.02616143971681595,0.07166989892721176,0.07220640033483505,-0.9948114156723022,0.0,0.0,-0.0,-0.26189205050468445,0.18812668323516846,-0.2127276062965393,0.1348244994878769,-0.4237850308418274,0.16062575578689575,-0.7209004163742065,-0.46231919527053833,-0.10316598415374756,-0.0051348209381103516,0.11075687408447266,-0.6469719409942627,-0.004907719325274229,-0.0003157193714287132,-0.0046580336056649685,0.015428147278726101,0.013828202150762081,0.026912858709692955,0.011374568566679955,0.037485960870981216,-0.0650084838271141,-0.06843587011098862,-0.07537582516670227,-0.04506450891494751,-0.7070199847221375,0.9453625082969666,-0.9214057922363281,0.3393908441066742,-1.140615701675415,-0.3192625045776367,-1.8588905334472656,-1.775377631187439,-0.11857715249061584,0.8306245803833008,2.7124693393707275,-2.6805419921875
-0.03868671879172325,0.02998332306742668,0.025780946016311646,0.07420189678668976,0.07541541755199432,-0.9943876266479492,0.0,0.0,-0.0,-0.26090937852859497,0.1882791519165039,-0.21368032693862915,0.13977983593940735,-0.41204318404197693,0.17008113861083984,-0.722152829170227,-0.44400352239608765,-0.13241851329803467,-0.030646681785583496,0.09181416034698486,-0.6702351570129395,0.004919176455587149,0.002827440155670047,-0.005153981503099203,0.0056680175475776196,0.02652682736515999,0.0214132908731699,0.006964632775634527,0.041246864944696426,-0.056282758712768555,-0.06356369704008102,-0.06714407354593277,-0.04100083187222481,-0.6826680898666382,0.9687541723251343,-0.958309531211853,0.36468085646629333,-1.0599439144134521,-0.2348814606666565,-1.8281649351119995,-1.696691870689392,-0.19942370057106018,0.7504788041114807,2.7056033611297607,-2.7666726112365723
-0.035427991300821304,0.026961877942085266,0.023833859711885452,0.07652106881141663,0.07829828560352325,-0.9939886331558228,0.0,0.0,-0.0,-0.2575385868549347,0.18805687129497528,-0.21488013863563538,0.1416492760181427,-0.3967546224594116,0.17787623405456543,-0.7246111631393433,-0.42422324419021606,-0.16070127487182617,-0.05378997325897217,0.07541918754577637,-0.6905896663665771,0.011850444599986076,0.0011999927228316665,-0.005035306792706251,0.00045627844519913197,0.03591414541006088,0.01823948323726654,0.0007698621484450996,0.044987838715314865,-0.04800653085112572,-0.05831336975097656,-0.05865045264363289,-0.03533516451716423,-0.6694562435150146,0.9930198788642883,-0.9738794565200806,0.38429757952690125,-0.9669351577758789,-0.16034916043281555,-1.8028196096420288,-1.6157348155975342,-0.28118494153022766,0.6377158164978027,2.6867868900299072,-2.840259552001953
-0.031387798488140106,0.02566133253276348,0.021662037819623947,0.07863432168960571,0.0810486376285553,-0.9936037063598633,0.0,0.0,-0.0,-0.25199681520462036,0.18783576786518097,-0.21605157852172852,0.14308367669582367,-0.3771384656429291,0.18427956104278564,-0.7280991077423096,-0.40250730514526367,-0.18860602378845215,-0.07501721382141113,0.06127810478210449,-0.7086591720581055,0.017515107989311218,-0.002118718810379505,-0.005341782700270414,0.0007636031368747354,0.04725251719355583,0.015710975974798203,0.0014617448905482888,0.04980771616101265,-0.04152153804898262,-0.05360987409949303,-0.05427088961005211,-0.03092174045741558,-0.6657088398933411,1.0139386653900146,-0.9682323932647705,0.40358683466911316,-0.8632034659385681,-0.09289476275444031,-1.785017967224121,-1.5240510702133179,-0.3728843629360199,0.51609206199646,2.6698336601257324,-2.9063520431518555
-0.03153810277581215,0.02249234728515148,0.01946670189499855,0.08052617311477661,0.08374672383069992,-0.9932281970977783,0.0,0.0,-0.0,-0.24515202641487122,0.18783089518547058,-0.21700994670391083,0.14563420414924622,-0.35397589206695557,0.18956273794174194,-0.7323352098464966,-0.37913328409194946,-0.21595358848571777,-0.09478223323822021,0.04885590076446533,-0.7244937419891357,0.020753199234604836,0.0006622981163673103,-0.004824973177164793,0.004500061739236116,0.055534299463033676,0.01300461869686842,-0.001219524652697146,0.05332008749246597,-0.034303005784749985,-0.051001716405153275,-0.048813726752996445,-0.026440126821398735,-0.6664393544197083,1.0351018905639648,-0.949350118637085,0.4235488474369049,-0.7538013458251953,-0.044126689434051514,-1.773396372795105,-1.4302575588226318,-0.45617225766181946,0.4088159203529358,2.6441261768341064,-2.9649932384490967
-0.029021475464105606,0.019231107085943222,0.017993256449699402,0.082154281437397,0.08634556829929352,-0.9928722381591797,0.0,0.0,-0.0,-0.23780643939971924,0.1879793405532837,-0.21778644621372223,0.1501651406288147,-0.3278239369392395,0.19390827417373657,-0.7371311783790588,-0.3547680974006653,-0.24249303340911865,-0.11327624320983887,0.0376894474029541,-0.7376818656921387,0.02235349453985691,0.00042585283517837524,-0.00392396142706275,0.009762429632246494,0.06389524787664413,0.01148158311843872,-0.006861545145511627,0.05528309941291809,-0.02485261671245098,-0.04856901243329048,-0.04180196672677994,-0.021084407344460487,-0.6630280017852783,1.0427405834197998,-0.9240951538085938,0.4520604908466339,-0.6332923769950867,-0.001334071159362793,-1.763951301574707,-1.3328922986984253,-0.5375523567199707,0.3160080909729004,2.628120183944702,-3.012228012084961
-0.024927837774157524,0.015379756689071655,0.016823850572109222,0.0834600031375885,0.0887899100780487,-0.9925479292869568,0.0,0.0,-0.0,-0.2302888035774231,0.18829700350761414,-0.21836531162261963,0.1571396291255951,-0.29868292808532715,0.197459876537323,-0.7425490617752075,-0.32986778020858765,-0.2680753469467163,-0.13064837455749512,0.028029561042785645,-0.7480993270874023,0.023402953520417213,-0.0013150520389899611,-0.0044235954992473125,0.015360191464424133,0.07270943373441696,0.009765403345227242,-0.0031687479931861162,0.05621225759387016,-0.012655854225158691,-0.04561033472418785,-0.044137854129076004,-0.015510804019868374,-0.6557491421699524,1.0530797243118286,-0.9012272357940674,0.486762136220932,-0.5070590376853943,0.03468197584152222,-1.7502551078796387,-1.2329314947128296,-0.6161127090454102,0.24115429818630219,2.6237831115722656,-3.048950672149658
-0.023984814062714577,0.009247509762644768,0.016493244096636772,0.08432774245738983,0.091079942882061,-0.9922672510147095,0.0,0.0,-0.0,-0.22308465838432312,0.18882910907268524,-0.21869295835494995,0.16629281640052795,-0.26794201135635376,0.20021659135818481,-0.7482847571372986,-0.30529749393463135,-0.29187023639678955,-0.14676141738891602,0.019348978996276855,-0.7557599544525146,0.02339678630232811,0.00075650739017874,-0.0037512548733502626,0.020543580874800682,0.07712125033140182,0.008011740632355213,-0.005040653981268406,0.05477957800030708,0.0028697014786303043,-0.04290490597486496,-0.039830368012189865,-0.010244568809866905,-0.650614321231842,1.0735832452774048,-0.8850287199020386,0.5247839689254761,-0.3860909640789032,0.050800442695617676,-1.744010090827942,-1.1370964050292969,-0.6820045709609985,0.19153641164302826,2.620252847671509,-3.076120376586914
-0.021443644538521767,0.0030463947914540768,0.01694159209728241,0.08470583707094193,0.09320024400949478,-0.9920376539230347,0.0,0.0,-0.0,-0.21613150835037231,0.1894983947277069,-0.21877671778202057,0.17715424299240112,-0.23527681827545166,0.20214217901229858,-0.7544199228286743,-0.2814212441444397,-0.31378424167633057,-0.16151726245880127,0.011760354042053223,-0.7608091831207275,0.02380562014877796,0.0007464042282663286,-0.002361472463235259,0.02430974505841732,0.08431527018547058,0.006422542035579681,-0.010555493645370007,0.05328017473220825,0.017133403569459915,-0.039865005761384964,-0.03253339231014252,-0.005290714558213949,-0.637064516544342,1.0915095806121826,-0.8785920143127441,0.5694231986999512,-0.2627578675746918,0.073539599776268,-1.733397364616394,-1.0403392314910889,-0.7530782222747803,0.14531169831752777,2.629643678665161,-3.0922791957855225
-0.01689506508409977,-0.00211712927557528,0.01735512912273407,0.08461559563875198,0.09507675468921661,-0.9918671250343323,0.0,0.0,-0.0,-0.20905211567878723,0.19025160372257233,-0.2186182588338852,0.18922516703605652,-0.19966787099838257,0.2033209204673767,-0.7610853314399719,-0.25806981325149536,-0.33390486240386963,-0.1750929355621338,0.005609273910522461,-0.7634124755859375,0.02539093606173992,-0.000593571865465492,-0.003030444262549281,0.026621138677001,0.09431774169206619,0.004374546464532614,-0.006440942175686359,0.05221349000930786,0.035168375819921494,-0.03704267740249634,-0.03593127056956291,-0.0005385529366321862,-0.61825031042099,1.118666410446167,-0.8836261034011841,0.6184151768684387,-0.13915741443634033,0.10462984442710876,-1.7151974439620972,-0.9443520307540894,-0.8250707387924194,0.10005681216716766,2.6448121070861816,-3.0986809730529785
-0.013952801935374737,-0.008873154409229755,0.017951104789972305,0.08403924852609634,0.09665997326374054,-0.9917633533477783,0.0,0.0,-0.0,-0.20205336809158325,0.1910877376794815,-0.21827860176563263,0.20180590450763702,-0.16278040409088135,0.20375293493270874,-0.7681986689567566,-0.23558706045150757,-0.3517240285873413,-0.18757867813110352,0.0004850625991821289,-0.7639505863189697,0.025456422939896584,0.00045117942499928176,-0.002452932298183441,0.02756977640092373,0.09449794143438339,0.0034109652042388916,-0.00873752310872078,0.04993104189634323,0.04901392385363579,-0.03470649942755699,-0.031176848337054253,0.0030980687588453293,-0.6034355163574219,1.1607820987701416,-0.8973687887191772,0.6673403382301331,-0.02687593549489975,0.12676703929901123,-1.700797438621521,-0.8556150197982788,-0.8771533966064453,0.06890569627285004,2.652524709701538,-3.0983784198760986
-0.008916571736335754,-0.016768882051110268,0.018545130267739296,0.08288773894309998,0.09783385694026947,-0.9917451739311218,0.0,0.0,-0.0,-0.19551607966423035,0.19187375903129578,-0.2178618460893631,0.21451161801815033,-0.12616413831710815,0.20352405309677124,-0.7757034301757812,-0.21375733613967896,-0.36666762828826904,-0.1990267038345337,-0.0036829710006713867,-0.7619516849517822,0.024493960663676262,0.0002067295863525942,-0.0011534426594153047,0.02824774757027626,0.09310152381658554,0.002154432237148285,-0.014600205235183239,0.0491793192923069,0.06293638795614243,-0.03214426338672638,-0.02303033135831356,0.008115335367619991,-0.5893611311912537,1.1971482038497925,-0.9165630340576172,0.7217153906822205,0.09066591411828995,0.15785524249076843,-1.6873642206192017,-0.7658023834228516,-0.9296051263809204,0.030564770102500916,2.6647400856018066,-3.08465576171875
-0.0018603038042783737,-0.0218962449580431,0.01953321322798729,0.0812263935804367,0.09853345155715942,-0.9918133020401001,0.0,0.0,-0.0,-0.18939346075057983,0.19258584082126617,-0.21737390756607056,0.22781112790107727,-0.08808839321136475,0.2028321623802185,-0.7836977243423462,-0.19149643182754517,-0.3791922330856323,-0.20982229709625244,-0.0066928863525390625,-0.7570779323577881,0.02473278157413006,-0.0006611102144233882,-0.002546726493164897,0.03010304644703865,0.10083393007516861,0.0002370629517827183,-0.010195658542215824,0.051068808883428574,0.08617086708545685,-0.03110950067639351,-0.0281932782381773,0.014133092947304249,-0.572708785533905,1.2300747632980347,-0.9407870769500732,0.7797079682350159,0.20942112803459167,0.19968649744987488,-1.6749789714813232,-0.6699903011322021,-0.9940987825393677,-0.008533671498298645,2.683426856994629,-3.058455467224121
0.0033419232349842787,-0.026530563831329346,0.02134689874947071,0.0791848748922348,0.09875483810901642,-0.991956353187561,0.0,0.0,-0.0,-0.18346263468265533,0.19323399662971497,-0.21684952080249786,0.24154934287071228,-0.048493027687072754,0.20169967412948608,-0.7922753691673279,-0.16882485151290894,-0.38969099521636963,-0.22031474113464355,-0.008933544158935547,-0.7500095367431641,0.025621740147471428,-0.0004573932965286076,-0.0022027844097465277,0.03091271221637726,0.10312876850366592,0.0005694430437870324,-0.013139605522155762,0.05171447619795799,0.10572414845228195,-0.030847445130348206,-0.023796869441866875,0.018004177138209343,-0.5540386438369751,1.2737635374069214,-0.973694920539856,0.8330711126327515,0.30836057662963867,0.23359894752502441,-1.6553449630737305,-0.5783002376556396,-1.0550462007522583,-0.02209194004535675,2.7018487453460693,-3.0276854038238525
0.007260702084749937,-0.0319361686706543,0.023503288626670837,0.0767594650387764,0.09854960441589355,-0.9921672940254211,0.0,0.0,-0.0,-0.17747680842876434,0.19381923973560333,-0.21626800298690796,0.2552385628223419,-0.008184254169464111,0.2002524733543396,-0.8014277219772339,-0.14578157663345337,-0.3979419469833374,-0.2307499647140503,-0.01057577133178711,-0.740673303604126,0.02796831540763378,-0.0003665542171802372,-0.0005098238470964134,0.03098425082862377,0.10451342165470123,-0.0005307316896505654,-0.02000967226922512,0.05309301242232323,0.12939821183681488,-0.03026476316154003,-0.015186937525868416,0.022393085062503815,-0.5295488238334656,1.3158293962478638,-1.0193201303482056,0.8885698914527893,0.406667023897171,0.27001264691352844,-1.6205217838287354,-0.4829680025577545,-1.1310749053955078,-0.03159399330615997,2.728766441345215,-2.985877513885498
0.014177783392369747,-0.038080763071775436,0.025037862360477448,0.07391507923603058,0.09793730080127716,-0.9924437999725342,0.0,0.0,-0.0,-0.17122796177864075,0.19433440268039703,-0.2156573235988617,0.2688690721988678,0.03180330991744995,0.19866186380386353,-0.8111873269081116,-0.12164396047592163,-0.40435898303985596,-0.2413402795791626,-0.011565327644348145,-0.7286295890808105,0.028025006875395775,-0.001117149950005114,-0.0022513382136821747,0.030527828261256218,0.09875226765871048,-0.0021710945293307304,-0.016164546832442284,0.05667481571435928,0.12578459084033966,-0.030257780104875565,-0.020871629938483238,0.027967888861894608,-0.4965418577194214,1.3605626821517944,-1.081750512123108,0.946626603603363,0.5025573968887329,0.31346622109413147,-1.5725373029708862,-0.3804496228694916,-1.2255637645721436,-0.038558706641197205,2.766129732131958,-2.931380033493042
0.018617581576108932,-0.04474551975727081,0.02713979035615921,0.070596843957901,0.09698082506656647,-0.9927798509597778,0.0,0.0,-0.0,-0.16470575332641602,0.19482986629009247,-0.21498823165893555,0.283001184463501,0.07001429796218872,0.19687420129776,-0.8213645219802856,-0.0963289737701416,-0.40865468978881836,-0.2519875764846802,-0.012389659881591797,-0.7139520645141602,0.027233228087425232,-0.0008728273096494377,-0.0019901504274457693,0.03219885751605034,0.09285704046487808,-0.0014663907932117581,-0.018590860068798065,0.05940083786845207,0.1163085475564003,-0.030562877655029297,-0.017842287197709084,0.033124130219221115,-0.4707281291484833,1.409659504890442,-1.1426056623458862,1.0083568096160889,0.606184720993042,0.3380917012691498,-1.5439233779907227,-0.27775606513023376,-1.3196461200714111,-0.04041661322116852,2.8033957481384277,-2.8676600456237793
0.022974546998739243,-0.05272394418716431,0.029478495940566063,0.06676933169364929,0.09582051634788513,-0.9931570887565613,0.0,0.0,-0.0,-0.15761229395866394,0.19539806246757507,-0.21417567133903503,0.29820317029953003,0.11021018028259277,0.19490736722946167,-0.8320527076721191,-0.07000994682312012,-0.41120362281799316,-0.26277053356170654,-0.013021707534790039,-0.6949224472045898,0.02543070912361145,-0.0008705197251401842,-0.0007458098116330802,0.03505132719874382,0.09849649667739868,-0.002235766965895891,-0.024428855627775192,0.06266262382268906,0.08354715257883072,-0.030338779091835022,-0.009915932081639767,0.0421290285885334,-0.4420301020145416,1.4533451795578003,-1.2048476934432983,1.0767347812652588,0.7255303263664246,0.3608138859272003,-1.50945246219635,-0.16839025914669037,-1.4269827604293823,-0.049074187874794006,2.843369483947754,-2.7818121910095215
0.028236141428351402,-0.06121451035141945,0.03150831535458565,0.06236153841018677,0.09453631937503815,-0.993566632270813,0.0,0.0,-0.0,-0.14947642385959625,0.19609414041042328,-0.2131269872188568,0.3153044283390045,0.15666556358337402,0.19278442859649658,-0.8432574272155762,-0.04269331693649292,-0.4107820987701416,-0.273708701133728,-0.013427972793579102,-0.6686344146728516,0.023440152406692505,-0.00104072957765311,-0.002274795202538371,0.04015735164284706,0.11347534507513046,-0.0031797350384294987,-0.022525211796164513,0.06613218039274216,0.050196241587400436,-0.031203610822558403,-0.015027383342385292,0.05714264139533043,-0.4134163558483124,1.4933933019638062,-1.2627657651901245,1.1579277515411377,0.8690703511238098,0.3799945116043091,-1.4701578617095947,-0.055097635835409164,-1.5434653759002686,-0.07236729562282562,2.873917818069458,-2.6607584953308105
0.0293977502733469,-0.07293328642845154,0.03357008099555969,0.0571933276951313,0.0933041200041771,-0.9939938187599182,0.0,0.0,-0.0,-0.1405525803565979,0.19703537225723267,-0.21179232001304626,0.33467549085617065,0.21063464879989624,0.19050753116607666,-0.8546737432479858,-0.01458120346069336,-0.40738892555236816,-0.28466784954071045,-0.014233231544494629,-0.6325538158416748,0.021144485101103783,-0.0007070375722832978,-0.0013439372414723039,0.04608502611517906,0.12959761917591095,-0.0020677794236689806,-0.024021964520215988,0.06944343447685242,0.013347878120839596,-0.03152642399072647,-0.012577000074088573,0.07639767229557037,-0.3829917311668396,1.5332435369491577,-1.3114885091781616,1.24472975730896,1.024355173110962,0.39010703563690186,-1.4164236783981323,0.060702014714479446,-1.6626825332641602,-0.09240682423114777,2.8868367671966553,-2.4974451065063477
0.03570321202278137,-0.09779250621795654,0.03145512193441391,0.05051475763320923,0.09186983108520508,-0.9944889545440674,0.0,0.0,-0.0,-0.1316918134689331,0.1980004459619522,-0.21049925684928894,0.3541818857192993,0.2664642930030823,0.1884506344795227,-0.8653688430786133,0.01372683048248291,-0.42310118675231934,-0.29523468017578125,-0.016417741775512695,-0.5832901000976562,0.024120917543768883,-0.0012328382581472397,-0.0017130374908447266,0.04578598961234093,0.12348736822605133,-0.0004107351414859295,-0.02131284587085247,0.0725569948554039,-0.02621196024119854,-0.030610231682658195,-0.015146044082939625,0.10135668516159058,-0.34410813450813293,1.5542370080947876,-1.3493486642837524,1.3299275636672974,1.1988807916641235,0.400677353143692,-1.339354395866394,0.17204393446445465,-1.7766788005828857,-0.1214200109243393,2.8621022701263428,-2.275028944015503
0.049491576850414276,-0.13507229089736938,0.026407111436128616,0.04122820496559143,0.08953942358493805,-0.9951298236846924,0.0,0.0,-0.0,-0.12315227836370468,0.19840218126773834,-0.20999790728092194,0.37227603793144226,0.3187546133995056,0.1873265504837036,-0.8736767768859863,0.04074883460998535,-0.44727492332458496,-0.30478549003601074,-0.02160930633544922,-0.5154964923858643,0.02149357460439205,-0.0029390451963990927,-0.003879355965182185,0.04556894674897194,0.11425032466650009,0.0032727604266256094,-0.01480122096836567,0.07231973856687546,-0.03903390094637871,-0.02825687639415264,-0.02222108282148838,0.1365009993314743,-0.32761242985725403,1.524888515472412,-1.3401970863342285,1.424752950668335,1.4029988050460815,0.4135231375694275,-1.3034816980361938,0.2670162618160248,-1.8791460990905762,-0.18421174585819244,2.7757673263549805,-1.966166377067566
0.06646597385406494,-0.18579772114753723,0.017493490129709244,0.028314605355262756,0.08581112325191498,-0.9959093928337097,0.0,0.0,-0.0,-0.1184733659029007,0.19789233803749084,-0.21090169250965118,0.38601046800613403,0.36762362718582153,0.1882617473602295,-0.8777328729629517,0.06058394908905029,-0.46955108642578125,-0.31327176094055176,-0.03216147422790527,-0.4094606637954712,0.00883864238858223,-0.00481050880625844,-0.006926101632416248,0.0417301170527935,0.10823342949151993,0.010169307701289654,-0.0033521600998938084,0.061720896512269974,-0.0328189879655838,-0.026040712371468544,-0.036241043359041214,0.2091539353132248,-0.3403327167034149,1.450079321861267,-1.296582579612732,1.5058082342147827,1.5942524671554565,0.4638395309448242,-1.2877641916275024,0.32208317518234253,-1.9544167518615723,-0.29971420764923096,2.5620384216308594,-1.4644650220870972
-0.013431532308459282,-0.20251469314098358,-0.0007485076785087585,0.011816270649433136,0.08313541114330292,-0.9964680671691895,0.0,0.0,-0.0,-0.11931365728378296,0.1991879642009735,-0.21106502413749695,0.39191770553588867,0.4129179120063782,0.19192641973495483,-0.8763400316238403,0.07261049747467041,-0.47917282581329346,-0.3212987184524536,-0.050641536712646484,-0.3579956293106079,0.006752822082489729,0.013107976876199245,0.009160561487078667,0.031396426260471344,0.09964121133089066,0.011382619850337505,0.002021676627919078,0.0657753273844719,-0.00939030572772026,-0.024238763377070427,-0.046216368675231934,-0.1112576350569725,-0.4141986668109894,1.3088045120239258,-1.2291479110717773,1.5744575262069702,1.7592852115631104,0.5860592126846313,-1.2682759761810303,0.331691175699234,-1.9559292793273926,-0.5054578185081482,2.1088685989379883,-0.5644509792327881
-0.09345108270645142,-0.15630945563316345,-0.014712203294038773,-0.002322208136320114,0.08840122818946838,-0.9960822463035583,0.0,0.0,-0.0,-0.12348334491252899,0.208407923579216,-0.20426875352859497,0.4070485234260559,0.44205421209335327,0.19500386714935303,-0.8749552965164185,0.09730923175811768,-0.46950411796569824,-0.33018922805786133,-0.07143533229827881,-0.4004749059677124,-0.020340614020824432,0.02778010070323944,0.0245363749563694,0.03980240225791931,0.05554971843957901,0.008773991838097572,-0.006727849133312702,0.049832336604595184,0.026092378422617912,-0.026409730315208435,-0.028616655617952347,-0.09118439257144928,-0.5190977454185486,1.0121982097625732,-1.3363593816757202,1.8310329914093018,1.771883487701416,0.7176133990287781,-1.1631540060043335,0.5790969133377075,-1.8827872276306152,-0.7989048361778259,1.4305728673934937,0.334232360124588
-0.15164363384246826,-0.08160439133644104,-0.018595486879348755,-0.013205086812376976,0.09400361776351929,-0.9954841732978821,0.0,0.0,-0.0,-0.13676440715789795,0.21737606823444366,-0.20206354558467865,0.41944417357444763,0.4223629832267761,0.20021528005599976,-0.84163498878479,0.11922943592071533,-0.39240992069244385,-0.3430851697921753,-0.12201273441314697,-0.438493013381958,0.09109359234571457,0.04015447944402695,0.0212864987552166,0.042043838649988174,-0.004824540112167597,0.013982114382088184,0.07593662291765213,0.033078670501708984,-0.020029164850711823,-0.04691075533628464,-0.11371015757322311,-0.0746348425745964,-0.7984067797660828,0.6946071982383728,-1.0013049840927124,1.8901585340499878,1.45024836063385,0.7893450260162354,-1.172802209854126,0.6771333813667297,-1.3712730407714844,-1.0561549663543701,0.6195414662361145,0.6248067617416382
0.09198959916830063,-0.0814167782664299,-0.018881577998399734,-0.02087022177875042,0.092312291264534,-0.9955115914344788,0.0,0.0,-0.0,-0.1381765455007553,0.2179904729127884,-0.19791682064533234,0.4234071671962738,0.4341469407081604,0.20797699689865112,-0.7687895894050598,0.1392596960067749,-0.4112905263900757,-0.3608471155166626,-0.20029234886169434,-0.47398316860198975,-0.017819074913859367,-0.012929089367389679,0.008258341811597347,-0.00534199271351099,0.029734894633293152,0.024521926417946815,0.17528657615184784,0.04254936799407005,-0.04447462037205696,-0.05428240820765495,-0.16873876750469208,-0.0788087472319603,-1.3145040273666382,0.6738587617874146,-0.4500015377998352,1.997534155845642,0.9680125713348389,0.5999611020088196,-1.370957374572754,0.6601548790931702,-0.511089563369751,-1.2956058979034424,-0.11580932140350342,0.30238136649131775
0.07825081795454025,-0.05332808196544647,0.003673798404633999,-0.026594864204525948,0.08646874129772186,-0.9958996772766113,0.0,0.0,-0.0,-0.14384663105010986,0.21361419558525085,-0.18508362770080566,0.4227716326713562,0.4385959506034851,0.21224981546401978,-0.6811076998710632,0.15266501903533936,-0.4224478006362915,-0.3739955425262451,-0.27446138858795166,-0.5007076263427734,-0.013882818631827831,-0.00905125867575407,0.038783736526966095,-0.003456808626651764,0.016878850758075714,0.01867171935737133,0.19645148515701294,0.019377006217837334,-0.0349280871450901,-0.04639757052063942,-0.14544031023979187,-0.05163092538714409,-1.4638186693191528,0.7737086415290833,-0.3841423988342285,2.2100961208343506,0.5033088326454163,0.31297364830970764,-1.5160391330718994,0.5363445281982422,-0.23324191570281982,-1.0908366441726685,-0.6629191637039185,0.11395063996315002
0.03861192613840103,-0.03363186866044998,0.015074861235916615,-0.030212968587875366,0.08292744308710098,-0.9960973262786865,0.0,0.0,-0.0,-0.14725175499916077,0.2104320377111435,-0.16956114768981934,0.42300543189048767,0.43526846170425415,0.2090941071510315,-0.5930386185646057,0.15499341487884521,-0.42752528190612793,-0.37836241722106934,-0.3337211608886719,-0.5144572257995605,-0.007845926098525524,-0.005055735819041729,0.03735979646444321,-1.52274969877908e-05,-0.006233996246010065,-0.0034455915447324514,0.19658033549785614,-0.009960474446415901,-0.02043801173567772,-0.02105802670121193,-0.10983605682849884,-0.017909107729792595,-1.3418631553649902,0.8870736360549927,-0.47350287437438965,2.1224772930145264,0.4775942265987396,0.22205764055252075,-1.3369386196136475,0.5813138484954834,-0.3187490999698639,-0.871243953704834,-0.920535683631897,-0.030223459005355835
0.04278545454144478,-0.025087084621191025,0.01466724369674921,-0.03275074064731598,0.07961196452379227,-0.9962881207466125,0.0,0.0,-0.0,-0.1505361646413803,0.20660878717899323,-0.1612761914730072,0.42147383093833923,0.42552894353866577,0.2002078890800476,-0.5063823461532593,0.14954900741577148,-0.4261658191680908,-0.3753923177719116,-0.38041138648986816,-0.5187976360321045,-0.006854284089058638,-0.009204699657857418,0.017178837209939957,-0.005673476494848728,-0.015828022733330727,-0.01695285178720951,0.19686810672283173,-0.026850596070289612,-0.004189774859696627,-0.0025931596755981445,-0.08062874525785446,0.002553541911765933,-1.2042036056518555,0.8996002078056335,-0.5432407855987549,1.9626072645187378,0.6716796159744263,0.26522642374038696,-1.067340612411499,0.6633243560791016,-0.4693051278591156,-0.8503549098968506,-1.0817703008651733,-0.13965007662773132
0.04632662981748581,-0.017876489087939262,0.010886218398809433,-0.03459060937166214,0.07586914300918579,-0.9965177774429321,0.0,0.0,-0.0,-0.15438459813594818,0.2018813192844391,-0.1587018370628357,0.4178568422794342,0.4126877188682556,0.18832892179489136,-0.42884743213653564,0.13977468013763428,-0.4213078022003174,-0.36855804920196533,-0.41356921195983887,-0.5178036689758301,-0.00834723562002182,-0.011988305486738682,0.006374155171215534,-0.010904762893915176,-0.02481154352426529,-0.024019157513976097,0.17402799427509308,-0.033206939697265625,0.005350160878151655,0.007479379419237375,-0.04432688280940056,0.013853049837052822,-1.103988528251648,0.8891214728355408,-0.5766733884811401,1.8785744905471802,0.8149592280387878,0.33705490827560425,-0.8308848738670349,0.7247967720031738,-0.572467565536499,-0.948720395565033,-1.1598141193389893,-0.20671018958091736
0.03852568194270134,-0.007071281783282757,0.0075765373185276985,-0.03561687842011452,0.07239563763141632,-0.9967398047447205,0.0,0.0,-0.0,-0.15802404284477234,0.19731396436691284,-0.15859811007976532,0.4134458005428314,0.3988768458366394,0.1753116250038147,-0.3657834529876709,0.12763285636901855,-0.4153914451599121,-0.36059677600860596,-0.43427789211273193,-0.5138380527496338,-0.007161518093198538,-0.011116391979157925,0.002103316830471158,-0.010569467209279537,-0.026863306760787964,-0.026962382718920708,0.141713947057724,-0.04250943660736084,0.007072705775499344,0.011011281982064247,-0.009330565109848976,0.02231491357088089,-1.0641371011734009,0.8632761240005493,-0.6002984046936035,1.8695642948150635,0.8735593557357788,0.3775586485862732,-0.6482133269309998,0.7341877818107605,-0.579655647277832,-1.028667688369751,-1.199668526649475,-0.19430646300315857
0.032236259430646896,0.0013773279497399926,0.004458354786038399,-0.03588619828224182,0.06946495175361633,-0.9969385862350464,0.0,0.0,-0.0,-0.16102686524391174,0.19345001876354218,-0.15911376476287842,0.4090626537799835,0.385309636592865,0.1622692346572876,-0.315665602684021,0.11425364017486572,-0.40974700450897217,-0.3529942035675049,-0.446291446685791,-0.5082058906555176,-0.005565253552049398,-0.009483890607953072,0.0015856706304475665,-0.010182082653045654,-0.0259292870759964,-0.026543131098151207,0.11649030447006226,-0.04460495337843895,0.0061080181039869785,0.010185866616666317,0.01752341352403164,0.025630643591284752,-1.0669604539871216,0.8447765707969666,-0.596126139163971,1.883586049079895,0.8519645929336548,0.3712282180786133,-0.5280725359916687,0.7303622961044312,-0.5090229511260986,-1.1158002614974976,-1.2492725849151611,-0.16675063967704773
0.027658963575959206,0.008981018327176571,0.0025808815844357014,-0.035529956221580505,0.06703674793243408,-0.9971178770065308,0.0,0.0,-0.0,-0.1632498800754547,0.1905054748058319,-0.1596105545759201,0.40520069003105164,0.37245088815689087,0.14979559183120728,-0.27287107706069946,0.10054552555084229,-0.40488719940185547,-0.3464723825454712,-0.45363783836364746,-0.5019636154174805,-0.003933337051421404,-0.007843582890927792,0.0019986156839877367,-0.009092588908970356,-0.023933010175824165,-0.024024661630392075,0.10486006736755371,-0.045372869819402695,0.0036252986174076796,0.006214439403265715,0.03500507026910782,0.027030562981963158,-1.0994433164596558,0.8302409052848816,-0.5779672861099243,1.9086562395095825,0.7892047762870789,0.3263953924179077,-0.461658239364624,0.711992621421814,-0.40104809403419495,-1.1880301237106323,-1.3389909267425537,-0.11141738295555115
0.020312055945396423,0.016123123466968536,0.002626204863190651,-0.03459441289305687,0.06515102088451385,-0.9972758293151855,0.0,0.0,-0.0,-0.1646399199962616,0.1885063201189041,-0.16022595763206482,0.40212032198905945,0.3602800965309143,0.13793110847473145,-0.23112386465072632,0.08660888671875,-0.4010967016220093,-0.34132373332977295,-0.45926380157470703,-0.4954838752746582,-0.001763070235028863,-0.0037787172477692366,0.0021536466665565968,-0.00682844826951623,-0.022046510130167007,-0.02511259913444519,0.10648395866155624,-0.0464092493057251,0.00039309656131081283,0.0037714687641710043,0.04437617212533951,0.02817407064139843,-1.1364003419876099,0.8225863575935364,-0.5596784353256226,1.9232474565505981,0.7242558002471924,0.2721313238143921,-0.42336326837539673,0.6944645047187805,-0.3004205524921417,-1.2322450876235962,-1.4713201522827148,-0.03413388133049011
0.010839185677468777,0.02387646585702896,0.0034287776798009872,-0.03308999910950661,0.06400158256292343,-0.9974012970924377,0.0,0.0,-0.0,-0.1650097519159317,0.18763577938079834,-0.1615324467420578,0.40016666054725647,0.3486582636833191,0.1264357566833496,-0.18703025579452515,0.07233297824859619,-0.3985708951950073,-0.3373638391494751,-0.46440577507019043,-0.48885369300842285,0.0007739754510112107,-0.002747832564637065,-0.00016597956710029393,-0.0038511191960424185,-0.020851630717515945,-0.02261866070330143,0.11200635880231857,-0.04832855984568596,-0.0031357635743916035,0.00017607882909942418,0.0464080348610878,0.02957138419151306,-1.1535345315933228,0.825997531414032,-0.5509741306304932,1.9164625406265259,0.682774543762207,0.23322349786758423,-0.3905097246170044,0.6871664524078369,-0.21156659722328186,-1.2540779113769531,-1.6228398084640503,0.0543425977230072
0.007464769296348095,0.028673361986875534,0.0046132514253258705,-0.03109314665198326,0.06339515000581741,-0.9975042343139648,0.0,0.0,-0.0,-0.1645648181438446,0.18767036497592926,-0.16444730758666992,0.3992285132408142,0.33744555711746216,0.11535859107971191,-0.14209967851638794,0.05768263339996338,-0.3972001075744629,-0.33471429347991943,-0.4687206745147705,-0.48205864429473877,0.0020031689200550318,-0.0009023709571920335,-0.005302982404828072,-0.0030295015312731266,-0.020595965906977654,-0.022450022399425507,0.10790081322193146,-0.044322144240140915,-0.005113877356052399,-0.0024971093516796827,0.03344792127609253,0.028315385803580284,-1.1554235219955444,0.8344889879226685,-0.5537639856338501,1.89350426197052,0.6688262820243835,0.2090708613395691,-0.34088462591171265,0.6898316144943237,-0.12961283326148987,-1.260957956314087,-1.7630904912948608,0.14853385090827942
0.002636213321238756,0.032144345343112946,0.005204199813306332,-0.0287715345621109,0.06302037835121155,-0.9975975751876831,0.2901960611343384,0.0,-0.0,-0.16359972953796387,0.18828469514846802,-0.17006853222846985,0.39896681904792786,0.3264966607093811,0.10457569360733032,-0.09879863262176514,0.043050527572631836,-0.3965996503829956,-0.3330357074737549,-0.4716832637786865,-0.47552263736724854,0.0035887917038053274,0.0018680848879739642,-0.012384486384689808,0.0006588274263776839,-0.02087349258363247,-0.021810099482536316,0.09805195033550262,-0.049367062747478485,-0.00598493404686451,-0.004569784738123417,0.014068493619561195,0.029209569096565247,-1.144478440284729,0.8414127826690674,-0.5702663064002991,1.8679848909378052,0.6747794151306152,0.19226163625717163,-0.2655643820762634,0.6779323816299438,-0.05785459280014038,-1.2636590003967285,-1.884965181350708,0.2441827356815338
0.09213395416736603,-0.09405355155467987,-0.0032768987584859133,-0.032906610518693924,0.05887051671743393,-0.9977234601974487,0.3999999761581421,0.0,-0.0,-0.1654980182647705,0.20640318095684052,-0.16995707154273987,0.3973032534122467,0.3199501633644104,0.1030471920967102,-0.05283552408218384,0.043793320655822754,-0.3887977600097656,-0.3457444906234741,-0.47466063499450684,-0.47943806648254395,-0.012240941636264324,0.055785782635211945,0.007255499251186848,-0.009027287364006042,-0.022022556513547897,-0.003489201655611396,0.1265803873538971,0.00230948138050735,0.04163361340761185,-0.021126892417669296,0.08308481425046921,-0.0030813179910182953,-1.1818312406539917,0.8482418060302734,-0.5307989120483398,1.8404167890548706,1.465437650680542,0.38925936818122864,0.07463856041431427,1.0820748805999756,0.43457314372062683,-1.4418882131576538,-1.6348768472671509,0.911542534828186
0.14999757707118988,-0.1732650250196457,-0.01427488587796688,-0.04476175457239151,0.04882405698299408,-0.9978039264678955,0.4313725233078003,0.0,-0.0,-0.17212936282157898,0.23336759209632874,-0.17081716656684875,0.39229464530944824,0.31955915689468384,0.1011551022529602,-0.004487335681915283,0.06416869163513184,-0.37206363677978516,-0.3839794397354126,-0.4849090576171875,-0.4965484142303467,-0.02132287062704563,0.057574380189180374,-0.0027758912183344364,-0.01761903055012226,-0.014019139111042023,-0.021848134696483612,0.10059326142072678,0.05478454753756523,0.0672735795378685,-0.07545741647481918,0.009488976560533047,-0.03460024297237396,-1.1325019598007202,0.8316301703453064,-0.5273360013961792,1.9584957361221313,1.7882212400436401,0.3382539749145508,0.31803184747695923,1.0804474353790283,0.6830384731292725,-1.6809219121932983,-1.4709113836288452,1.40884268283844
0.14702089130878448,-0.19543983042240143,-0.020384257659316063,-0.06005562096834183,0.036350756883621216,-0.997532844543457,0.039215683937072754,0.0,-0.0,-0.18005570769309998,0.2503129243850708,-0.17972978949546814,0.38637083768844604,0.32351380586624146,0.08968967199325562,0.029197335243225098,0.09593117237091064,-0.3503594398498535,-0.4166041612625122,-0.49901866912841797,-0.5192937850952148,-0.016143133863806725,0.03103497065603733,-0.02796958200633526,-0.012189405970275402,-0.0003789864422287792,-0.03624025359749794,0.0663650631904602,0.0762660875916481,0.0765397697687149,-0.059906017035245895,-0.03069830872118473,-0.04817165061831474,-1.1344168186187744,0.7956002950668335,-0.6073510050773621,2.1003448963165283,1.9562087059020996,0.36975276470184326,0.6046764850616455,0.9130266308784485,0.6623760461807251,-1.7820216417312622,-1.3656610250473022,1.6270631551742554
0.01955355517566204,-0.02588345855474472,-0.009544411674141884,-0.067274309694767,0.030864879488945007,-0.9972574710845947,0.0,0.0,-0.0,-0.18135178089141846,0.24242806434631348,-0.19863227009773254,0.3858150839805603,0.326438844203949,0.039975762367248535,0.04895126819610596,0.1128302812576294,-0.33915770053863525,-0.3571767807006836,-0.5249762535095215,-0.5302391052246094,0.005964521784335375,-0.016253523528575897,-0.04445789381861687,0.006284611765295267,0.009183153510093689,-0.12200222164392471,0.02769220434129238,0.032763443887233734,0.004759245086461306,0.11698471754789352,-0.04711465537548065,-0.02579045668244362,-1.2320553064346313,0.7667734026908875,-0.696537971496582,2.1086835861206055,0.8616288304328918,0.14071199297904968,0.3230332136154175,0.03758222237229347,0.00563165545463562,-1.3354564905166626,-2.1910135746002197,0.805912971496582
-0.001897146925330162,0.09106958657503128,0.011292850598692894,-0.06319300830364227,0.029909614473581314,-0.9975529909133911,0.0,0.0,-0.0,-0.1789892315864563,0.2374325692653656,-0.2239329218864441,0.38804370164871216,0.3257179856300354,0.009576022624969482,0.0454481840133667,0.10797774791717529,-0.3426600694656372,-0.3218580484390259,-0.5959248542785645,-0.5272769927978516,0.008685572072863579,0.010504701174795628,-0.045973438769578934,0.008437708020210266,0.004680276848375797,-0.0043992954306304455,-0.04826507717370987,-0.02237464115023613,-0.030210569500923157,-0.02571648731827736,-0.14762666821479797,0.011655953712761402,-1.2393842935562134,0.7859463691711426,-0.7443106174468994,1.9316147565841675,0.5642744302749634,0.03988577425479889,0.17339034378528595,0.27060067653656006,-0.08068537712097168,-1.0824923515319824,-2.602132558822632,0.4099937975406647
-0.001938444096595049,0.10403618216514587,0.01664363220334053,-0.05501989275217056,0.029933199286460876,-0.99803626537323,0.0,0.0,-0.0,-0.17598122358322144,0.24109327793121338,-0.24183958768844604,0.39088115096092224,0.3215729594230652,0.006176590919494629,0.015584707260131836,0.09369516372680664,-0.3496735095977783,-0.33154916763305664,-0.6517646312713623,-0.5176422595977783,0.009006117470562458,0.009011952206492424,-0.034957464784383774,0.00814017653465271,-0.004044795874506235,-0.007188203278928995,-0.08509974181652069,-0.04349135980010033,-0.025615159422159195,-0.02717593125998974,-0.102536641061306,0.03167732059955597,-1.0952054262161255,0.9317125678062439,-0.837390661239624,1.7200673818588257,0.45761194825172424,0.016500920057296753,0.07274125516414642,0.5615331530570984,0.016158729791641235,-0.865690290927887,-2.742419958114624,0.16436955332756042
0.002478005364537239,0.08310334384441376,0.012058456428349018,-0.04758353531360626,0.029521455988287926,-0.9984307289123535,0.0,0.0,-0.0,-0.1730150282382965,0.24431514739990234,-0.25689923763275146,0.39310774207115173,0.31526321172714233,0.001288771629333496,-0.018979191780090332,0.07858562469482422,-0.3532670736312866,-0.3379429578781128,-0.6825439929962158,-0.5064480304718018,0.008631378412246704,0.00887598842382431,-0.03326186165213585,0.006877800915390253,-0.009912513196468353,-0.01092936098575592,-0.07951071113348007,-0.04363571107387543,-0.014843693934381008,-0.015397744253277779,-0.05329006537795067,0.035193558782339096,-0.996921181678772,0.976641058921814,-0.9069111347198486,1.605472207069397,0.4696156084537506,0.05050021409988403,-0.040236666798591614,0.5983385443687439,-0.001895412802696228,-0.787181556224823,-2.8061492443084717,0.09399202466011047
0.007817083038389683,0.06286825984716415,0.009095211513340473,-0.0418250635266304,0.02890857681632042,-0.9987068176269531,0.0,0.0,-0.0,-0.16990895569324493,0.2473660707473755,-0.2672169804573059,0.3951507806777954,0.30815738439559937,-0.003919839859008789,-0.048359215259552,0.06524336338043213,-0.35338616371154785,-0.3409043550491333,-0.6903305053710938,-0.4957386255264282,0.008507772348821163,0.0072328089736402035,-0.022007232531905174,0.004751913715153933,-0.010305688716471195,-0.01093574333935976,-0.060734834522008896,-0.034267742186784744,-0.006085188128054142,-0.0070707062259316444,-0.010721341706812382,0.03080792725086212,-0.9867613315582275,0.9781255722045898,-0.9219766855239868,1.5809969902038574,0.5115982294082642,0.06815990805625916,-0.1357475221157074,0.5663182139396667,-0.07027590274810791,-0.8409040570259094,-2.799211263656616,0.10750964283943176
0.010243503376841545,0.056226179003715515,0.009656643494963646,-0.037025727331638336,0.028238169848918915,-0.9989153146743774,0.0,0.0,-0.0,-0.16670912504196167,0.2503267228603363,-0.27145108580589294,0.3973740339279175,0.30095356702804565,-0.009070098400115967,-0.0710601806640625,0.05333566665649414,-0.352138876914978,-0.3424248695373535,-0.6850886344909668,-0.48597800731658936,0.008266220800578594,0.006782857235521078,-0.008169342763721943,0.006203742232173681,-0.010548758320510387,-0.010935488156974316,-0.045729100704193115,-0.03614450618624687,-0.00429237587377429,-0.005351199768483639,0.010669161565601826,0.03074711002409458,-1.001989722251892,0.9829171299934387,-0.9192929267883301,1.6015220880508423,0.5149775743484497,0.037069275975227356,-0.2232154905796051,0.5139902234077454,-0.11921483278274536,-0.9102979302406311,-2.7643661499023438,0.13953271508216858
0.013031288981437683,0.05430121719837189,0.010170675814151764,-0.03255327045917511,0.027434466406702995,-0.9990932941436768,0.0,0.0,-0.0,-0.16356974840164185,0.25322428345680237,-0.27060645818710327,0.3996773660182953,0.29380351305007935,-0.0140877366065979,-0.08780944347381592,0.04191720485687256,-0.3507730960845947,-0.3438507318496704,-0.6746010780334473,-0.47674560546875,0.007427291013300419,0.0069305612705647945,0.0026540132239460945,0.005907537415623665,-0.0118789691478014,-0.011061172001063824,-0.032474081963300705,-0.03518497943878174,-0.005051714368164539,-0.006295140367001295,0.0188316460698843,0.029431957751512527,-0.9970335364341736,0.9950545430183411,-0.9100993871688843,1.620803952217102,0.5128315687179565,0.0024635344743728638,-0.28823596239089966,0.47886911034584045,-0.12552815675735474,-0.9538100957870483,-2.716930627822876,0.1877399981021881
0.01588534004986286,0.05464458093047142,0.010761200450360775,-0.028129873797297478,0.0264737606048584,-0.9992532730102539,0.0,0.0,-0.0,-0.16056828200817108,0.25604379177093506,-0.26743844151496887,0.4019951820373535,0.2865299582481384,-0.019215285778045654,-0.10016900300979614,0.030573606491088867,-0.3495420217514038,-0.34548258781433105,-0.6668994426727295,-0.46784985065460205,0.007369718048721552,0.006135308649390936,0.007031902205199003,0.004583881236612797,-0.011182459071278572,-0.01057782955467701,-0.025232592597603798,-0.031327199190855026,-0.004803807474672794,-0.007561945356428623,0.011648028157651424,0.026705587282776833,-0.9856759309768677,1.0001862049102783,-0.9036900997161865,1.6391688585281372,0.5039174556732178,-0.03503371775150299,-0.34732526540756226,0.4385615885257721,-0.13149166107177734,-0.945344865322113,-2.6951024532318115,0.22782519459724426
0.01664051227271557,0.054558075964450836,0.012116153724491596,-0.02370602637529373,0.02540234848856926,-0.9993962049484253,0.0,0.0,-0.0,-0.15766119956970215,0.2587902545928955,-0.26364341378211975,0.40432897210121155,0.27912384271621704,-0.024492979049682617,-0.11059379577636719,0.019190430641174316,-0.34851622581481934,-0.34727489948272705,-0.6634466648101807,-0.45924460887908936,0.007054019253700972,0.005938510876148939,0.007956365123391151,0.005821809638291597,-0.012079703621566296,-0.0111172404140234,-0.022882530465722084,-0.03558264300227165,-0.004784669727087021,-0.007709816098213196,0.0037072859704494476,0.028404999524354935,-0.9732465744018555,1.0058434009552002,-0.8980199098587036,1.6467872858047485,0.500300407409668,-0.05664411187171936,-0.39706456661224365,0.39906740188598633,-0.1427760124206543,-0.9108004570007324,-2.6886861324310303,0.2554997503757477
0.01841219700872898,0.0515584722161293,0.012412935495376587,-0.019448991864919662,0.024147342890501022,-0.9995190501213074,0.0,0.0,-0.0,-0.15494884550571442,0.26132646203041077,-0.2601200342178345,0.4065737724304199,0.2715837359428406,-0.02990543842315674,-0.12020725011825562,0.007921338081359863,-0.34744369983673096,-0.34894442558288574,-0.6619133949279785,-0.45086920261383057,0.006342639680951834,0.005692603066563606,0.006900280714035034,0.005447415169328451,-0.013700947165489197,-0.011054526083171368,-0.021373165771365166,-0.034962382167577744,-0.004664084408432245,-0.007628493010997772,0.0010241441195830703,0.02770051918923855,-0.9530434012413025,1.017128825187683,-0.8918216228485107,1.6368461847305298,0.5032831430435181,-0.06874635815620422,-0.4381188750267029,0.3682718575000763,-0.15513598918914795,-0.8862606287002563,-2.683523654937744,0.279784232378006
0.021091381087899208,0.04713057726621628,0.012267088517546654,-0.01548974309116602,0.022667625918984413,-0.9996232986450195,0.0,0.0,-0.0,-0.15251193940639496,0.26360681653022766,-0.25738298892974854,0.4086642861366272,0.26395851373672485,-0.03530365228652954,-0.12939810752868652,-0.0029398202896118164,-0.3460811376571655,-0.3504372835159302,-0.6610386371612549,-0.4429548978805542,0.005929284729063511,0.0052144574001431465,0.004969269502907991,0.004206163343042135,-0.012851088307797909,-0.01171614695340395,-0.020647084340453148,-0.02951648272573948,-0.0031617090571671724,-0.006707245949655771,0.00014862521493341774,0.023934999480843544,-0.9388786554336548,1.024685025215149,-0.8852988481521606,1.6294113397598267,0.5019519329071045,-0.08274334669113159,-0.4772266745567322,0.33203253149986267,-0.16652056574821472,-0.8694332242012024,-2.680375337600708,0.3045319616794586
0.022442135959863663,0.0434114895761013,0.012590089812874794,-0.011848341673612595,0.02101012133061886,-0.9997093081474304,0.0,0.0,-0.0,-0.15029776096343994,0.26566335558891296,-0.25544869899749756,0.4106561243534088,0.2564013600349426,-0.04067337512969971,-0.13837313652038574,-0.013197898864746094,-0.3446011543273926,-0.3517056703567505,-0.6601755619049072,-0.4357715845108032,0.0054533826187253,0.00452846847474575,0.003237292170524597,0.005103816743940115,-0.012932422570884228,-0.0110668009147048,-0.02025788091123104,-0.032035209238529205,-0.0026452902238816023,-0.006173968315124512,0.00042289934935979545,0.024444207549095154,-0.931623637676239,1.0300318002700806,-0.8793755769729614,1.6268154382705688,0.4968513548374176,-0.09539708495140076,-0.5132263898849487,0.29123109579086304,-0.17538519203662872,-0.8575212955474854,-2.676661252975464,0.33090266585350037
0.023784080520272255,0.039223138242959976,0.012473205104470253,-0.00855037197470665,0.019176620990037918,-0.9997798204421997,0.0,0.0,-0.0,-0.14830441772937775,0.2674868702888489,-0.2540680170059204,0.41254723072052,0.24902409315109253,-0.04589283466339111,-0.14687711000442505,-0.02286916971206665,-0.343039870262146,-0.35291075706481934,-0.6586277484893799,-0.4292488098144531,0.00512365298345685,0.004266305360943079,0.002251231810078025,0.0050690025091171265,-0.012315968982875347,-0.010592666454613209,-0.018803251907229424,-0.030115166679024696,-0.002689218148589134,-0.0061676641926169395,0.0020484065171331167,0.022253377363085747,-0.9224581122398376,1.0379832983016968,-0.8738564252853394,1.6198399066925049,0.49183961749076843,-0.10793963074684143,-0.5451345443725586,0.25827232003211975,-0.18260490894317627,-0.8572672605514526,-2.668752908706665,0.3588276207447052
0.026684595271945,0.03486348316073418,0.012183206155896187,-0.005581259727478027,0.017168812453746796,-0.9998371601104736,0.0,0.0,-0.0,-0.14650294184684753,0.26913511753082275,-0.25317835807800293,0.41435906291007996,0.24189478158950806,-0.05087000131607056,-0.15470057725906372,-0.031839847564697266,-0.341518759727478,-0.3541693687438965,-0.6568093299865723,-0.4234997034072876,0.0042313504964113235,0.0037778974510729313,0.0010995498159900308,0.0036316250916570425,-0.013052980415523052,-0.01009854581207037,-0.017153872177004814,-0.024310791864991188,-0.0028395254630595446,-0.006225959397852421,0.002482060343027115,0.017876286059617996,-0.9175283908843994,1.0431792736053467,-0.8700956106185913,1.6182175874710083,0.48216643929481506,-0.12276792526245117,-0.5757874846458435,0.22191274166107178,-0.18555417656898499,-0.8541016578674316,-2.6614389419555664,0.3868348300457001
0.027859143912792206,0.03141530230641365,0.012529950588941574,-0.0029194392263889313,0.015017786994576454,-0.9998828172683716,0.0,0.0,-0.0,-0.14493101835250854,0.2706115245819092,-0.25274136662483215,0.41616299748420715,0.23492056131362915,-0.05565750598907471,-0.16172337532043457,-0.04009890556335449,-0.33998000621795654,-0.3554595708847046,-0.6550235748291016,-0.41866159439086914,0.003881470998749137,0.0032107343431562185,0.00020038930233567953,0.0046164351515471935,-0.011739533394575119,-0.00960149522870779,-0.015313382260501385,-0.026207318529486656,-0.002416793256998062,-0.006325465627014637,0.0025519062764942646,0.017743650823831558,-0.9157142043113708,1.0449572801589966,-0.8685973882675171,1.6203259229660034,0.47533485293388367,-0.13460949063301086,-0.6020663976669312,0.18330077826976776,-0.18554538488388062,-0.8448496460914612,-2.654510259628296,0.4156731069087982
0.02867402881383896,0.02722511813044548,0.01249593123793602,-0.000593491829931736,0.012729055248200893,-0.9999189376831055,0.0,0.0,-0.0,-0.1435466706752777,0.27190691232681274,-0.25267186760902405,0.4179205596446991,0.2282218337059021,-0.06020742654800415,-0.1676756739616394,-0.04770195484161377,-0.3385195732116699,-0.35680997371673584,-0.6530733108520508,-0.41459453105926514,0.003521366510540247,0.0032109697349369526,-0.0004001283959951252,0.004778197035193443,-0.011222979985177517,-0.0097225746139884,-0.012633472681045532,-0.024039918556809425,-0.002442743629217148,-0.006173968315124512,0.0031341598369181156,0.015175859443843365,-0.909517765045166,1.049550175666809,-0.8687561750411987,1.6153827905654907,0.4714758098125458,-0.1429198980331421,-0.6234525442123413,0.15293601155281067,-0.1891021430492401,-0.8385160565376282,-2.6461007595062256,0.4430547058582306
0.030932344496250153,0.022861620411276817,0.012250486761331558,0.0013952096924185753,0.010305426083505154,-0.9999461770057678,0.0,0.0,-0.0,-0.14235413074493408,0.27304479479789734,-0.25300315022468567,0.41965439915657043,0.2218056321144104,-0.0645400881767273,-0.1724967360496521,-0.05459129810333252,-0.33712077140808105,-0.3581724166870117,-0.651043176651001,-0.41136491298675537,0.0029498208314180374,0.0025300581473857164,-0.001388125354424119,0.0038641858845949173,-0.010830196551978588,-0.00868978165090084,-0.010039567947387695,-0.01848209649324417,-0.0022215673234313726,-0.006174013949930668,0.0033919047564268112,0.010455037467181683,-0.9052126407623291,1.0517332553863525,-0.8705425262451172,1.6128283739089966,0.4669598639011383,-0.1505640149116516,-0.6415834426879883,0.12010873854160309,-0.19082267582416534,-0.8301583528518677,-2.6380107402801514,0.4675380289554596
0.03170551732182503,0.018954459577798843,0.012550422921776772,0.003055928973481059,0.007773314602673054,-0.9999651908874512,0.0,0.0,-0.0,-0.1413366049528122,0.2740311324596405,-0.2537323832511902,0.42140886187553406,0.21560269594192505,-0.0686449408531189,-0.17619508504867554,-0.06075340509414673,-0.3357524871826172,-0.35957181453704834,-0.6490075588226318,-0.40905165672302246,0.0026667555794119835,0.002206639852374792,-0.0021555337589234114,0.004571668803691864,-0.010197479277849197,-0.008261705748736858,-0.007487153168767691,-0.019820213317871094,-0.002404869068413973,-0.0060465047135949135,0.0035848505795001984,0.010255127213895321,-0.9042988419532776,1.0510603189468384,-0.8739207983016968,1.6130449771881104,0.4661412537097931,-0.15482908487319946,-0.6544767618179321,0.08657538890838623,-0.19188439846038818,-0.8170177936553955,-2.629979372024536,0.49169519543647766
0.032705530524253845,0.014641942456364632,0.012414339929819107,0.004370285198092461,0.005134797655045986,-0.9999772310256958,0.0,0.0,-0.0,-0.14045965671539307,0.2748512923717499,-0.25479215383529663,0.4231436848640442,0.2097185254096985,-0.07251399755477905,-0.17861753702163696,-0.06623268127441406,-0.3344695568084717,-0.3609975576400757,-0.6466958522796631,-0.40756893157958984,0.0022564255632460117,0.0021058793645352125,-0.00282727531157434,0.004441607743501663,-0.01074555516242981,-0.007772138807922602,-0.00434914929792285,-0.01765098236501217,-0.0024413384962826967,-0.006022838409990072,0.004389657638967037,0.007816598750650883,-0.8991575241088867,1.053082823753357,-0.878542423248291,1.6074105501174927,0.46885111927986145,-0.15531966090202332,-0.6615217328071594,0.06006646528840065,-0.19525453448295593,-0.8109431266784668,-2.619952440261841,0.5140289068222046
0.03364638611674309,0.0107857221737504,0.012270115315914154,0.005347738042473793,0.0023939632810652256,-0.9999828338623047,0.0,0.0,-0.0,-0.1397961527109146,0.2755260765552521,-0.25620248913764954,0.4248693585395813,0.2040737271308899,-0.07612669467926025,-0.17977070808410645,-0.07098627090454102,-0.33321523666381836,-0.3624746799468994,-0.6442992687225342,-0.40696096420288086,0.0018393866484984756,0.001654740422964096,-0.0035392516292631626,0.0046903714537620544,-0.009397844783961773,-0.007242618594318628,-0.0016246162122115493,-0.015260803513228893,-0.0021096968557685614,-0.006000198423862457,0.004660590086132288,0.0048215012066066265,-0.8962311744689941,1.052473783493042,-0.8845169544219971,1.6051417589187622,0.4716286361217499,-0.15530049800872803,-0.6648406982421875,0.031948212534189224,-0.19668668508529663,-0.8039789199829102,-2.6105706691741943,0.5344030857086182
0.03445815294981003,0.006863728631287813,0.012235313653945923,0.006002121139317751,-0.00043898611329495907,-0.9999819993972778,0.0,0.0,-0.0,-0.13926579058170319,0.2760677635669708,-0.2579432427883148,0.4266372621059418,0.1987932324409485,-0.07943224906921387,-0.1797471046447754,-0.07496780157089233,-0.3320988416671753,-0.3640679121017456,-0.641995906829834,-0.4072847366333008,0.0013783732429146767,0.0014656061539426446,-0.004123864229768515,0.004812301602214575,-0.0088382288813591,-0.007040613796561956,0.0009564163046889007,-0.013371705077588558,-0.002221016911789775,-0.006078262813389301,0.00469135120511055,0.0025087741669267416,-0.8947972655296326,1.050920844078064,-0.8917484283447266,1.6037492752075195,0.4753167927265167,-0.1515258550643921,-0.663155198097229,0.005771715193986893,-0.19778907299041748,-0.7954384684562683,-2.6017327308654785,0.5540051460266113
0.036217447370290756,0.0025991008151322603,0.012087030336260796,0.006333678960800171,-0.003368158359080553,-0.9999746084213257,0.0,0.0,-0.0,-0.13890990614891052,0.2764618396759033,-0.2600129246711731,0.4283945560455322,0.19381308555603027,-0.08250826597213745,-0.17861545085906982,-0.07831043004989624,-0.33107268810272217,-0.36569535732269287,-0.6398499011993408,-0.4083733558654785,0.0008713989518582821,0.0009436970576643944,-0.004923674743622541,0.00443093478679657,-0.008324089460074902,-0.00633963430300355,0.003534857649356127,-0.008217784576117992,-0.002065702574327588,-0.00570769002661109,0.0044484627433121204,-0.002661452628672123,-0.8928703665733337,1.0492678880691528,-0.9004398584365845,1.6023123264312744,0.47970953583717346,-0.1454717218875885,-0.65714031457901,-0.019326012581586838,-0.19762036204338074,-0.7878760099411011,-2.593506097793579,0.5710012912750244
0.03672626614570618,-0.0011362639488652349,0.012152590788900852,0.006357050500810146,-0.006362397689372301,-0.9999595880508423,0.0,0.0,-0.0,-0.13870002329349518,0.2767229676246643,-0.2624727189540863,0.43018022179603577,0.1891242265701294,-0.08531570434570312,-0.17645472288131714,-0.08097678422927856,-0.33014094829559326,-0.36739134788513184,-0.6380350589752197,-0.4103337526321411,0.000621355720795691,0.0007081725052557886,-0.005759721156209707,0.0046507325023412704,-0.007782620843499899,-0.005979322828352451,0.005773563869297504,-0.00629337877035141,-0.002094652969390154,-0.005481132306158543,0.003917861729860306,-0.0051737576723098755,-0.892954409122467,1.0457289218902588,-0.9111193418502808,1.603296160697937,0.48604878783226013,-0.1373552680015564,-0.6470382213592529,-0.046401601284742355,-0.19661110639572144,-0.7766047716140747,-2.5870134830474854,0.5867544412612915
0.03708123788237572,-0.00500593101605773,0.012148329988121986,0.0060692960396409035,-0.009418202564120293,-0.9999372959136963,0.0,0.0,-0.0,-0.1386183202266693,0.2768377661705017,-0.2653217911720276,0.43199729919433594,0.18474256992340088,-0.08790576457977295,-0.17322176694869995,-0.082985520362854,-0.32930517196655273,-0.3690897226333618,-0.63631272315979,-0.41308069229125977,0.0004892832366749644,0.000692228612024337,-0.006507969927042723,0.004809688776731491,-0.007944288663566113,-0.005566146690398455,0.008339283987879753,-0.004290310200303793,-0.0022191281896084547,-0.0053613921627402306,0.0040176184847950935,-0.007661558222025633,-0.8917548656463623,1.0427665710449219,-0.9231070280075073,1.6017581224441528,0.49611809849739075,-0.1247311532497406,-0.6316249966621399,-0.0692225992679596,-0.19652248919010162,-0.7690613269805908,-2.5800228118896484,0.6009877920150757
0.03756637126207352,-0.00851743295788765,0.012058485299348831,0.00548319099470973,-0.01252265740185976,-0.9999068975448608,0.0,0.0,-0.0,-0.13865810632705688,0.27685680985450745,-0.2685380280017853,0.4338715076446533,0.18064141273498535,-0.0901983380317688,-0.16891038417816162,-0.08434319496154785,-0.32850563526153564,-0.37085962295532227,-0.6346604824066162,-0.41661322116851807,-6.447639316320419e-05,0.0002653333358466625,-0.0072708697989583015,0.005170661490410566,-0.007006897125393152,-0.005395869724452496,0.010730541311204433,-0.0023233983665704727,-0.0017685063648968935,-0.004702697973698378,0.004046582151204348,-0.010300079360604286,-0.890917956829071,1.0391874313354492,-0.9363135099411011,1.6009024381637573,0.5074678063392639,-0.11112481355667114,-0.6125900149345398,-0.09140971302986145,-0.19632002711296082,-0.7638380527496338,-2.573671579360962,0.6125888824462891
0.038246314972639084,-0.011701482348144054,0.012034052051603794,0.004621975123882294,-0.015676548704504967,-0.9998666644096375,0.0,0.0,-0.0,-0.13882774114608765,0.27676254510879517,-0.27210721373558044,0.4357813596725464,0.17687928676605225,-0.09222042560577393,-0.16358476877212524,-0.08506923913955688,-0.32786762714385986,-0.3727203607559204,-0.6331863403320312,-0.42090940475463867,-0.0004523780371528119,-0.00012951782264281064,-0.008029517717659473,0.005431091412901878,-0.006533615291118622,-0.004483402241021395,0.012932173907756805,-0.00042028530151583254,-0.0018145212670788169,-0.005383871030062437,0.0038599406834691763,-0.012859362177550793,-0.8908565640449524,1.0345674753189087,-0.9508731365203857,1.6010879278182983,0.5195268392562866,-0.09524580836296082,-0.5895889401435852,-0.11212222278118134,-0.1968035101890564,-0.758349597454071,-2.5682547092437744,0.6228982210159302
0.03827981650829315,-0.014852072112262249,0.012105833739042282,0.0035023358650505543,-0.018850822001695633,-0.9998161792755127,0.0,0.0,-0.0,-0.1391012817621231,0.27660128474235535,-0.2759770154953003,0.43778935074806213,0.17343014478683472,-0.09398078918457031,-0.1573326587677002,-0.08519953489303589,-0.32737481594085693,-0.3746805191040039,-0.6319313049316406,-0.4259307384490967,-0.000655537296552211,-0.00011250758689129725,-0.008604699745774269,0.0057616340927779675,-0.006097615230828524,-0.004642102867364883,0.014967307448387146,0.0014594347449019551,-0.0017759809270501137,-0.004486016929149628,0.0035780970938503742,-0.015317094512283802,-0.8910834193229675,1.0291836261749268,-0.966781497001648,1.6019474267959595,0.5333576798439026,-0.07768568396568298,-0.5630137324333191,-0.1318242996931076,-0.19718825817108154,-0.7511230707168579,-2.563727378845215,0.6311721801757812
0.038126833736896515,-0.017687026411294937,0.012122830376029015,0.0021423008292913437,-0.02202603965997696,-0.9997553825378418,0.0,0.0,-0.0,-0.13944140076637268,0.27636322379112244,-0.2801729738712311,0.4398553967475891,0.17030227184295654,-0.0954810380935669,-0.15018850564956665,-0.08478528261184692,-0.32703983783721924,-0.3767443895339966,-0.630896806716919,-0.43163836002349854,-0.0008535772794857621,-0.00026467195129953325,-0.009324954822659492,0.006140023469924927,-0.005685120355337858,-0.00438509788364172,0.016957923769950867,0.0031977370381355286,-0.0017919348319992423,-0.004206064157187939,0.0033287075348198414,-0.01764354668557644,-0.8910093903541565,1.0234217643737793,-0.9842158555984497,1.603080153465271,0.5490741729736328,-0.058056920766830444,-0.5325540900230408,-0.1517374962568283,-0.19750258326530457,-0.7438876032829285,-2.5599467754364014,0.6373423337936401
0.03733726218342781,-0.02041056379675865,0.012206913903355598,0.0005545271560549736,-0.025182509794831276,-0.9996825456619263,0.0,0.0,-0.0,-0.1398356556892395,0.27606549859046936,-0.2846703827381134,0.4420250952243805,0.1674901247024536,-0.09674835205078125,-0.14217782020568848,-0.08384567499160767,-0.32688188552856445,-0.3788954019546509,-0.6299197673797607,-0.43798506259918213,-0.0005987414042465389,-0.0001390542893204838,-0.009822387248277664,0.006555281113833189,-0.005246292799711227,-0.004100318998098373,0.018924418836832047,0.004897817503660917,-0.0023427314590662718,-0.004081229213625193,0.003409813391044736,-0.019852127879858017,-0.8913199305534363,1.0169602632522583,-1.0026096105575562,1.604751706123352,0.566420316696167,-0.03617434203624725,-0.4984979033470154,-0.17026133835315704,-0.19785475730895996,-0.7365718483924866,-2.5560824871063232,0.6414588689804077
0.03684365004301071,-0.023080846294760704,0.012263254262506962,-0.0012542959302663803,-0.028315110132098198,-0.9995986223220825,0.0,0.0,-0.0,-0.1403217911720276,0.2757147252559662,-0.28941839933395386,0.44429370760917664,0.16496199369430542,-0.09774070978164673,-0.133314847946167,-0.08241480588912964,-0.32687294483184814,-0.38114750385284424,-0.6288645267486572,-0.44494152069091797,-0.0012038361746817827,-0.00033152196556329727,-0.010286716744303703,0.007114950567483902,-0.00489253643900156,-0.0040907966904342175,0.020882075652480125,0.006582198198884726,-0.0018264949321746826,-0.003425371600314975,0.0037282200064510107,-0.022136500105261803,-0.8921018242835999,1.010553002357483,-1.0216087102890015,1.6072049140930176,0.584969162940979,-0.012882992625236511,-0.4609823226928711,-0.18819625675678253,-0.19757473468780518,-0.7304772138595581,-2.5517475605010986,0.642815113067627
0.03686653450131416,-0.02509474568068981,0.0123208649456501,-0.003261573612689972,-0.031417835503816605,-0.99950110912323,0.0,0.0,-0.0,-0.14088600873947144,0.2752887010574341,-0.2944125831127167,0.4466608166694641,0.16272908449172974,-0.09853231906890869,-0.12358337640762329,-0.0805274248123169,-0.3270338773727417,-0.383431077003479,-0.6276612281799316,-0.45239973068237305,-0.001445668051019311,-0.0009710328886285424,-0.010989072732627392,0.00785499345511198,-0.0046125552617013454,-0.002332004252821207,0.022811297327280045,0.008754192851483822,-0.001810520887374878,-0.004727296531200409,0.004232365172356367,-0.025717947632074356,-0.8924804329872131,1.0033632516860962,-1.041693091392517,1.6102629899978638,0.6048538684844971,0.01227569580078125,-0.419732928276062,-0.2048439234495163,-0.19784194231033325,-0.7254826426506042,-2.5466549396514893,0.6423971652984619
0.03632155805826187,-0.0279852207750082,0.012473372742533684,-0.00546477735042572,-0.03445891663432121,-0.9993909597396851,0.0,0.0,-0.0,-0.14149168133735657,0.27482396364212036,-0.2995968461036682,0.4491511285305023,0.1607685089111328,-0.09910142421722412,-0.11301273107528687,-0.07819104194641113,-0.3273395299911499,-0.3857914209365845,-0.6263413429260254,-0.46039366722106934,-0.0016363604227080941,-0.0007808639784343541,-0.011344799771904945,0.00758435158059001,-0.004270465578883886,-0.0036633380223065615,0.02483038417994976,0.011666759848594666,-0.0015914116520434618,-0.0025924083311110735,0.00448527792468667,-0.026261350139975548,-0.8935801982879639,0.9954109787940979,-1.0625011920928955,1.6139976978302002,0.6264214515686035,0.03801792860031128,-0.37579119205474854,-0.21963535249233246,-0.1986064314842224,-0.7162635922431946,-2.541268825531006,0.640110969543457
0.03476344794034958,-0.029698427766561508,0.012590901926159859,-0.007838795892894268,-0.0373959057033062,-0.999269962310791,0.0,0.0,-0.0,-0.14209826290607452,0.27433887124061584,-0.3049737513065338,0.45176976919174194,0.1590939164161682,-0.09949767589569092,-0.10166829824447632,-0.07547038793563843,-0.3278101682662964,-0.3881582021713257,-0.6249330043792725,-0.46884679794311523,-0.0016705672023817897,-0.0007222417043522,-0.011843054555356503,0.00811397098004818,-0.004242660012096167,-0.0036662928760051727,0.026504546403884888,0.012955247424542904,-0.0013794045662507415,-0.0021615803707391024,0.0048037259839475155,-0.027739817276597023,-0.8932352662086487,0.9877367615699768,-1.0845824480056763,1.6182587146759033,0.6481339931488037,0.06480194628238678,-0.32844385504722595,-0.23678581416606903,-0.20157718658447266,-0.7105185389518738,-2.5354859828948975,0.6337628364562988
0.032389625906944275,-0.03131752833724022,0.012840719893574715,-0.010366414673626423,-0.04022033140063286,-0.9991371631622314,0.0,0.0,-0.0,-0.1426989883184433,0.2738610804080963,-0.31048083305358887,0.45453211665153503,0.15767139196395874,-0.09972482919692993,-0.08955991268157959,-0.07241594791412354,-0.32844269275665283,-0.3905506134033203,-0.6230306625366211,-0.47768735885620117,-0.001011328655295074,-0.00042955437675118446,-0.011853812262415886,0.009694918058812618,-0.0031558373011648655,-0.0035740730818361044,0.0283014215528965,0.013074005022644997,-0.0023641649167984724,-0.0018830172484740615,0.0060343812219798565,-0.03163584694266319,-0.8922644257545471,0.980474054813385,-1.106594204902649,1.6215606927871704,0.6698530912399292,0.09294627606868744,-0.2774594724178314,-0.24848373234272003,-0.20367534458637238,-0.7056868672370911,-2.5267317295074463,0.625922679901123
0.03167437016963959,-0.03405202552676201,0.012597295455634594,-0.01306502241641283,-0.042950671166181564,-0.9989919662475586,0.0,0.0,-0.0,-0.14332838356494904,0.2733536660671234,-0.3160989284515381,0.4574066400527954,0.15652436017990112,-0.09973037242889404,-0.07653975486755371,-0.06899553537368774,-0.3292062282562256,-0.3929804563522339,-0.6203920841217041,-0.48689985275268555,-0.0017318964237347245,-0.000644522428046912,-0.012128868140280247,0.009617428295314312,-0.0034446106292307377,-0.003909972961992025,0.030798345804214478,0.017555540427565575,-0.001402130234055221,-0.00032892992021515965,0.007524704094976187,-0.032701920717954636,-0.891088604927063,0.9744560122489929,-1.128839135169983,1.6249457597732544,0.6909112334251404,0.12242044508457184,-0.2224445641040802,-0.2577528953552246,-0.20405182242393494,-0.7002817988395691,-2.514646530151367,0.6187014579772949
0.030828651040792465,-0.03514646738767624,0.012649865821003914,-0.015916556119918823,-0.0455608032643795,-0.9988351464271545,0.0,0.0,-0.0,-0.14397963881492615,0.27281010150909424,-0.3218230903148651,0.4603899419307709,0.15559381246566772,-0.09962350130081177,-0.06266272068023682,-0.06525373458862305,-0.33009302616119385,-0.39528417587280273,-0.6172525882720947,-0.49647295475006104,-0.0019289847696200013,-0.001533642876893282,-0.01264780480414629,0.010011146776378155,-0.0033009517937898636,-0.0010590775636956096,0.03246287629008293,0.01819629594683647,-0.0014326329110190272,-0.0025705769658088684,0.00860572885721922,-0.03354234993457794,-0.890656054019928,0.9652641415596008,-1.151676893234253,1.632315754890442,0.7108774185180664,0.1513804793357849,-0.16517990827560425,-0.27020198106765747,-0.208546981215477,-0.6938905119895935,-2.501565933227539,0.6067184209823608
0.028217870742082596,-0.037594135850667953,0.013050674460828304,-0.018935976549983025,-0.04800514131784439,-0.9986674785614014,0.0,0.0,-0.0,-0.14460785686969757,0.27229785919189453,-0.3274754285812378,0.46357786655426025,0.15489166975021362,-0.09933692216873169,-0.04794597625732422,-0.06110590696334839,-0.33108627796173096,-0.3975628614425659,-0.6131064891815186,-0.5064585208892822,-0.001823489204980433,-0.0007630568579770625,-0.01232131477445364,0.010858929716050625,-0.0029735115822404623,-0.003668637713417411,0.034705113619565964,0.015845011919736862,-0.0012565178330987692,0.0005145972827449441,0.010823535732924938,-0.034289997071027756,-0.8884537220001221,0.9576650261878967,-1.1743632555007935,1.6370869874954224,0.7329599857330322,0.18244153261184692,-0.10342678427696228,-0.2742052972316742,-0.2140354961156845,-0.6863488554954529,-2.482677698135376,0.5940238237380981
0.026268934831023216,-0.03974882513284683,0.012604976072907448,-0.02212689444422722,-0.050275929272174835,-0.9984906911849976,0.0,0.0,-0.0,-0.14521324634552002,0.27180740237236023,-0.3332705497741699,0.46686670184135437,0.1544879674911499,-0.09885776042938232,-0.0320209264755249,-0.05673563480377197,-0.3322300910949707,-0.3998175859451294,-0.6078553199768066,-0.5165584087371826,-0.0017549972981214523,-0.0007432824349962175,-0.01299904566258192,0.011985328048467636,-0.002775719854980707,-0.003565425518900156,0.03797290474176407,0.022958753630518913,-0.0008523041615262628,0.0013422099873423576,0.013101808726787567,-0.038540881127119064,-0.8820250630378723,0.9521161317825317,-1.1986395120620728,1.640102744102478,0.7551745176315308,0.214029461145401,-0.03546108305454254,-0.2794622778892517,-0.2205227017402649,-0.6850265860557556,-2.459049940109253,0.5807187557220459
0.022031918168067932,-0.040921278297901154,0.012627745047211647,-0.025445614010095596,-0.052297722548246384,-0.9983073472976685,0.0,0.0,-0.0,-0.14570645987987518,0.2713891267776489,-0.33921587467193604,0.4703724980354309,0.15427154302597046,-0.09834837913513184,-0.015034079551696777,-0.05209624767303467,-0.3334699869155884,-0.4018545150756836,-0.6017839908599854,-0.526993989944458,-0.000681061006616801,-0.00015708628052379936,-0.013019897043704987,0.012625758536159992,-0.0012411067727953196,-0.0037631758023053408,0.040093034505844116,0.02296556532382965,-0.0020482090767472982,0.0017671261448413134,0.014695028774440289,-0.038437772542238235,-0.8805832266807556,0.9425472617149353,-1.2222305536270142,1.6489183902740479,0.7741396427154541,0.24348142743110657,0.03415341675281525,-0.288720041513443,-0.22696302831172943,-0.6720730066299438,-2.4339170455932617,0.5620406866073608
0.018764883279800415,-0.0430854968726635,0.012539130635559559,-0.02891780063509941,-0.05407937988638878,-0.9981178641319275,0.0,0.0,-0.0,-0.1461409628391266,0.27103880047798157,-0.34491726756095886,0.47409164905548096,0.15428584814071655,-0.09767252206802368,0.0028312206268310547,-0.04712134599685669,-0.33483004570007324,-0.4038475751876831,-0.5935630798339844,-0.5377621650695801,-0.0011233676923438907,-4.581865141517483e-05,-0.012402080930769444,0.013098517432808876,-0.002135102404281497,-0.00467663025483489,0.04266536980867386,0.01863679848611355,-0.000996442511677742,0.004379633814096451,0.0192545335739851,-0.037787143141031265,-0.8753395080566406,0.9372589588165283,-1.2438324689865112,1.6543575525283813,0.7948874831199646,0.27795085310935974,0.10976578295230865,-0.28835582733154297,-0.2305007129907608,-0.6680781841278076,-2.396364450454712,0.5416113138198853
0.017979780212044716,-0.044803738594055176,0.011876565404236317,-0.03255031257867813,-0.055670179426670074,-0.997918426990509,0.0,0.0,-0.0,-0.14652615785598755,0.27068305015563965,-0.3505345284938812,0.4778597950935364,0.15458953380584717,-0.09690314531326294,0.021806836128234863,-0.04198908805847168,-0.33631467819213867,-0.4055835008621216,-0.5832784175872803,-0.5485367774963379,-0.001397818559780717,-0.0012977494625374675,-0.012869097292423248,0.014974464662373066,-0.0015434609958902001,-0.00030930116190575063,0.04549851641058922,0.02740202657878399,-0.001154600060544908,0.0010995641350746155,0.02323864959180355,-0.0435301810503006,-0.866157591342926,0.9310827851295471,-1.2664695978164673,1.6598305702209473,0.8165687322616577,0.30946606397628784,0.1887592226266861,-0.2840731739997864,-0.2381020486354828,-0.6700631976127625,-2.3513565063476562,0.5222859382629395
0.013506733812391758,-0.04682907089591026,0.011960482224822044,-0.03633253276348114,-0.05696215480566025,-0.997715175151825,0.0,0.0,-0.0,-0.1467866599559784,0.27045881748199463,-0.3560381531715393,0.48186320066452026,0.1550789475440979,-0.09602320194244385,0.04147195816040039,-0.036535441875457764,-0.33782756328582764,-0.40720319747924805,-0.571934700012207,-0.5596256256103516,-0.001014241250231862,5.77655628148932e-05,-0.012450010515749454,0.015544903464615345,-0.0014588790945708752,-0.004360095597803593,0.04660261422395706,0.027116239070892334,-0.0009210700518451631,0.0050680371932685375,0.024960972368717194,-0.042966511100530624,-0.8629674315452576,0.9209980964660645,-1.288418173789978,1.6714304685592651,0.8352354764938354,0.3379145860671997,0.26650840044021606,-0.28553515672683716,-0.247148334980011,-0.6501351594924927,-2.3051812648773193,0.49883243441581726
0.009284035302698612,-0.04853587597608566,0.011459826491773129,-0.04025464504957199,-0.057910557836294174,-0.9975098371505737,0.0,0.0,-0.0,-0.14690738916397095,0.2703414559364319,-0.3612564504146576,0.4861234426498413,0.15579473972320557,-0.09511548280715942,0.061571717262268066,-0.030860304832458496,-0.3395155668258667,-0.4086124897003174,-0.5583224296569824,-0.570960283279419,-0.0006876045954413712,0.000348530535120517,-0.01226132269948721,0.014925968833267689,-0.0014625911135226488,-0.0045850020833313465,0.048288580030202866,0.02085726335644722,-0.0003186225949320942,0.0064969672821462154,0.029703591018915176,-0.04053584858775139,-0.8501068353652954,0.9152343273162842,-1.3096779584884644,1.6781047582626343,0.8575714230537415,0.3738727867603302,0.35095518827438354,-0.2814866900444031,-0.25640031695365906,-0.6481523513793945,-2.245185136795044,0.4714912474155426
0.0031014925334602594,-0.049863290041685104,0.011049601249396801,-0.04428600147366524,-0.05852197855710983,-0.9973033666610718,0.0,0.0,-0.0,-0.1468595266342163,0.2703683078289032,-0.3661126494407654,0.4905184805393219,0.15673911571502686,-0.09412962198257446,0.0817803144454956,-0.02510857582092285,-0.34133195877075195,-0.4098728895187378,-0.5423622131347656,-0.5821938514709473,0.0008426067652180791,0.001304097706452012,-0.0109096122905612,0.018696149811148643,0.0008653188124299049,-0.00568460812792182,0.04850465804338455,0.03058648481965065,-0.0020926964934915304,0.008660795167088509,0.033753152936697006,-0.04719361290335655,-0.8368694186210632,0.9085109829902649,-1.3286155462265015,1.6864721775054932,0.8773214817047119,0.4033564329147339,0.4308345913887024,-0.26801180839538574,-0.2699529826641083,-0.6521353125572205,-2.177528142929077,0.443143755197525
0.010618641041219234,-0.04820491373538971,0.011095384135842323,-0.048309847712516785,-0.05906426161527634,-0.9970846176147461,0.0,0.0,-0.0,-0.14698944985866547,0.27021679282188416,-0.3688657879829407,0.4948510229587555,0.15781182050704956,-0.09316152334213257,0.0963134765625,-0.019373536109924316,-0.34339702129364014,-0.41106879711151123,-0.5417525768280029,-0.5935449600219727,-0.0019882034976035357,-0.0009344345889985561,-0.0035103161353617907,0.01676652953028679,-0.000956522417254746,-0.0053304401226341724,0.018284276127815247,0.02892250381410122,-0.0011404063552618027,0.007530796807259321,-0.03876380994915962,-0.045744191855192184,-0.8310390710830688,0.901203453540802,-1.3426803350448608,1.7008930444717407,0.8887844085693359,0.42689526081085205,0.5025966763496399,-0.2644064426422119,-0.27435368299484253,-0.6399317979812622,-2.1107676029205322,0.4077405035495758
0.016884008422493935,-0.0454457588493824,0.01005654875189066,-0.05209093168377876,-0.06029527634382248,-0.9968205690383911,0.0,0.0,-0.0,-0.1479046791791916,0.26926323771476746,-0.37028831243515015,0.49822020530700684,0.15853744745254517,-0.09235066175460815,0.10192716121673584,-0.014018356800079346,-0.344915509223938,-0.41211724281311035,-0.551591157913208,-0.604292631149292,-0.003388984827324748,-0.002400192664936185,-0.003207177622243762,0.012127207592129707,-0.0018541719764471054,-0.005815473385155201,0.011634220369160175,0.01948876492679119,0.0009806029265746474,0.009020308963954449,-0.020750826224684715,-0.03837278112769127,-0.8191707730293274,0.8910431265830994,-1.346909523010254,1.740440011024475,0.9048664569854736,0.45547330379486084,0.613465428352356,-0.2520528733730316,-0.2835378348827362,-0.6352840662002563,-2.012718439102173,0.37564900517463684
0.015380177646875381,-0.0402308888733387,0.009364820085465908,-0.05553688481450081,-0.061628252267837524,-0.9965530633926392,0.0,0.0,-0.0,-0.14899128675460815,0.26810094714164734,-0.37179315090179443,0.5009514689445496,0.15898358821868896,-0.09169471263885498,0.10692763328552246,-0.00933760404586792,-0.34587883949279785,-0.4127514362335205,-0.5603249073028564,-0.6136298179626465,-0.003304340410977602,-0.002206716686487198,-0.0025725236628204584,0.011127769015729427,-0.0030250430572777987,-0.00736661721020937,0.00858859159052372,0.017397040501236916,0.002811889396980405,0.011601638980209827,-0.01581612601876259,-0.034554123878479004,-0.8046005368232727,0.8742479681968689,-1.3722525835037231,1.7654926776885986,0.9106147289276123,0.4765512943267822,0.6802862286567688,-0.2541264295578003,-0.3324104845523834,-0.6067586541175842,-1.9509116411209106,0.3417564928531647
0.015239418484270573,-0.03179445117712021,0.009055003523826599,-0.058391161262989044,-0.06292617321014404,-0.9963083863258362,0.0,0.0,-0.0,-0.15012551844120026,0.26682034134864807,-0.3731137216091156,0.5030707716941833,0.15905547142028809,-0.09131598472595215,0.1107107400894165,-0.005687594413757324,-0.3464169502258301,-0.413051962852478,-0.5672626495361328,-0.621178388595581,-0.003558120224624872,-0.0026761358603835106,-0.0020018192008137703,0.009449864737689495,-0.003403887152671814,-0.007333747576922178,0.0046061137691140175,0.014342698268592358,0.0028090153355151415,0.010926554910838604,-0.01013968512415886,-0.02965485490858555,-0.790363609790802,0.8624376654624939,-1.3908430337905884,1.7759408950805664,0.9026352167129517,0.49396634101867676,0.7313592433929443,-0.24707676470279694,-0.3786783516407013,-0.5819031596183777,-1.8921769857406616,0.2835281789302826
0.01346508227288723,-0.02152608148753643,0.008469907566905022,-0.06049071252346039,-0.06419685482978821,-0.9961026310920715,0.0,0.0,-0.0,-0.15134340524673462,0.26544928550720215,-0.3741776645183563,0.5044158101081848,0.15865325927734375,-0.09135156869888306,0.11301934719085693,-0.003382384777069092,-0.34656596183776855,-0.41308510303497314,-0.5721385478973389,-0.6264972686767578,-0.003397473366931081,-0.0023975286167114973,-0.0019536211621016264,0.011177380569279194,-0.004409145098179579,-0.009412478655576706,-0.002505826996639371,0.018537262454628944,0.0032788680400699377,0.013151406310498714,-0.0033693001605570316,-0.02927183173596859,-0.7722793221473694,0.858163058757782,-1.4044438600540161,1.7807470560073853,0.8827676773071289,0.5001053810119629,0.7688701152801514,-0.22380174696445465,-0.40788763761520386,-0.5733837485313416,-1.8276240825653076,0.2095424234867096
0.014845949597656727,-0.011859573423862457,0.007801648695021868,-0.06179197132587433,-0.06549496948719025,-0.995937705039978,0.0,0.0,-0.0,-0.15263737738132477,0.2639639377593994,-0.37495115399360657,0.504964292049408,0.1576387882232666,-0.09182500839233398,0.11355757713317871,-0.0024824142456054688,-0.3461775779724121,-0.4127171039581299,-0.5745618343353271,-0.6295623779296875,-0.003753057913854718,-0.003045058576390147,-0.0012812605127692223,0.008768240921199322,-0.0054023838602006435,-0.009253439493477345,-0.007288993801921606,0.014490905217826366,0.004232710227370262,0.012386349961161613,0.0033427716698497534,-0.022849176079034805,-0.7593937516212463,0.8516534566879272,-1.4155726432800293,1.7844980955123901,0.8476338386535645,0.4868165850639343,0.7920247912406921,-0.20503024756908417,-0.42124706506729126,-0.5612221360206604,-1.7767301797866821,0.12974408268928528
0.014096147380769253,-0.002910932060331106,0.007123671937733889,-0.06233944371342659,-0.06678187102079391,-0.9958183765411377,0.0,0.0,-0.0,-0.15388576686382294,0.2624686062335968,-0.37532126903533936,0.5047286748886108,0.15600556135177612,-0.09275627136230469,0.11243069171905518,-0.003031611442565918,-0.34506988525390625,-0.41185104846954346,-0.5745553970336914,-0.6302337646484375,-0.003526385175064206,-0.002945445477962494,-0.0001743899192661047,0.0066779307089746,-0.006350989919155836,-0.009987073950469494,-0.011609385721385479,0.010495436377823353,0.005417252890765667,0.013344275765120983,0.009690736420452595,-0.016055110841989517,-0.7472932934761047,0.8464930057525635,-1.4213980436325073,1.7864738702774048,0.8137779235839844,0.4669378399848938,0.8014689087867737,-0.17744512856006622,-0.43006202578544617,-0.5656648278236389,-1.733251690864563,0.055164724588394165
0.013273347169160843,0.005429704673588276,0.006879621651023626,-0.06221500411629677,-0.0680026113986969,-0.9957437515258789,0.0,0.0,-0.0,-0.15500955283641815,0.26104050874710083,-0.3752167820930481,0.5039495825767517,0.15382760763168335,-0.09401208162307739,0.10993599891662598,-0.0046994686126708984,-0.3432602882385254,-0.4105191230773926,-0.5724446773529053,-0.6287410259246826,-0.002185483230277896,-0.002567549701780081,0.001094925682991743,0.0047423094511032104,-0.00628025783225894,-0.0103378277271986,-0.01575852930545807,0.006846762727946043,0.005731109529733658,0.013607184402644634,0.016191184520721436,-0.009708928875625134,-0.7403226494789124,0.8402569890022278,-1.4217358827590942,1.785539984703064,0.7760820388793945,0.43232977390289307,0.793867826461792,-0.15483058989048004,-0.43495965003967285,-0.5806170701980591,-1.7123461961746216,-0.01710006594657898
0.011049818247556686,0.012301245704293251,0.006617206148803234,-0.061473503708839417,-0.06909936666488647,-0.9957143068313599,0.0,0.0,-0.0,-0.15590348839759827,0.25980961322784424,-0.3745311498641968,0.5027954578399658,0.1512211561203003,-0.09557127952575684,0.10607600212097168,-0.007461249828338623,-0.3409461975097656,-0.4088404178619385,-0.5682861804962158,-0.6253204345703125,-0.0024799173697829247,-0.0020760868210345507,0.0027193266432732344,0.003889906918630004,-0.007628225721418858,-0.010525340214371681,-0.01763547584414482,0.003839069977402687,0.006937767844647169,0.013937314040958881,0.019672375172376633,-0.00436189491301775,-0.7379242777824402,0.8371025323867798,-1.4140843152999878,1.7802656888961792,0.7413459420204163,0.3917596638202667,0.7693173885345459,-0.13522128760814667,-0.42719900608062744,-0.6037023067474365,-1.71564781665802,-0.07672062516212463
0.008827810175716877,0.01690039597451687,0.006877257023006678,-0.06027482450008392,-0.07000715285539627,-0.9957236647605896,0.0,0.0,-0.0,-0.1564645767211914,0.2588816285133362,-0.37325695157051086,0.501572847366333,0.148296058177948,-0.0972711443901062,0.1012885570526123,-0.010961771011352539,-0.3382086753845215,-0.40693771839141846,-0.5626463890075684,-0.6204566955566406,-0.001658409251831472,-0.0013051287969574332,0.004987421911209822,0.00357220321893692,-0.007800700608640909,-0.010244659148156643,-0.016715073958039284,0.0019880984909832478,0.007281216327100992,0.013659017160534859,0.02200651727616787,-0.0006609532865695655,-0.7403753399848938,0.8329656720161438,-1.399830937385559,1.7730542421340942,0.7089328169822693,0.34770798683166504,0.7281566262245178,-0.1201954334974289,-0.4067665636539459,-0.6308152079582214,-1.7458465099334717,-0.11890658736228943
