Huisouan/isaac-rl-lab/cartpole.csv
pole_joint_pos,pole_joint_vel,cart_joint_pos,cart_joint_vel,body_state_0,body_state_1,body_state_2,body_state_3,body_state_4,body_state_5,body_state_6,body_state_7,body_state_8,body_state_9,body_state_10,body_state_11,body_state_12
0.15164193511009216,-0.2732091546058655,-0.0026483021210879087,-0.20465026795864105
0.14439979195594788,-0.4700571298599243,-0.008131823502480984,-0.3584121763706207
0.13458959758281708,-0.6045466661453247,-0.015693707391619682,-0.46990659832954407
0.12307056784629822,-0.692568302154541,-0.02474294602870941,-0.5492087602615356
0.11046876758337021,-0.7471074461936951,-0.03483746573328972,-0.6046202182769775
0.0972248762845993,-0.7783698439598083,-0.0456542894244194,-0.6426998972892761
0.08363989740610123,-0.793907642364502,-0.05696048587560654,-0.6683176755905151
0.06991265714168549,-0.7992183566093445,-0.06858929246664047,-0.6850314736366272
0.05616822466254234,-0.7982491254806519,-0.0804218128323555,-0.6954057216644287
0.04247918725013733,-0.7937982082366943,-0.09237335622310638,-0.7012674808502197
0.028881018981337547,-0.7878403067588806,-0.10438358783721924,-0.7039135098457336
0.015383114106953144,-0.7817614078521729,-0.11640939861536026,-0.7042604088783264
0.001976576866582036,-0.7765299677848816,-0.12841980159282684,-0.7029526233673096
-0.01136020664125681,-0.7728191614151001,-0.14039230346679688,-0.7004408240318298
-0.024657657369971275,-0.7710936665534973,-0.152310311794281,-0.6970359683036804
-0.037952255457639694,-0.7716729640960693,-0.16416124999523163,-0.6929500102996826
-0.05128467455506325,-0.7747788429260254,-0.175935298204422,-0.6883256435394287
-0.06469850242137909,-0.7805658578872681,-0.18762436509132385,-0.6832553148269653
-0.07823936641216278,-0.7891425490379333,-0.19922155141830444,-0.6777946949005127
-0.09195435047149658,-0.8005878925323486,-0.2107204645872116,-0.6719732284545898
-0.1058916375041008,-0.814963161945343,-0.22211501002311707,-0.6658010482788086
-0.12010026723146439,-0.8323193192481995,-0.23339910805225372,-0.6592743992805481
-0.13463012874126434,-0.8527029752731323,-0.24456645548343658,-0.6523786783218384
-0.1495317965745926,-0.8761605620384216,-0.2556104063987732,-0.64509117603302
-0.16485673189163208,-0.9027459025382996,-0.26652392745018005,-0.637385904788971
-0.18065732717514038,-0.9325188994407654,-0.27729934453964233,-0.6292328238487244
-0.19698701798915863,-0.9655448198318481,-0.2879284620285034,-0.6205973029136658
-0.2139003723859787,-1.001895785331726,-0.2984025776386261,-0.6114403605461121
-0.23145326972007751,-1.0416514873504639,-0.3087121248245239,-0.6017196178436279
-0.24970299005508423,-1.084901213645935,-0.31884685158729553,-0.5913896560668945
-0.26870837807655334,-1.1317415237426758,-0.3287956416606903,-0.5804017782211304
-0.2885299324989319,-1.1822783946990967,-0.3385465443134308,-0.5687035322189331
-0.3092300295829773,-1.2366251945495605,-0.3480866849422455,-0.556238055229187
-0.3308729827404022,-1.2949033975601196,-0.3574020564556122,-0.5429443717002869
-0.3535252809524536,-1.3572417497634888,-0.3664776682853699,-0.5287559628486633
-0.37725546956062317,-1.4237687587738037,-0.3752972185611725,-0.5135959386825562
-0.40213462710380554,-1.4946417808532715,-0.3838432729244232,-0.4973963499069214
-0.4282366931438446,-1.5700347423553467,-0.39209720492362976,-0.48008978366851807
-0.45563846826553345,-1.6501201391220093,-0.4000391364097595,-0.46159622073173523
-0.48441943526268005,-1.7350471019744873,-0.40764757990837097,-0.4418071210384369
-0.514661431312561,-1.824965000152588,-0.4148988425731659,-0.42060035467147827
-0.5464492440223694,-1.9200283288955688,-0.4217672049999237,-0.39784255623817444
-0.5798698663711548,-2.0203940868377686,-0.4282246232032776,-0.3733874261379242
-0.6150134801864624,-2.1262240409851074,-0.4342401921749115,-0.3470737934112549
-0.6519728899002075,-2.2376816272735596,-0.4397803544998169,-0.3187236785888672
-0.6908436417579651,-2.3549349308013916,-0.4448082447052002,-0.28814104199409485
-0.7317245602607727,-2.478158473968506,-0.4492834508419037,-0.2551102340221405
-0.7747175693511963,-2.6075358390808105,-0.4531618058681488,-0.2193942815065384
-0.819927990436554,-2.7432632446289062,-0.45639482140541077,-0.1807338148355484
-0.8674648404121399,-2.8855526447296143,-0.4589293897151947,-0.138843834400177
-0.9174411296844482,-3.0346388816833496,-0.46070727705955505,-0.09341219812631607
-0.9699749946594238,-3.1908140182495117,-0.46166500449180603,-0.044126953929662704
-1.0251898765563965,-3.354414701461792,-0.46173372864723206,0.009340108372271061
-1.0832160711288452,-3.5258240699768066,-0.4608387053012848,0.06734436005353928
-1.1441913843154907,-3.705488920211792,-0.45889896154403687,0.13025712966918945
-1.208262324333191,-3.8939242362976074,-0.45582708716392517,0.19846783578395844
-1.2755852937698364,-4.091716289520264,-0.4515286087989807,0.2723952829837799
-1.3463283777236938,-4.29953145980835,-0.44590142369270325,0.3524904251098633
-1.4206721782684326,-4.518139839172363,-0.438836008310318,0.43918338418006897
-1.4988127946853638,-4.7484049797058105,-0.43021586537361145,0.5328530073165894
-0.5037951469421387,0.0,0.0,0.0
-0.505750834941864,-0.15541808307170868,-0.0003200330538675189,-0.024818304926156998
-0.5102397203445435,-0.3055172264575958,-0.0010072474833577871,-0.04533201828598976
-0.5171712040901184,-0.4503350853919983,-0.0019834828563034534,-0.06116887181997299
-0.5264608860015869,-0.5903679132461548,-0.003168586641550064,-0.07229364663362503
-0.538041889667511,-0.7268121242523193,-0.004488570615649223,-0.07919478416442871
-0.5518658757209778,-0.8607399463653564,-0.005876671522855759,-0.08227422088384628
-0.5679008960723877,-0.9930883646011353,-0.0072717610746622086,-0.08183848857879639
-0.5861301422119141,-1.12474524974823,-0.008617562241852283,-0.07816329598426819
-0.6065511107444763,-1.2565371990203857,-0.009861985221505165,-0.07148240506649017
-0.6291744709014893,-1.3892220258712769,-0.010956348851323128,-0.0619821660220623
-0.6540225148200989,-1.5234603881835938,-0.011854240670800209,-0.04977617785334587
-0.6811268925666809,-1.6598020792007446,-0.012510104104876518,-0.034890104085206985
-0.7105279564857483,-1.7987056970596313,-0.012877853587269783,-0.01727125607430935
-0.7422733306884766,-1.9406089782714844,-0.012910249643027782,0.0031576096080243587
-0.7764174342155457,-2.085906505584717,-0.012558185495436192,0.026521388441324234
-0.8130214810371399,-2.2349748611450195,-0.011770091950893402,0.05297642573714256
-0.8521528244018555,-2.3881893157958984,-0.010491541586816311,0.08269985765218735
-0.8938855528831482,-2.545926809310913,-0.008664870634675026,0.11589168757200241
-0.9383001923561096,-2.708571195602417,-0.006228774320334196,0.1527763456106186
-0.98548424243927,-2.8765196800231934,-0.003117875661700964,0.19360333681106567
-1.035531997680664,-3.050187826156616,0.0007377088186331093,0.23864765465259552
-1.0885460376739502,-3.2300240993499756,0.00541280023753643,0.2882089912891388
-1.1446365118026733,-3.416513442993164,0.010987584479153156,0.3426109850406647
-1.203923225402832,-3.610192060470581,0.017548007890582085,0.40219900012016296
-1.266535758972168,-3.8116543292999268,0.025186123326420784,0.4673360586166382
-1.3326152563095093,-4.021566867828369,0.03400023654103279,0.5383883118629456
-1.402315616607666,-4.240666389465332,0.04409501329064369,0.6157246232032776
-1.4758044481277466,-4.469752311706543,0.05558148771524429,0.6997085213661194
-1.5532640218734741,-4.709677219390869,0.06857681274414062,0.7906792163848877
-0.41916295886039734,0.0,0.0,0.0
-0.4213283360004425,-0.1710159331560135,-0.0006249866564758122,-0.04841514304280281
-0.4261958599090576,-0.32864323258399963,-0.0019474521977826953,-0.08694121241569519
-0.43355482816696167,-0.4742814898490906,-0.0038061290979385376,-0.11614978313446045
-0.4432268440723419,-0.6100149750709534,-0.006055893376469612,-0.13710778951644897
-0.4550745189189911,-0.7383558750152588,-0.008573981001973152,-0.15120427310466766
-0.4689973294734955,-0.8613799810409546,-0.011257560923695564,-0.15953654050827026
-0.48492565751075745,-0.980810284614563,-0.014019493944942951,-0.16296695172786713
-0.5028159618377686,-1.0981439352035522,-0.016785480082035065,-0.16221177577972412
-0.5226473808288574,-1.2146579027175903,-0.01949158124625683,-0.1578417867422104
-0.5444183945655823,-1.331432819366455,-0.02208191156387329,-0.15029606223106384
-0.5681427717208862,-1.4493275880813599,-0.02450609765946865,-0.13985756039619446
-0.5938463807106018,-1.5690224170684814,-0.02671695500612259,-0.1266794204711914
-0.6215659976005554,-1.6911169290542603,-0.028669152408838272,-0.11085348576307297
-0.6513474583625793,-1.8161448240280151,-0.03031831607222557,-0.09241960197687149
-0.6832449436187744,-1.9445773363113403,-0.031620100140571594,-0.07136369496583939
-0.7173197269439697,-2.0768160820007324,-0.03252917155623436,-0.047607310116291046
-0.7536397576332092,-2.2132372856140137,-0.0329984612762928,-0.021038012579083443
-0.7922791242599487,-2.354198932647705,-0.03297867625951767,0.008488031104207039
-0.8333179950714111,-2.5000481605529785,-0.032417748123407364,0.04114493727684021
-0.8768423795700073,-2.6511287689208984,-0.03126034140586853,0.0771365538239479
-0.9229443669319153,-2.807788133621216,-0.02944735810160637,0.11669569462537766
-0.9717222452163696,-2.9703855514526367,-0.02691544033586979,0.16008363664150238
-1.0232808589935303,-3.1393024921417236,-0.02359650284051895,0.2075890153646469
-1.0777320861816406,-3.314953565597534,-0.019417274743318558,0.25952646136283875
-1.1351956129074097,-3.497795820236206,-0.014298857189714909,0.31623515486717224
-1.1957999467849731,-3.6883394718170166,-0.008156320080161095,0.3780764043331146
-1.2596831321716309,-3.887160062789917,-0.0008983565494418144,0.4454292953014374
-1.32699453830719,-4.094910144805908,0.007572866510599852,0.5186752676963806
-1.3978959321975708,-4.312318325042725,0.01736178621649742,0.5981972813606262
-1.4725626707077026,-4.5401811599731445,0.02857944928109646,0.6843724250793457
-1.5511856079101562,-4.779349327087402,0.041343241930007935,0.7775518298149109
-0.05705523490905762,0.0,0.0,0.0
-0.0602535605430603,-0.24758179485797882,-0.001958356937393546,-0.15126696228981018
-0.06694752722978592,-0.43917611241340637,-0.006021471694111824,-0.2655845582485199
-0.0763048529624939,-0.5844039916992188,-0.011632156558334827,-0.3486582338809967
-0.087680883705616,-0.6947110295295715,-0.01834752969443798,-0.4074968993663788
-0.10060512274503708,-0.779918909072876,-0.02583198808133602,-0.44815146923065186
-0.11474458873271942,-0.8475304841995239,-0.03383471444249153,-0.47524014115333557
-0.12986956536769867,-0.9031408429145813,-0.042168404906988144,-0.492195188999176
-0.1458287537097931,-0.9510301351547241,-0.05069379881024361,-0.5016327500343323
-0.1625293642282486,-0.9943572878837585,-0.05930722877383232,-0.5054661631584167
-0.1799214631319046,-1.0354315042495728,-0.06793076545000076,-0.5050728917121887
-0.19798646867275238,-1.0759450197219849,-0.07650492340326309,-0.5014394521713257
-0.21672901511192322,-1.117154598236084,-0.08498349785804749,-0.49527326226234436
-0.23617124557495117,-1.1600151062011719,-0.09332980960607529,-0.48708587884902954
-0.256348580121994,-1.2052490711212158,-0.10151392966508865,-0.4772348999977112
-0.2773064374923706,-1.2534087896347046,-0.10951054096221924,-0.46596264839172363
-0.29909804463386536,-1.3049269914627075,-0.11729740351438522,-0.45342716574668884
-0.3217830955982208,-1.3601537942886353,-0.12485416978597641,-0.43972447514533997
-0.34542617201805115,-1.4193812608718872,-0.13216155767440796,-0.42490360140800476
-0.37009647488594055,-1.4828598499298096,-0.13920064270496368,-0.4089774489402771
-0.3958670496940613,-1.5508134365081787,-0.14595243334770203,-0.39193013310432434
-0.42281436920166016,-1.6234456300735474,-0.15239731967449188,-0.37372198700904846
-0.45101821422576904,-1.7009459733963013,-0.15851475298404694,-0.3542918562889099
-0.48056137561798096,-1.7834845781326294,-0.1642829179763794,-0.3335520923137665
-0.5115293264389038,-1.8712239265441895,-0.1696782112121582,-0.3113969564437866
-0.5440104603767395,-1.964324712753296,-0.17467515170574188,-0.2877039909362793
-0.5780956745147705,-2.0629453659057617,-0.1792459487915039,-0.2623332142829895
-0.6138788461685181,-2.1672427654266357,-0.1833602488040924,-0.23512674868106842
-0.6514564156532288,-2.2773759365081787,-0.1869848370552063,-0.2059076428413391
-0.6909276247024536,-2.393505096435547,-0.19008329510688782,-0.17447814345359802
-0.7323947548866272,-2.5158064365386963,-0.19261574745178223,-0.14062871038913727
-0.7759633660316467,-2.6444766521453857,-0.19453871250152588,-0.10413842648267746
-0.8217426538467407,-2.7797205448150635,-0.1958046555519104,-0.06476116180419922
-0.8698458075523376,-2.9217567443847656,-0.19636163115501404,-0.0222246665507555
-0.9203896522521973,-3.0708167552948,-0.1961527168750763,0.02377747930586338
-0.9734959006309509,-3.227163076400757,-0.19511549174785614,0.07357880473136902
-1.029291033744812,-3.3911001682281494,-0.193181574344635,0.1275380551815033
-1.087908148765564,-3.56298565864563,-0.19027625024318695,0.186038538813591
-1.1494871377944946,-3.7432451248168945,-0.18631808459758759,0.24948225915431976
-1.2141766548156738,-3.932398796081543,-0.1812189668416977,0.3182603418827057
-1.2821353673934937,-4.1310529708862305,-0.17488408088684082,0.3927644193172455
-1.353534460067749,-4.339894771575928,-0.16721177101135254,0.4733961522579193
-1.428557276725769,-4.559690952301025,-0.15809336304664612,0.560559093952179
-1.5074025392532349,-4.791280746459961,-0.14741328358650208,0.6546415090560913
-0.393250048160553,0.0,0.0,0.0
-0.39548560976982117,-0.17624278366565704,-0.0007199885440059006,-0.0557570606470108
-0.4004802107810974,-0.336407333612442,-0.0022396184504032135,-0.09983441233634949
-0.40798288583755493,-0.482342004776001,-0.004370869603008032,-0.1330995410680771
-0.4177846610546112,-0.6167248487472534,-0.00694822333753109,-0.15701651573181152
-0.4297250509262085,-0.7424642443656921,-0.009833523072302341,-0.17323406040668488
-0.44368690252304077,-0.8619987964630127,-0.012912771664559841,-0.18309326469898224
-0.4595887362957001,-0.9773200750350952,-0.01609104871749878,-0.18764060735702515
-0.47737905383110046,-1.0901226997375488,-0.01928882859647274,-0.18773072957992554
-0.49703162908554077,-1.201825737953186,-0.022438859567046165,-0.1840379387140274
-0.5185412168502808,-1.3136019706726074,-0.0254832711070776,-0.177071213722229
-0.5419186353683472,-1.426347255706787,-0.02837042324244976,-0.16714735329151154
-0.5671882629394531,-1.5407954454421997,-0.031052621081471443,-0.1544673591852188
-0.5943852663040161,-1.6575863361358643,-0.033484768122434616,-0.1391645222902298
-0.6235551834106445,-1.77728271484375,-0.03562331572175026,-0.12131248414516449
-0.6547516584396362,-1.900378942489624,-0.03742530941963196,-0.10092941671609879
-0.6880362629890442,-2.0272932052612305,-0.03884729743003845,-0.07796603441238403
-0.7234770655632019,-2.1584014892578125,-0.03984445706009865,-0.05232810229063034
-0.7611479163169861,-2.2940547466278076,-0.04037000238895416,-0.023886675015091896
-0.8011291027069092,-2.43459153175354,-0.04037462919950485,0.007517445832490921
-0.8435062170028687,-2.5803420543670654,-0.03980601951479912,0.042073529213666916
-0.8883708119392395,-2.731635808944702,-0.038608308881521225,0.08000054210424423
-0.9358201026916504,-2.8888096809387207,-0.03672162815928459,0.12154639512300491
-0.9859574437141418,-3.052217960357666,-0.0340815968811512,0.16698703169822693
-1.0388928651809692,-3.2222418785095215,-0.030618859454989433,0.21662528812885284
-1.0947431325912476,-3.3993000984191895,-0.02625862881541252,0.2707895338535309
-1.1536335945129395,-3.5838592052459717,-0.020920267328619957,0.329831600189209
-1.215698003768921,-3.776444435119629,-0.014516904018819332,0.3941240608692169
-1.2810806035995483,-3.977651834487915,-0.006955129560083151,0.46405354142189026
-1.349936604499817,-4.1881585121154785,0.0018650895217433572,0.5400053262710571
-1.4224348068237305,-4.40871524810791,0.012050469405949116,0.6223655343055725
-1.4987578392028809,-4.640139102935791,0.023714343085885048,0.7115083932876587
-0.5479792356491089,0.0,0.0,0.0
-0.5498397350311279,-0.14833618700504303,-0.0001645733427722007,-0.012769854627549648
-0.5541576147079468,-0.29511040449142456,-0.0005266261287033558,-0.023991843685507774
-0.560897707939148,-0.43968409299850464,-0.0010484789963811636,-0.032788656651973724
-0.5700210928916931,-0.5819824934005737,-0.0016829624073579907,-0.03870544582605362
-0.5814946889877319,-0.7225207090377808,-0.0023809331469237804,-0.04173418879508972
-0.5952951908111572,-0.861882746219635,-0.00309380074031651,-0.0419190376996994
-0.6114089488983154,-1.000649333000183,-0.003773712320253253,-0.03930144011974335
-0.6298328042030334,-1.1394484043121338,-0.00437402306124568,-0.03395967558026314
-0.65057373046875,-1.2788887023925781,-0.0048492709174752235,-0.025957772508263588
-0.6736489534378052,-1.4195581674575806,-0.00515490910038352,-0.015343466773629189
-0.6990848779678345,-1.5619971752166748,-0.0052467393688857555,-0.002125128172338009
-0.7269165515899658,-1.706689715385437,-0.005080118775367737,0.013738025911152363
-0.7571857571601868,-1.8540277481079102,-0.0046086739748716354,0.03237133100628853
-0.789941132068634,-2.0043962001800537,-0.003783714957535267,0.05391886457800865
-0.8252373337745667,-2.1581544876098633,-0.0025536634493619204,0.0785636231303215
-0.8631352782249451,-2.315666675567627,-0.0008636927814222872,0.10650429129600525
-0.9037023186683655,-2.4773106575012207,0.0013445084914565086,0.13795319199562073
-0.947012722492218,-2.6434764862060547,0.004133020061999559,0.17314031720161438
-0.9931473135948181,-2.8145720958709717,0.007568024564534426,0.21231593191623688
-1.0421947240829468,-2.99102783203125,0.011720179580152035,0.2557521462440491
-1.0942509174346924,-3.1733036041259766,0.016665000468492508,0.30374354124069214
-1.1494207382202148,-3.361898183822632,0.022483259439468384,0.35660675168037415
-1.2078185081481934,-3.5573580265045166,0.029261352494359016,0.4146791398525238
-1.2695683240890503,-3.7602875232696533,0.037091635167598724,0.47831520438194275
-1.3348060846328735,-3.9713587760925293,0.0460725799202919,0.5478723645210266
-1.403680443763733,-4.191312789916992,0.056308865547180176,0.623711347579956
-1.4763537645339966,-4.4209489822387695,0.06791139394044876,0.7061884999275208
-1.553003191947937,-4.6611175537109375,0.08099708706140518,0.7956367135047913
0.5428305268287659,0.0,0.0,0.0
0.5397841334342957,-0.2325524091720581,-0.0035369442775845528,-0.2744557559490204
0.5337556600570679,-0.38579171895980835,-0.010958847589790821,-0.4878210127353668
0.5259174108505249,-0.4733673334121704,-0.0213535837829113,-0.6499481797218323
0.5172009468078613,-0.5096529126167297,-0.03398843854665756,-0.7716212272644043
0.5083137154579163,-0.5074852705001831,-0.048301104456186295,-0.8626237511634827
0.49977564811706543,-0.4773304760456085,-0.06387322396039963,-0.9310011863708496
0.4919601082801819,-0.4272336959838867,-0.08039989322423935,-0.9829859733581543
0.4851299822330475,-0.3632093667984009,-0.0976625606417656,-1.0232833623886108
0.47946697473526,-0.2896294593811035,-0.11550682783126831,-1.0553672313690186
0.4750947654247284,-0.20959678292274475,-0.13382524251937866,-1.0817662477493286
0.47209644317626953,-0.1252640187740326,-0.152544304728508,-1.1043058633804321
0.47052738070487976,-0.03808704763650894,-0.17161501944065094,-1.1243001222610474
0.4704238772392273,0.050926052033901215,-0.19100649654865265,-1.1427359580993652
0.47180894017219543,0.14107918739318848,-0.21070177853107452,-1.160374402999878
0.47469741106033325,0.23196077346801758,-0.23069417476654053,-1.1777712106704712
0.4790996015071869,0.32336491346359253,-0.2509845197200775,-1.1953355073928833
0.48502421379089355,0.41523608565330505,-0.2715792655944824,-1.213369607925415
0.4924808144569397,0.5076645016670227,-0.292488694190979,-1.2320724725723267
0.5014821887016296,0.60087651014328,-0.3137251138687134,-1.2515459060668945
0.5120474100112915,0.6952893137931824,-0.33530083298683167,-1.2717541456222534
0.5242033004760742,0.7913787961006165,-0.3572269678115845,-1.292619228363037
0.5379847288131714,0.8896112442016602,-0.37951338291168213,-1.3140723705291748
0.5534341335296631,0.9904309511184692,-0.40216895937919617,-1.3360636234283447
0.5706013441085815,1.0942649841308594,-0.425201952457428,-1.3585585355758667
0.5895423889160156,1.20146906375885,-0.4486207067966461,-1.3815802335739136
0.6103188395500183,1.3123542070388794,-0.47243446111679077,-1.4051926136016846
0.6329955458641052,1.4270857572555542,-0.49665501713752747,-1.429580569267273
0.6576410531997681,1.545858383178711,-0.5212971568107605,-1.4549169540405273
0.6843264698982239,1.6688603162765503,-0.5463789105415344,-1.4813933372497559
0.713126540184021,1.7962756156921387,-0.571921706199646,-1.509217619895935
0.7441196441650391,1.9283430576324463,-0.5979499220848083,-1.5385677814483643
0.7773885130882263,2.0653128623962402,-0.6244911551475525,-1.5696269273757935
0.8130196332931519,2.2074060440063477,-0.6515767574310303,-1.6026209592819214
0.8511036038398743,2.3548643589019775,-0.6792418360710144,-1.6377792358398438
0.8917354941368103,2.507936954498291,-0.7075255513191223,-1.6753497123718262
0.9350138902664185,2.6668496131896973,-0.7364721894264221,-1.7156333923339844
0.9810418486595154,2.8318490982055664,-0.7661312222480774,-1.7589523792266846
1.0299270153045654,3.0032145977020264,-0.7965580821037292,-1.8056427240371704
1.081782579421997,3.1812617778778076,-0.827813982963562,-1.8560575246810913
1.1367273330688477,3.3663620948791504,-0.8599663376808167,-1.910550594329834
1.1948879957199097,3.558964490890503,-0.8930883407592773,-1.969444751739502
1.2563999891281128,3.7595605850219727,-0.927259087562561,-2.0330793857574463
1.3214073181152344,3.9686880111694336,-0.962563693523407,-2.101809501647949
1.3900647163391113,4.186927318572998,-0.9990941286087036,-2.176020622253418
1.4625378847122192,4.414915561676025,-1.0369490385055542,-2.256082773208618
1.5390048027038574,4.653334617614746,-1.0762332677841187,-2.342325448989868
0.5191076397895813,0.0,0.0,0.0
0.5159876346588135,-0.2383062243461609,-0.00349478330463171,-0.27109986543655396
0.5098013877868652,-0.3962933123111725,-0.010819247923791409,-0.4811951518058777
0.5017338395118713,-0.4879906475543976,-0.021064238622784615,-0.6402691602706909
0.4927237629890442,-0.5280497074127197,-0.03350109979510307,-0.7591456770896912
0.48348215222358704,-0.5294975638389587,-0.04757164418697357,-0.847597062587738
0.4745294451713562,-0.5029884576797485,-0.06286180019378662,-0.9136824011802673
0.4662370979785919,-0.4566803276538849,-0.07907082885503769,-0.9636185765266418
0.4588649570941925,-0.3966399133205414,-0.09598378837108612,-1.0020731687545776
0.4525911509990692,-0.32726427912712097,-0.11344928294420242,-1.0324808359146118
0.44753554463386536,-0.25166553258895874,-0.131362184882164,-1.0573313236236572
0.44377729296684265,-0.17199748754501343,-0.14965073764324188,-1.078415870666504
0.44136786460876465,-0.08971425890922546,-0.168267160654068,-1.0970176458358765
0.44033998250961304,-0.005793798714876175,-0.1871810406446457,-1.114077091217041
0.44071337580680847,0.07907221466302872,-0.2063753753900528,-1.1303290128707886
0.44249942898750305,0.16446860134601593,-0.22584310173988342,-1.1463112831115723
0.4457050859928131,0.2501843571662903,-0.24558444321155548,-1.1624165773391724
0.45033538341522217,0.336154967546463,-0.26560497283935547,-1.1789345741271973
0.4563956558704376,0.4224211573600769,-0.28591418266296387,-1.196081519126892
0.4638931453227997,0.5091317296028137,-0.306524395942688,-1.2139980792999268
0.47283974289894104,0.5966005921363831,-0.32744863629341125,-1.2327078580856323
0.48325371742248535,0.685222864151001,-0.348699688911438,-1.252177119255066
0.49516043066978455,0.7754259705543518,-0.37028932571411133,-1.2723509073257446
0.5085927844047546,0.8676654100418091,-0.39222824573516846,-1.2931557893753052
0.523591160774231,0.9623720049858093,-0.4145261347293854,-1.314538598060608
0.5402027368545532,1.0599424839019775,-0.43719199299812317,-1.3364756107330322
0.5584805011749268,1.1606956720352173,-0.4602353274822235,-1.3590047359466553
0.5784834027290344,1.2649855613708496,-0.4836658239364624,-1.3821437358856201
0.6002746820449829,1.3730393648147583,-0.5074949264526367,-1.4060134887695312
0.6239209175109863,1.4850465059280396,-0.5317364931106567,-1.4307746887207031
0.6494922637939453,1.601218819618225,-0.55640709400177,-1.4565807580947876
0.6770621538162231,1.721739649772644,-0.5815263390541077,-1.483621597290039
0.7067077159881592,1.8468303680419922,-0.60711669921875,-1.5120689868927002
0.7385100722312927,1.9767495393753052,-0.6332033276557922,-1.5420796871185303
0.7725549936294556,2.1117501258850098,-0.6598143577575684,-1.5738285779953003
0.8089320659637451,2.2520618438720703,-0.6869814991950989,-1.6075284481048584
0.8477352261543274,2.3979270458221436,-0.7147399187088013,-1.64340341091156
0.8890624046325684,2.5495901107788086,-0.7431291341781616,-1.6816996335983276
0.9330153465270996,2.7072715759277344,-0.7721934914588928,-1.7227203845977783
0.979699969291687,2.8712146282196045,-0.8019826412200928,-1.7667877674102783
1.0292270183563232,3.041694164276123,-0.8325522541999817,-1.8142393827438354
1.081712007522583,3.219019889831543,-0.8639639616012573,-1.8654340505599976
1.137277364730835,3.4035727977752686,-0.8962852954864502,-1.9207122325897217
1.196052074432373,3.5957982540130615,-0.9295894503593445,-1.9804017543792725
1.2581746578216553,3.7961843013763428,-0.9639558792114258,-2.044846534729004
1.3237920999526978,4.005266189575195,-0.9994701147079468,-2.1144089698791504
1.3930615186691284,4.223624229431152,-1.0362244844436646,-2.189478635787964
1.4661518335342407,4.451898574829102,-1.074318289756775,-2.2704243659973145
1.543243646621704,4.690771579742432,-1.113856554031372,-2.357573986053467
-0.015803396701812744,0.0,0.0,0.0
-0.019097527489066124,-0.2546134293079376,-0.002101707039400935,-0.1623312085866928
-0.0259512010961771,-0.4485645890235901,-0.006458214018493891,-0.28470224142074585
-0.03546498343348503,-0.5924445986747742,-0.012468859553337097,-0.3734288215637207
-0.04694480448961258,-0.6987642645835876,-0.01965869590640068,-0.43620771169662476
-0.059885818511247635,-0.7781692743301392,-0.02766989916563034,-0.47963136434555054
-0.07393135875463486,-0.8387256860733032,-0.03623655438423157,-0.508696436882019
-0.088836170732975,-0.8864778876304626,-0.04516180604696274,-0.5271430015563965
-0.10443906486034393,-0.9259980320930481,-0.05430079624056816,-0.5377947688102722
-0.12064085900783539,-0.9606238007545471,-0.06354686617851257,-0.5427007675170898
-0.13738739490509033,-0.9927754402160645,-0.07282084971666336,-0.5433313846588135
-0.1546572744846344,-1.0242117643356323,-0.08206328004598618,-0.5407373905181885
-0.1724528670310974,-1.0562160015106201,-0.0912286788225174,-0.5356652140617371
-0.19079403579235077,-1.0897300243377686,-0.1002814844250679,-0.5286401510238647
-0.20971357822418213,-1.1254582405090332,-0.10919304937124252,-0.5200309753417969
-0.2292541265487671,-1.1639362573623657,-0.11793956905603409,-0.5100924372673035
-0.2494659572839737,-1.2055901288986206,-0.12650060653686523,-0.4990018606185913
-0.2704053819179535,-1.2507563829421997,-0.1348578780889511,-0.48687034845352173
-0.2921336591243744,-1.2997078895568848,-0.14299438893795013,-0.47376006841659546
-0.314716100692749,-1.3526767492294312,-0.15089371800422668,-0.4596969783306122
-0.33822157979011536,-1.4098680019378662,-0.15853959321975708,-0.44467929005622864
-0.3627220690250397,-1.4714678525924683,-0.16591539978981018,-0.42868301272392273
-0.38829272985458374,-1.537651777267456,-0.1730039268732071,-0.411665678024292
-0.4150114059448242,-1.6085880994796753,-0.1797870248556137,-0.3935687839984894
-0.44295886158943176,-1.6844401359558105,-0.186245396733284,-0.37431800365448
-0.4722183346748352,-1.7653579711914062,-0.19235821068286896,-0.35381755232810974
-0.5028756856918335,-1.851489543914795,-0.19810286164283752,-0.3319562077522278
-0.5350192189216614,-1.942983865737915,-0.20345468819141388,-0.30860844254493713
-0.5687398910522461,-2.0399909019470215,-0.20838674902915955,-0.28363361954689026
-0.6041310429573059,-2.1426610946655273,-0.2128695845603943,-0.2568742632865906
-0.6412889361381531,-2.251148223876953,-0.21687081456184387,-0.22815553843975067
-0.6803125143051147,-2.3656086921691895,-0.22035497426986694,-0.19728322327136993
-0.7213033437728882,-2.486201763153076,-0.2232830822467804,-0.16404159367084503
-0.7643661499023438,-2.6131114959716797,-0.22561237215995789,-0.12820596992969513
-0.8096092343330383,-2.7465415000915527,-0.22729626297950745,-0.08953820914030075
-0.8571445345878601,-2.8867087364196777,-0.22828379273414612,-0.04777445271611214
-0.9070882201194763,-3.0338492393493652,-0.22851930558681488,-0.0026250937953591347
-0.9595608115196228,-3.1882193088531494,-0.22794188559055328,0.04623349383473396
-1.0146877765655518,-3.3501105308532715,-0.22648471593856812,0.09915460646152496
-1.0726007223129272,-3.5198636054992676,-0.22407473623752594,0.15651702880859375
-1.1334372758865356,-3.6978824138641357,-0.22063222527503967,0.2187235802412033
-1.1973443031311035,-3.8846516609191895,-0.2160705029964447,0.28618547320365906
-1.2644777297973633,-4.08076286315918,-0.21029618382453918,0.35928916931152344
-1.335005283355713,-4.2868876457214355,-0.20320914685726166,0.4384320378303528
-1.4091075658798218,-4.503775119781494,-0.19470225274562836,0.5240171551704407
-1.4869791269302368,-4.7322516441345215,-0.18466149270534515,0.6164379119873047
-1.5688303709030151,-4.973198890686035,-0.17296628654003143,0.7160544991493225
-0.6519450545310974,0.0,0.0,0.0
-0.65362548828125,-0.13499419391155243,0.00019049161346629262,0.014801939018070698
-0.6576257944107056,-0.2759421467781067,0.0005748169496655464,0.025110235437750816
-0.6640228033065796,-0.4209650158882141,0.001101175439544022,0.03284124657511711
-0.6728690266609192,-0.5688003301620483,0.0017440057126805186,0.03941795602440834
-0.6842023134231567,-0.7187082171440125,0.0024966003838926554,0.04584845155477524
-0.6980524063110352,-0.8703144788742065,0.0033656891901046038,0.05285380408167839
-0.7144449949264526,-1.023438811302185,0.004368365276604891,0.06100889667868614
-0.7334055304527283,-1.178112268447876,0.005529370158910751,0.07072509825229645
-0.7549619078636169,-1.3345357179641724,0.006878714542835951,0.0822821632027626
-0.7791462540626526,-1.4929722547531128,0.008450575172901154,0.09591682255268097
-0.8059950470924377,-1.6536861658096313,0.0102832717821002,0.11187776178121567
-0.8355497121810913,-1.816975712776184,0.012419098988175392,0.13039766252040863
-0.8678568005561829,-1.983139157295227,0.014904490672051907,0.15172766149044037
-0.9029672741889954,-2.1524319648742676,0.017790956422686577,0.17618566751480103
-0.9409368634223938,-2.32513689994812,0.021135441958904266,0.20409661531448364
-0.9818269610404968,-2.5015931129455566,0.02500012516975403,0.23576785624027252
-1.025705337524414,-2.6821863651275635,0.029452258720993996,0.27149996161460876
-1.0726470947265625,-2.8673477172851562,0.03456416353583336,0.31159481406211853
-1.1227351427078247,-3.057551383972168,0.040413349866867065,0.3563619554042816
-1.1760616302490234,-3.25331974029541,0.047082677483558655,0.40612149238586426
-1.232728362083435,-3.4552254676818848,0.05466059595346451,0.46120619773864746
-1.292847752571106,-3.6639013290405273,0.06324132531881332,0.5219563841819763
-1.356544017791748,-3.8800437450408936,0.07292490452528,0.5887134671211243
-1.423954725265503,-4.1044087409973145,0.08381733298301697,0.6618216633796692
-1.4952311515808105,-4.337808609008789,0.09603051841259003,0.7416168451309204
-1.5705394744873047,-4.581094264984131,0.10968197137117386,0.8284090161323547
-0.5895875096321106,0.0,0.0,0.0
-0.5913683772087097,-0.14241792261600494,-2.0690609744633548e-05,-0.001606124104000628
-0.5955443978309631,-0.28650447726249695,-8.090167830232531e-05,-0.004154373425990343
-0.6021283268928528,-0.4310610592365265,-0.00017963923164643347,-0.006322668865323067
-0.6111202836036682,-0.5755277276039124,-0.0002997265546582639,-0.007279141340404749
-0.622517466545105,-0.719852864742279,-0.00041487201815471053,-0.006582600064575672
-0.6363186240196228,-0.8642033338546753,-0.0004934154567308724,-0.003956780303269625
-0.6525265574455261,-1.0088343620300293,-0.0004998392541892827,0.0008106891764327884
-0.6711501479148865,-1.1541295051574707,-0.00039629818638786674,0.007834416814148426
-0.6922051310539246,-1.3005399703979492,-0.00014367811672855169,0.0171786118298769
-0.7157149314880371,-1.4484995603561401,0.00029843044467270374,0.028926096856594086
-0.74170982837677,-1.5984292030334473,0.0009720076923258603,0.04317551478743553
-0.7702276110649109,-1.7507447004318237,0.0019208164885640144,0.060037292540073395
-0.8013118505477905,-1.9057931900024414,0.003191359806805849,0.07969284057617188
-0.8350120186805725,-2.0639076232910156,0.004833553452044725,0.1023535504937172
-0.8713831305503845,-2.2254137992858887,0.006901211570948362,0.12825912237167358
-0.9104861617088318,-2.390664577484131,0.00945217814296484,0.15765096247196198
-0.9523884654045105,-2.5600407123565674,0.012548403814435005,0.19077575206756592
-0.9971644282341003,-2.733947277069092,0.016256118193268776,0.22789187729358673
-1.0448957681655884,-2.9128167629241943,0.020646080374717712,0.2692733108997345
-1.0956720113754272,-3.0971155166625977,0.025793885812163353,0.3152124285697937
-1.149591326713562,-3.287346839904785,0.03178030997514725,0.3660203814506531
-1.2067612409591675,-3.4840614795684814,0.03869163244962692,0.4220273792743683
-1.2672995328903198,-3.6878662109375,0.046619951725006104,0.48357951641082764
-1.3313360214233398,-3.8994319438934326,0.0556633286178112,0.5510262846946716
-1.3990120887756348,-4.119494438171387,0.06592591106891632,0.6247209906578064
-1.4704837799072266,-4.348850250244141,0.07751794159412384,0.705013632774353
-1.545921802520752,-4.588345050811768,0.0905555859208107,0.7922341227531433
0.012567341327667236,0.0,0.0,0.0
0.009213869459927082,-0.25895267724990845,-0.0021980125457048416,-0.1697702705860138
0.0022634791675955057,-0.45418113470077515,-0.006751872133463621,-0.29757246375083923
-0.007340700831264257,-0.5969312191009521,-0.01303209736943245,-0.39014121890068054
-0.0188724584877491,-0.7003995776176453,-0.020542483776807785,-0.45562490820884705
-0.03180430829524994,-0.7757500410079956,-0.02891031838953495,-0.5009645223617554
-0.04576401039958,-0.8314295411109924,-0.037859607487916946,-0.5314179062843323
-0.06049606204032898,-0.8737727999687195,-0.04718712717294693,-0.5509289503097534
-0.07583261281251907,-0.9075384140014648,-0.05674424767494202,-0.5624571442604065
-0.09167012572288513,-0.9361804127693176,-0.06642226129770279,-0.5681424736976624
-0.10795149207115173,-0.9621903300285339,-0.07614115625619888,-0.569516658782959
-0.1246531754732132,-0.9873678684234619,-0.08584139496088028,-0.5676727890968323
-0.14177589118480682,-1.0130175352096558,-0.09547798335552216,-0.5633867383003235
-0.1593380570411682,-1.0400899648666382,-0.10501623153686523,-0.5572055578231812
-0.17737095057964325,-1.0692827701568604,-0.11442864686250687,-0.5495096445083618
-0.19591544568538666,-1.1011176109313965,-0.12369268387556076,-0.5405609011650085
-0.21501974761486053,-1.1359935998916626,-0.13278917968273163,-0.5305356979370117
-0.2347376048564911,-1.1742196083068848,-0.1417011320590973,-0.5195443034172058
-0.2551273703575134,-1.216055154800415,-0.1504129022359848,-0.5076569318771362
-0.27625131607055664,-1.2617204189300537,-0.1589096039533615,-0.4949096739292145
-0.29817497730255127,-1.3114064931869507,-0.16717663407325745,-0.48131003975868225
-0.3209668695926666,-1.365287184715271,-0.1751992553472519,-0.4668443202972412
-0.34469836950302124,-1.423525094985962,-0.18296225368976593,-0.45148101449012756
-0.3694433569908142,-1.4862769842147827,-0.19044971466064453,-0.43517380952835083
-0.3952785134315491,-1.5536965131759644,-0.19764477014541626,-0.41786348819732666
-0.422282874584198,-1.6259371042251587,-0.20452944934368134,-0.39947831630706787
-0.4505382180213928,-1.7031480073928833,-0.21108435094356537,-0.3799316883087158
-0.48012852668762207,-1.7854708433151245,-0.21728841960430145,-0.35911786556243896
-0.5111404061317444,-1.873049020767212,-0.2231186479330063,-0.33691850304603577
-0.5436627864837646,-1.9660277366638184,-0.22854988276958466,-0.31320175528526306
-0.5777872800827026,-2.064554452896118,-0.23355460166931152,-0.28782081604003906
-0.6136078238487244,-2.1687793731689453,-0.23810261487960815,-0.26061248779296875
-0.6512212157249451,-2.2788548469543457,-0.242160826921463,-0.2313961237668991
-0.6907269954681396,-2.394937515258789,-0.24569281935691833,-0.19997185468673706
-0.7322273254394531,-2.5171902179718018,-0.24865862727165222,-0.16611839830875397
-0.7758275866508484,-2.645792007446289,-0.25101438164711,-0.1295996904373169
-0.8216366171836853,-2.7809531688690186,-0.252712219953537,-0.09017273783683777
-0.869767427444458,-2.9228971004486084,-0.25369980931282043,-0.047568805515766144
-0.9203368425369263,-3.071869134902954,-0.25392013788223267,-0.0014931237092241645
-0.9734666347503662,-3.228140115737915,-0.25331076979637146,0.048379067331552505
-1.0292836427688599,-3.39201283454895,-0.2518033981323242,0.10240813344717026
-1.087920904159546,-3.5638427734375,-0.2493232637643814,0.16097937524318695
-1.1495181322097778,-3.7440507411956787,-0.24578885734081268,0.22450143098831177
-1.2142244577407837,-3.933143377304077,-0.241111621260643,0.29338985681533813
-1.2821983098983765,-4.1317362785339355,-0.23519626259803772,0.36803269386291504
-1.3536105155944824,-4.340522289276123,-0.22794069349765778,0.4488283395767212
-1.428645372390747,-4.560275554656982,-0.21923589706420898,0.5361777544021606
-1.507501244544983,-4.791842460632324,-0.2089659720659256,0.6304678916931152
-0.6590503454208374,0.0,0.0,0.0
-0.660720944404602,-0.13426236808300018,0.0002142245211871341,0.016647599637508392
-0.6647042036056519,-0.2749260663986206,0.0006486023194156587,0.028408745303750038
-0.6710835695266724,-0.4200422167778015,0.0012454973766580224,0.03726554661989212
-0.6799173951148987,-0.5682759284973145,0.001974622020497918,0.044706158339977264
-0.6912475228309631,-0.71881502866745,0.0028256240766495466,0.051801860332489014
-0.7051071524620056,-0.8712323904037476,0.0038024401292204857,0.0593196265399456
-0.7215245366096497,-1.0253024101257324,0.004920072387903929,0.06787420064210892
-0.7405267953872681,-1.1810187101364136,0.006201762706041336,0.07791005820035934
-0.7621431350708008,-1.3385529518127441,0.007676496170461178,0.08973321318626404
-0.7864065170288086,-1.4981482028961182,0.009377769194543362,0.1035987138748169
-0.8133542537689209,-1.660056471824646,0.01134346891194582,0.11976861953735352
-0.84302818775177,-1.8245621919631958,0.013615697622299194,0.1384902000427246
-0.8754750490188599,-1.9919580221176147,0.01624087244272232,0.1600230485200882
-0.910746157169342,-2.1624906063079834,0.01927066221833229,0.1846967488527298
-0.9488972425460815,-2.336439847946167,0.022762352600693703,0.21284587681293488
-0.9899898171424866,-2.5141422748565674,0.02677859738469124,0.24478548765182495
-1.0340917110443115,-2.6959853172302246,0.03138723596930504,0.28082236647605896
-1.0812780857086182,-2.8824031352996826,0.03666127845644951,0.3212634325027466
-1.1316324472427368,-3.0738749504089355,0.04267897084355354,0.36642205715179443
-1.1852468252182007,-3.2709286212921143,0.04952399432659149,0.41662150621414185
-1.2422235012054443,-3.474146604537964,0.057285647839307785,0.4721965789794922
-1.3026756048202515,-3.6841704845428467,0.06605900824069977,0.5334870219230652
-1.3667281866073608,-3.9017059803009033,0.07594497501850128,0.6008343696594238
-1.4345195293426514,-4.127516746520996,0.0870504230260849,0.6745812296867371
-1.506202220916748,-4.362421989440918,0.09948805719614029,0.7550601363182068
0.2976232171058655,0.0,0.0,0.0
0.29407602548599243,-0.2720644474029541,-0.0030298379715532064,-0.23440945148468018
0.2869294583797455,-0.4614247679710388,-0.009321717545390129,-0.41183194518089294
0.27739641070365906,-0.5833011269569397,-0.0180304404348135,-0.5420346260070801
0.26641249656677246,-0.6543439626693726,-0.028493372723460197,-0.636037290096283
0.2546696066856384,-0.6881341934204102,-0.04021066799759865,-0.7029275298118591
0.24265988171100616,-0.6958204507827759,-0.0528169721364975,-0.7502167820930481
0.23072166740894318,-0.6857581734657288,-0.06605105847120285,-0.7835647463798523
0.2190808653831482,-0.6639893054962158,-0.07972826808691025,-0.8070909380912781
0.20788279175758362,-0.634820818901062,-0.09371929615736008,-0.8237592577934265
0.1972157210111618,-0.6012864708900452,-0.1079343929886818,-0.8356863856315613
0.18712809681892395,-0.5654969811439514,-0.1223120167851448,-0.8443745970726013
0.1776408702135086,-0.5289019346237183,-0.1368105560541153,-0.8508864641189575
0.16875626146793365,-0.4924788773059845,-0.15140245854854584,-0.8559696674346924
0.16046427190303802,-0.45685824751853943,-0.16606992483139038,-0.8601397275924683
0.1527470201253891,-0.4224390685558319,-0.18080201745033264,-0.8637561798095703
0.14558178186416626,-0.3894632160663605,-0.19559246301651,-0.8670709133148193
0.1389428824186325,-0.35807737708091736,-0.21043843030929565,-0.8702691197395325
0.1328028440475464,-0.3283696472644806,-0.22533977031707764,-0.8734930753707886
0.1271335482597351,-0.3003576695919037,-0.24029801785945892,-0.8768343925476074
0.12190697342157364,-0.27401670813560486,-0.2553159296512604,-0.880352258682251
0.11709591001272202,-0.24929577112197876,-0.27039697766304016,-0.8840844631195068
0.11267412453889847,-0.22612762451171875,-0.28554508090019226,-0.8880536556243896
0.10861664265394211,-0.2044348120689392,-0.30076444149017334,-0.8922716975212097
0.10489984601736069,-0.1841309368610382,-0.31605932116508484,-0.8967409133911133
0.10150160640478134,-0.16512809693813324,-0.33143389225006104,-0.9014586210250854
0.09840124100446701,-0.14733946323394775,-0.3468923568725586,-0.9064195156097412
0.09557944536209106,-0.13068071007728577,-0.36243879795074463,-0.9116166234016418
0.0930183008313179,-0.11507118493318558,-0.37807703018188477,-0.9170424342155457
0.09070118516683578,-0.1004345491528511,-0.3938109576702118,-0.9226890802383423
0.08861269801855087,-0.08669843524694443,-0.40964409708976746,-0.9285489320755005
0.08673858642578125,-0.07379426062107086,-0.42558011412620544,-0.934614360332489
0.08506568521261215,-0.061657629907131195,-0.44162237644195557,-0.9408780932426453
0.08358187973499298,-0.05022768676280975,-0.4577741324901581,-0.9473330974578857
0.08227603137493134,-0.03944685682654381,-0.47403866052627563,-0.9539725184440613
0.08113790303468704,-0.02926054410636425,-0.4904189109802246,-0.960789680480957
0.08015818148851395,-0.019613830372691154,-0.5069178342819214,-0.967775821685791
0.07932855933904648,-0.010446256026625633,-0.5235382318496704,-0.9749175310134888
0.07864168286323547,-0.0017015114426612854,-0.5402823686599731,-0.9822025895118713
0.07809104770421982,0.006670234724879265,-0.5571527481079102,-0.9896214604377747
0.07767095416784286,0.01471366174519062,-0.5741514563560486,-0.9971679449081421
0.07737632095813751,0.02246697060763836,-0.5912807583808899,-1.0048378705978394
0.0772026926279068,0.029963906854391098,-0.6085426211357117,-1.0126301050186157
0.07714613527059555,0.037237249314785004,-0.6259391903877258,-1.0205427408218384
0.07720325142145157,0.04431867599487305,-0.6434723138809204,-1.0285744667053223
0.07737116515636444,0.05123886093497276,-0.6611440777778625,-1.0367239713668823
0.07764752954244614,0.058027446269989014,-0.6789566278457642,-1.044989824295044
0.07803040742874146,0.06471311300992966,-0.6969118714332581,-1.0533714294433594
0.07851840555667877,0.07132408022880554,-0.715011715888977,-1.0618677139282227
0.0791105404496193,0.07788806408643723,-0.7332581877708435,-1.070478081703186
0.07980632781982422,0.08443208038806915,-0.7516531348228455,-1.0792018175125122
0.08060570061206818,0.09098237752914429,-0.7701984643936157,-1.0880390405654907
0.08150903880596161,0.09756497293710709,-0.7888962030410767,-1.0969897508621216
0.08251705765724182,0.10419951379299164,-0.8077483773231506,-1.1060584783554077
0.08363077044487,0.11090227216482162,-0.8267568945884705,-1.1152516603469849
0.08485147356987,0.11769182980060577,-0.8459241986274719,-1.1245747804641724
0.08618079870939255,0.12458844482898712,-0.8652522563934326,-1.134032130241394
0.08762072771787643,0.13161367177963257,-0.8847435712814331,-1.1436277627944946
0.08917362987995148,0.13879002630710602,-0.9044005274772644,-1.1533653736114502
0.09084223210811615,0.14614072442054749,-0.9242255687713623,-1.1632485389709473
0.09262967854738235,0.15368963778018951,-0.9442213177680969,-1.1732807159423828
0.09453948587179184,0.16146109998226166,-0.9643903970718384,-1.1834660768508911
0.09657561779022217,0.16948026418685913,-0.9847352504730225,-1.1938081979751587
0.09874245524406433,0.1777724325656891,-1.0052586793899536,-1.204311728477478
0.10104479640722275,0.18636451661586761,-1.0259634256362915,-1.2149808406829834
0.10348792374134064,0.19528420269489288,-1.0468525886535645,-1.2258199453353882
0.10607758164405823,0.20456132292747498,-1.0679290294647217,-1.2368332147598267
0.10882008820772171,0.21422800421714783,-1.089195728302002,-1.2480236291885376
0.11172224581241608,0.2243163287639618,-1.1106557846069336,-1.2593960762023926
0.11479142308235168,0.23485910892486572,-1.1323120594024658,-1.2709559202194214
0.11803556978702545,0.24589011073112488,-1.1541681289672852,-1.2827085256576538
0.12146317958831787,0.2574441730976105,-1.1762272119522095,-1.2946605682373047
0.12508335709571838,0.26955777406692505,-1.1984928846359253,-1.3068190813064575
0.12890586256980896,0.2822685241699219,-1.2209686040878296,-1.3191916942596436
0.13294105231761932,0.29561561346054077,-1.243658185005188,-1.3317862749099731
0.1372000277042389,0.30964335799217224,-1.2665655612945557,-1.3446096181869507
0.14169470965862274,0.32440048456192017,-1.2896944284439087,-1.357667326927185
0.1464378535747528,0.33993619680404663,-1.313049077987671,-1.3709665536880493
0.1514429897069931,0.35630133748054504,-1.3366336822509766,-1.3845158815383911
0.15672463178634644,0.3735482394695282,-1.3604525327682495,-1.398324728012085
0.1622980833053589,0.39173173904418945,-1.3845100402832031,-1.4124040603637695
0.1681796759366989,0.4109094738960266,-1.4088112115859985,-1.4267644882202148
0.17438676953315735,0.4311429560184479,-1.4333606958389282,-1.4414176940917969
0.1809377670288086,0.452496737241745,-1.4581636190414429,-1.4563759565353394
0.18785223364830017,0.4750382602214813,-1.4832252264022827,-1.4716523885726929
0.19515091180801392,0.4988389015197754,-1.5085511207580566,-1.4872616529464722
0.20285578072071075,0.5239744186401367,-1.534147024154663,-1.5032185316085815
0.21099026501178741,0.5505311489105225,-1.5600190162658691,-1.5195343494415283
0.21957927942276,0.578599750995636,-1.586173176765442,-1.5362216234207153
0.22864940762519836,0.6082770824432373,-1.612615942955017,-1.553293228149414
0.23822902143001556,0.6396701335906982,-1.639353632926941,-1.5707594156265259
0.24834829568862915,0.6728904843330383,-1.6663932800292969,-1.5886327028274536
0.2590395212173462,0.7080574035644531,-1.6937415599822998,-1.606924295425415
0.2703370153903961,0.7452961206436157,-1.7214056253433228,-1.625647783279419
0.28227725625038147,0.7847371697425842,-1.749393105506897,-1.6448179483413696
0.2948993444442749,0.8265305757522583,-1.7777111530303955,-1.6644432544708252
0.3082450330257416,0.8708435297012329,-1.80636727809906,-1.6845266819000244
0.32235920429229736,0.917847752571106,-1.8353692293167114,-1.7050741910934448
0.33728960156440735,0.9677231311798096,-1.8647246360778809,-1.7260936498641968
0.35308727622032166,1.0206598043441772,-1.8944413661956787,-1.7475932836532593
0.3698067367076874,1.0768574476242065,-1.9245274066925049,-1.7695826292037964
0.38750597834587097,1.1365293264389038,-1.9549905061721802,-1.7920695543289185
0.40624693036079407,1.1999047994613647,-1.9858388900756836,-1.8150594234466553
0.4260956048965454,1.2672226428985596,-2.017080783843994,-1.8385599851608276
0.4471222758293152,1.3387304544448853,-2.0487241744995117,-1.8625811338424683
0.4694015681743622,1.4146783351898193,-2.080778121948242,-1.8871411085128784
0.49301135540008545,1.4952411651611328,-2.1132519245147705,-1.9123218059539795
0.5180322527885437,1.5805634260177612,-2.1461565494537354,-1.938239574432373
0.5445472002029419,1.6707804203033447,-2.1795060634613037,-1.965031623840332
0.5726417899131775,1.7660372257232666,-2.2133162021636963,-1.9928416013717651
0.6024039387702942,1.8664847612380981,-2.247605323791504,-2.021824359893799
0.6339249014854431,1.9723039865493774,-2.2823948860168457,-2.052128314971924
0.667299747467041,2.083751916885376,-2.3177073001861572,-2.0838570594787598
0.7026281356811523,2.201078176498413,-2.3535678386688232,-2.1171343326568604
0.7400138974189758,2.3245368003845215,-2.3900036811828613,-2.152095317840576
0.7795654535293579,2.454381227493286,-2.42704439163208,-2.1888935565948486
0.8213951587677002,2.59085750579834,-2.4647228717803955,-2.2277088165283203
0.8656197190284729,2.7342069149017334,-2.50307559967041,-2.2687461376190186
0.9123600125312805,2.8846724033355713,-2.5421414375305176,-2.312237024307251
0.9617407917976379,3.0425009727478027,-2.581965208053589,-2.3584396839141846
1.0138916969299316,3.207954168319702,-2.6225969791412354,-2.4076356887817383
1.0689469575881958,3.381305456161499,-2.664090156555176,-2.460139751434326
1.1270447969436646,3.5627996921539307,-2.7065069675445557,-2.5163674354553223
1.1883288621902466,3.75272536277771,-2.749915838241577,-2.5767738819122314
1.252948522567749,3.9514477252960205,-2.7943942546844482,-2.6418204307556152
1.321061134338379,4.159414291381836,-2.8400275707244873,-2.711965322494507
1.3928331136703491,4.377180099487305,-2.8869080543518066,-2.787595748901367
1.4684429168701172,4.605366230010986,-2.9351346492767334,-2.8690342903137207
1.548079490661621,4.844611167907715,-2.984811544418335,-2.956569194793701
0.01041501760482788,0.0,0.0,0.0
0.0070658461190760136,-0.25863873958587646,-0.0021907752379775047,-0.16921104490756989
0.00012239384523127228,-0.45378056168556213,-0.006729794200509787,-0.29660433530807495
-0.009475445374846458,-0.5966222286224365,-0.012989728711545467,-0.3888827860355377
-0.02100384794175625,-0.7003099918365479,-0.0204759668558836,-0.45416131615638733
-0.033937010914087296,-0.7759695053100586,-0.02881690301001072,-0.49935492873191833
-0.04790384694933891,-0.8320192098617554,-0.03773730620741844,-0.5297019481658936
-0.06264962255954742,-0.8747727274894714,-0.04703442007303238,-0.5491308569908142
-0.07800699770450592,-0.9089745283126831,-0.05655990540981293,-0.5605911612510681
-0.09387274831533432,-0.9380701780319214,-0.0662052184343338,-0.5662158727645874
-0.1101900041103363,-0.964545726776123,-0.0758904218673706,-0.5675323605537415
-0.12693537771701813,-0.9901981949806213,-0.08555594831705093,-0.565630316734314
-0.14410975575447083,-1.016330599784851,-0.09515678137540817,-0.5612836480140686
-0.16173161566257477,-1.0438928604125977,-0.10465820133686066,-0.5550377368927002
-0.1798323690891266,-1.0735825300216675,-0.11403259634971619,-0.5472716689109802
-0.19845309853553772,-1.1059224605560303,-0.12325733155012131,-0.5382469296455383
-0.21764206886291504,-1.141312837600708,-0.13231314718723297,-0.5281391143798828
-0.23745325207710266,-1.180064082145691,-0.14118288457393646,-0.5170584321022034
-0.2579452395439148,-1.2224392890930176,-0.14985084533691406,-0.5050762295722961
-0.27918046712875366,-1.2686597108840942,-0.15830205380916595,-0.4922275245189667
-0.3012247681617737,-1.3189172744750977,-0.16652175784111023,-0.47851917147636414
-0.3241470158100128,-1.3733866214752197,-0.17449507117271423,-0.4639365077018738
-0.34801873564720154,-1.4322311878204346,-0.1822066456079483,-0.4484472870826721
-0.37291431427001953,-1.4956088066101074,-0.18964043259620667,-0.4320044219493866
-0.39891064167022705,-1.5636740922927856,-0.19677937030792236,-0.4145476222038269
-0.4260871112346649,-1.636581301689148,-0.2036052644252777,-0.3960039019584656
-0.45452579855918884,-1.7144787311553955,-0.210098534822464,-0.37628433108329773
-0.48431113362312317,-1.797507882118225,-0.21623782813549042,-0.3552815616130829
-0.5155300498008728,-1.8858126401901245,-0.2219998687505722,-0.33287566900253296
-0.5482718348503113,-1.979539394378662,-0.22735916078090668,-0.3089327812194824
-0.5826283693313599,-2.078835964202881,-0.23228785395622253,-0.2833040654659271
-0.6186940670013428,-2.183852195739746,-0.2367553859949112,-0.2558242976665497
-0.6565661430358887,-2.294741630554199,-0.24072815477848053,-0.2263101041316986
-0.6963444352149963,-2.4116621017456055,-0.24416933953762054,-0.19455881416797638
-0.738131582736969,-2.5347752571105957,-0.24703842401504517,-0.16034570336341858
-0.7820334434509277,-2.6642680168151855,-0.2492910474538803,-0.12343606352806091
-0.8281594514846802,-2.80035138130188,-0.2508787214756012,-0.08358343690633774
-0.8766230344772339,-2.9432520866394043,-0.25174859166145325,-0.040515266358852386
-0.9275418519973755,-3.093217372894287,-0.2518428564071655,0.006066853646188974
-0.9810382723808289,-3.2505218982696533,-0.25109830498695374,0.056493598967790604
-1.037239909172058,-3.415473461151123,-0.24944573640823364,0.11112934350967407
-1.096280813217163,-3.58843731880188,-0.24680952727794647,0.17036251723766327
-1.1583019495010376,-3.769843816757202,-0.2431071698665619,0.23460501432418823
-1.223453402519226,-3.9602162837982178,-0.23824918270111084,0.3042678236961365
-1.2918953895568848,-4.160180568695068,-0.23213934898376465,0.37973859906196594
-1.3638007640838623,-4.370441436767578,-0.22467464208602905,0.46141722798347473
-1.4393551349639893,-4.591782569885254,-0.21574506163597107,0.5497041344642639
-1.5187594890594482,-4.825059413909912,-0.2052338421344757,0.6449820399284363
-0.7273409962654114,0.0,0.0,0.0
-0.7289324998855591,-0.12846404314041138,0.00043900549644604325,0.034145381301641464
-0.7327837347984314,-0.26720285415649414,0.0013484142255038023,0.05974883586168289
-0.7390366792678833,-0.41367965936660767,0.00261627696454525,0.07940077781677246
-0.7477973103523254,-0.5659338235855103,0.004168331623077393,0.09519921243190765
-0.7591449618339539,-0.7225242257118225,0.005960365757346153,0.10880663990974426
-0.7731417417526245,-0.8825981020927429,0.007970035076141357,0.12138964980840683
-0.7898386716842651,-1.045539379119873,0.010192408226430416,0.133928582072258
-0.8092791438102722,-1.211010456085205,0.01263631321489811,0.147179514169693
-0.8315043449401855,-1.378920078277588,0.015320820733904839,0.1616983860731125
-0.8565555810928345,-1.549319863319397,0.01827300153672695,0.17793086171150208
-0.8844760060310364,-1.7223448753356934,0.021526731550693512,0.19626595079898834
-0.9153117537498474,-1.8981826305389404,0.02512211725115776,0.2170664370059967
-0.949112594127655,-2.0770583152770996,0.02910526841878891,0.24068599939346313
-0.9859317541122437,-2.2591629028320312,0.033529240638017654,0.2675548791885376
-1.0258265733718872,-2.444735527038574,0.038454320281744,0.2981019616127014
-1.0688591003417969,-2.634103536605835,0.04394754394888878,0.33271750807762146
-1.1150987148284912,-2.8276655673980713,0.050082217901945114,0.37176814675331116
-1.1646219491958618,-3.0258893966674805,0.056937675923109055,0.41560792922973633
-1.2175147533416748,-3.229304552078247,0.0645991861820221,0.46458667516708374
-1.273872971534729,-3.438505172729492,0.0731579139828682,0.5190511345863342
-1.333803415298462,-3.654151201248169,0.08271089196205139,0.5793426036834717
-1.3974257707595825,-3.876964569091797,0.09336098283529282,0.6458019018173218
-1.4648728370666504,-4.107726097106934,0.10521690547466278,0.7187636494636536
-1.5362917184829712,-4.347261905670166,0.11839300394058228,0.7985438704490662
-0.4516508877277374,0.0,0.0,0.0
-0.453731894493103,-0.16473904252052307,-0.0005068715545348823,-0.039281170815229416
-0.4584468603134155,-0.3193165957927704,-0.0015836791135370731,-0.07086272537708282
-0.4656332731246948,-0.46460404992103577,-0.003101926762610674,-0.09495989978313446
-0.47514986991882324,-0.6019913554191589,-0.004941665567457676,-0.11216581612825394
-0.48688724637031555,-0.7335015535354614,-0.006999127101153135,-0.12354295700788498
-0.5007655620574951,-0.8608004450798035,-0.00918551068753004,-0.12990926206111908
-0.5167296528816223,-0.9852803945541382,-0.011423573829233646,-0.13189664483070374
-0.5347464680671692,-1.108203649520874,-0.013645806349813938,-0.13005430996418
-0.5548021197319031,-1.230669379234314,-0.01579267345368862,-0.12482216209173203
-0.576899528503418,-1.3536365032196045,-0.017810944467782974,-0.11654525995254517
-0.6010558009147644,-1.4778976440429688,-0.01965177431702614,-0.10544971376657486
-0.6272992491722107,-1.604075312614441,-0.021268563345074654,-0.09163394570350647
-0.6556679606437683,-1.732717752456665,-0.02261568233370781,-0.07513781636953354
-0.6862086057662964,-1.8643232583999634,-0.02364768646657467,-0.055958185344934464
-0.7189754843711853,-1.9993308782577515,-0.024318421259522438,-0.034037426114082336
-0.7540298104286194,-2.138132095336914,-0.02458016760647297,-0.009266937151551247
-0.7914392948150635,-2.2811014652252197,-0.02438305877149105,0.018490124493837357
-0.8312779664993286,-2.4286038875579834,-0.0236746147274971,0.04939877986907959
-0.873626172542572,-2.5809993743896484,-0.02239925041794777,0.08365249633789062
-0.9185703992843628,-2.738649606704712,-0.020497800782322884,0.12147310376167297
-0.9662035703659058,-2.9019269943237305,-0.017907043918967247,0.16311012208461761
-1.016625165939331,-3.0712215900421143,-0.014559226110577583,0.208840474486351
-1.0699422359466553,-3.246953248977661,-0.010381603613495827,0.2589673697948456
-1.1262694597244263,-3.4295804500579834,-0.005296003073453903,0.3138188123703003
-1.18572998046875,-3.619611978530884,0.0007815890712663531,0.37374553084373474
-1.2484569549560547,-3.817615270614624,0.007941403426229954,0.43911758065223694
-1.3145941495895386,-4.024232387542725,0.01628008298575878,0.5103115439414978
-1.384297490119934,-4.240179061889648,0.025900768116116524,0.5877046585083008
-1.4577369689941406,-4.466240882873535,0.036913130432367325,0.6716713309288025
-1.5350968837738037,-4.70326042175293,0.049433186650276184,0.762566089630127
-0.6802369952201843,0.0,0.0,0.0
-0.6818799376487732,-0.13222259283065796,0.000284598208963871,0.022122450172901154
-0.6858159899711609,-0.27213308215141296,0.0008674873388372362,0.038199715316295624
-0.6921480894088745,-0.41757944226264954,0.0016738626873120666,0.05041099712252617
-0.7009500861167908,-0.5670220851898193,0.0026595154777169228,0.06043395772576332
-0.7122764587402344,-0.7194390892982483,0.0038033700548112392,0.06952771544456482
-0.7261698246002197,-0.8742573857307434,0.0051010968163609505,0.0785900130867958
-0.7426655292510986,-1.0311205387115479,0.006561480462551117,0.08835282176733017
-0.7617962956428528,-1.1899149417877197,0.008203279227018356,0.0993579775094986
-0.7835949659347534,-1.3507251739501953,0.01005241833627224,0.11199060082435608
-0.8080971240997314,-1.5137345790863037,0.012140410020947456,0.12656384706497192
-0.8353421688079834,-1.679161787033081,0.014503837563097477,0.14337459206581116
-0.8653732538223267,-1.8472528457641602,0.01718420721590519,0.16271336376667023
-0.8982380628585815,-2.0182807445526123,0.020227858796715736,0.1848665475845337
-0.9339883327484131,-2.192471981048584,0.023686932399868965,0.2101971060037613
-0.9726805090904236,-2.3700926303863525,0.02761969342827797,0.23906883597373962
-1.014376163482666,-2.5514752864837646,0.0320901982486248,0.2718198597431183
-1.0591435432434082,-2.737010955810547,0.037168022245168686,0.3087754547595978
-1.107057809829712,-2.9271433353424072,0.04292817413806915,0.3502574563026428
-1.1582034826278687,-3.1223673820495605,0.049451135098934174,0.39659062027931213
-1.2126734256744385,-3.3232314586639404,0.05682296305894852,0.4481070041656494
-1.270571231842041,-3.5303406715393066,0.06513544917106628,0.5051456689834595
-1.332012414932251,-3.744365930557251,0.07448618113994598,0.5680451393127441
-1.3971238136291504,-3.966036796569824,0.08497859537601471,0.6371466517448425
-1.466046929359436,-4.196141242980957,0.09672199934720993,0.7127876877784729
-1.5389373302459717,-4.435515403747559,0.10983143001794815,0.7952882051467896
-0.07355743646621704,0.0,0.0,0.0
-0.07671462744474411,-0.24455541372299194,-0.0019000195898115635,-0.14676663279533386
-0.08333895355463028,-0.4350498914718628,-0.005843771621584892,-0.2578103244304657
-0.09262606501579285,-0.5807216167449951,-0.0112919257953763,-0.33859866857528687
-0.1039518341422081,-0.6925680637359619,-0.017814774066209793,-0.3958543837070465
-0.11685997247695923,-0.7800647020339966,-0.025085806846618652,-0.43540436029434204
-0.1310272365808487,-0.8504784107208252,-0.03286035731434822,-0.4617109000682831
-0.14623035490512848,-0.909223198890686,-0.04095504805445671,-0.4780835509300232
-0.1623220592737198,-0.9604548811912537,-0.049232907593250275,-0.4870516359806061
-0.17921215295791626,-1.0072575807571411,-0.057591475546360016,-0.49047255516052246
-0.19685231149196625,-1.0518925189971924,-0.06595329940319061,-0.4896857738494873
-0.21522516012191772,-1.0960299968719482,-0.0742589458823204,-0.48565468192100525
-0.23433642089366913,-1.140931248664856,-0.08246206492185593,-0.4790816009044647
-0.2542092800140381,-1.187544345855713,-0.09052563458681107,-0.47046470642089844
-0.2748801112174988,-1.236586093902588,-0.09841921925544739,-0.460149347782135
-0.2963952422142029,-1.2886106967926025,-0.10611679404973984,-0.448369562625885
-0.31880903244018555,-1.344056487083435,-0.11359532922506332,-0.43527737259864807
-0.34218212962150574,-1.4032797813415527,-0.12083357572555542,-0.4209632873535156
-0.3665804862976074,-1.466578722000122,-0.1278112679719925,-0.40547093749046326
-0.3920745849609375,-1.5342116355895996,-0.1345084011554718,-0.38880762457847595
-0.4187389314174652,-1.6064085960388184,-0.14090478420257568,-0.37095123529434204
-0.4466516375541687,-1.68337881565094,-0.14697951078414917,-0.3518551290035248
-0.475894033908844,-1.7653090953826904,-0.15271060168743134,-0.33144450187683105
-0.5065504908561707,-1.852372646331787,-0.15807446837425232,-0.30962178111076355
-0.5387082099914551,-1.9447373151779175,-0.16304577887058258,-0.28627145290374756
-0.5724573135375977,-2.0425665378570557,-0.1675969809293747,-0.26125988364219666
-0.6078907251358032,-2.1460230350494385,-0.17169807851314545,-0.23443470895290375
-0.6451039910316467,-2.2552683353424072,-0.17531627416610718,-0.20562422275543213
-0.6841956377029419,-2.3704640865325928,-0.1784156709909439,-0.1746358424425125
-0.7252671718597412,-2.4917900562286377,-0.18095701932907104,-0.1412660926580429
-0.7684235572814941,-2.6194422245025635,-0.18289753794670105,-0.10529834032058716
-0.8137732148170471,-2.753622531890869,-0.18419048190116882,-0.0664907768368721
-0.8614283204078674,-2.894545793533325,-0.18478471040725708,-0.024574480950832367
-0.9115049242973328,-3.0424389839172363,-0.18462418019771576,0.02075299061834812
-0.964123547077179,-3.197559118270874,-0.18364743888378143,0.06982029974460602
-1.0194100141525269,-3.360203266143799,-0.18178722262382507,0.12298140674829483
-1.0774954557418823,-3.53071928024292,-0.17896993458271027,0.18061500787734985
-1.1385184526443481,-3.709521770477295,-0.17511534690856934,0.24311776459217072
-1.20262610912323,-3.8971171379089355,-0.17013664543628693,0.31087830662727356
-1.269975185394287,-4.0940937995910645,-0.16394029557704926,0.3842891752719879
-1.3407343626022339,-4.30112361907959,-0.15642598271369934,0.4637511670589447
-1.4150846004486084,-4.51895809173584,-0.14748631417751312,0.5496690273284912
-1.4932217597961426,-4.748424053192139,-0.13700704276561737,0.6424352526664734
0.3004249930381775,0.0,0.0,0.0
0.2968800663948059,-0.27187737822532654,-0.0030366480350494385,-0.23494303226470947
0.2897395193576813,-0.460991233587265,-0.009343205951154232,-0.4128081500530243
0.2802172005176544,-0.5825704336166382,-0.018073149025440216,-0.5433779954910278
0.26924949884414673,-0.6532634496688843,-0.028562692925333977,-0.6376821398735046
0.25752922892570496,-0.6866471171379089,-0.04031098261475563,-0.7048158645629883
0.24554933607578278,-0.693881094455719,-0.052951879799366,-0.7523061633110046
0.23364883661270142,-0.6833328604698181,-0.0662236288189888,-0.7858272790908813
0.22205407917499542,-0.6610512733459473,-0.07994123548269272,-0.8095086216926575
0.21091073751449585,-0.6313486099243164,-0.09397517144680023,-0.8263213634490967
0.2003074437379837,-0.5972616076469421,-0.10823557525873184,-0.8383872509002686
0.19029290974140167,-0.5609033703804016,-0.12266086041927338,-0.8472128510475159
0.1808883100748062,-0.5237246155738831,-0.1372094601392746,-0.8538637161254883
0.1720961630344391,-0.48670199513435364,-0.15185382962226868,-0.8590889573097229
0.1639067381620407,-0.45046430826187134,-0.16657625138759613,-0.8634052276611328
0.15630242228507996,-0.4154103100299835,-0.18136587738990784,-0.8671733736991882
0.14926084876060486,-0.3817808926105499,-0.19621650874614716,-0.8706466555595398
0.1427566260099411,-0.3497241139411926,-0.21112552285194397,-0.8740130662918091
0.1367625594139099,-0.3193250000476837,-0.2260928750038147,-0.8774146437644958
0.13125087320804596,-0.2905980944633484,-0.2411203384399414,-0.8809428215026855
0.1261940598487854,-0.2635170519351959,-0.2562107443809509,-0.8846576809883118
0.12156528979539871,-0.23802927136421204,-0.2713678479194641,-0.8885980248451233
0.11733880639076233,-0.21406562626361847,-0.2865957021713257,-0.8927872776985168
0.11349013447761536,-0.1915442794561386,-0.301898717880249,-0.8972365856170654
0.10999628901481628,-0.1703752726316452,-0.3172813057899475,-0.901948094367981
0.10683573782444,-0.1504683792591095,-0.3327479064464569,-0.9069200754165649
0.10398847609758377,-0.13173392415046692,-0.3483029007911682,-0.9121478796005249
0.10143592953681946,-0.1140856072306633,-0.3639504909515381,-0.9176255464553833
0.09916093945503235,-0.09744057804346085,-0.37969499826431274,-0.9233468174934387
0.09714766591787338,-0.08171968162059784,-0.395540326833725,-0.9293051362037659
0.09538152813911438,-0.06684741377830505,-0.4114905595779419,-0.9354934692382812
0.09384918957948685,-0.05275244265794754,-0.42754945158958435,-0.9419055581092834
0.09253841638565063,-0.0393671840429306,-0.4437207281589508,-0.9485350847244263
0.09143809974193573,-0.026627011597156525,-0.46000802516937256,-0.9553759694099426
0.09053816646337509,-0.014470582827925682,-0.47641485929489136,-0.9624225497245789
0.08982950448989868,-0.002838749438524246,-0.4929446876049042,-0.969668984413147
0.08930414170026779,0.008337095379829407,-0.5096007585525513,-0.9771018028259277
0.08895522356033325,0.019123122096061707,-0.5263859629631042,-0.9847074747085571
0.08877691626548767,0.029578272253274918,-0.5433033108711243,-0.9924764633178711
0.08876428753137589,0.03975580260157585,-0.5603553652763367,-1.0004022121429443
0.088913194835186,0.04970107600092888,-0.5775446891784668,-1.0084819793701172
0.08922022581100464,0.05945557355880737,-0.5948741436004639,-1.016715168952942
0.08968262374401093,0.06905996054410934,-0.6123460531234741,-1.0251015424728394
0.09029830247163773,0.0785539299249649,-0.629963219165802,-1.033640742301941
0.09106585383415222,0.08797631412744522,-0.6477280855178833,-1.0423325300216675
0.09198445826768875,0.09736495465040207,-0.6656433343887329,-1.0511770248413086
0.09305396676063538,0.10675743222236633,-0.6837116479873657,-1.0601747035980225
0.09427481144666672,0.11619050800800323,-0.7019355893135071,-1.0693267583847046
0.09564805030822754,0.12570080161094666,-0.7203177809715271,-1.0786337852478027
0.09717536717653275,0.13532455265522003,-0.7388609051704407,-1.0880980491638184
0.098859041929245,0.1450985223054886,-0.7575676441192627,-1.0977202653884888
0.10070190578699112,0.1550547182559967,-0.7764407396316528,-1.1075059175491333
0.10270721465349197,0.16521835327148438,-0.7954831719398499,-1.1174646615982056
0.10487872362136841,0.17561757564544678,-0.8146979212760925,-1.1276051998138428
0.10722064226865768,0.18628306686878204,-0.834088146686554,-1.1379350423812866
0.10973774641752243,0.1972474455833435,-0.8536572456359863,-1.1484612226486206
0.11243533343076706,0.20854483544826508,-0.8734085559844971,-1.1591904163360596
0.11531934142112732,0.2202109396457672,-0.8933456540107727,-1.170129656791687
0.11839629709720612,0.232282817363739,-0.9134721755981445,-1.1812853813171387
0.1216733306646347,0.2447984665632248,-0.9337918758392334,-1.1926653385162354
0.12515829503536224,0.2577991187572479,-0.9543086886405945,-1.2042756080627441
0.1288597583770752,0.2713300883769989,-0.9750266671180725,-1.2161213159561157
0.1327870637178421,0.2854379117488861,-0.9959497451782227,-1.2282079458236694
0.13695035874843597,0.300169974565506,-1.0170819759368896,-1.2405427694320679
0.1413605660200119,0.3155753016471863,-1.0384279489517212,-1.2531328201293945
0.1460295021533966,0.3317039906978607,-1.0599919557571411,-1.2659869194030762
0.15096978843212128,0.3486083149909973,-1.0817785263061523,-1.2791138887405396
0.15619498491287231,0.36634182929992676,-1.103792667388916,-1.2925243377685547
0.16171956062316895,0.384960412979126,-1.1260390281677246,-1.3062291145324707
0.1675589680671692,0.4045219421386719,-1.1485228538513184,-1.3202407360076904
0.17372965812683105,0.42508751153945923,-1.1712493896484375,-1.3345720767974854
0.1802491545677185,0.44672253727912903,-1.19422447681427,-1.3492354154586792
0.18713624775409698,0.4695011079311371,-1.2174537181854248,-1.3642408847808838
0.19441092014312744,0.4934999644756317,-1.2409427165985107,-1.379599928855896
0.20209459960460663,0.5187981724739075,-1.2646979093551636,-1.395326018333435
0.21020998060703278,0.5454778075218201,-1.28872549533844,-1.4114335775375366
0.21878133714199066,0.5736303925514221,-1.3130322694778442,-1.427935004234314
0.2278345823287964,0.6033561825752258,-1.3376246690750122,-1.4448412656784058
0.23739741742610931,0.6347599625587463,-1.3625097274780273,-1.462164044380188
0.24749936163425446,0.667953372001648,-1.3876944780349731,-1.4799154996871948
0.258171945810318,0.7030525803565979,-1.4131863117218018,-1.4981098175048828
0.2694486975669861,0.7401789426803589,-1.4389926195144653,-1.516762137413025
0.28136536478996277,0.7794597148895264,-1.4651217460632324,-1.5358902215957642
0.2939600348472595,0.8210369348526001,-1.4915812015533447,-1.5555070638656616
0.3072732985019684,0.8650611042976379,-1.51837956905365,-1.5756263732910156
0.3213486969470978,0.9117055535316467,-1.5455251932144165,-1.5962530374526978
0.33623284101486206,0.9611585140228271,-1.5730262994766235,-1.617388367652893
0.351975679397583,1.0136173963546753,-1.600891351699829,-1.639034390449524
0.36863091588020325,1.069290280342102,-1.6291286945343018,-1.6611943244934082
0.3862557113170624,1.128394603729248,-1.6577465534210205,-1.6838717460632324
0.4049111604690552,1.1911567449569702,-1.686753511428833,-1.7070730924606323
0.42466238141059875,1.2578117847442627,-1.716158151626587,-1.7308073043823242
0.4455786943435669,1.3286049365997314,-1.7459691762924194,-1.7550849914550781
0.4677334129810333,1.403762698173523,-1.7761955261230469,-1.7799395322799683
0.4912028908729553,1.4834439754486084,-1.8068476915359497,-1.8054635524749756
0.5160660147666931,1.5677958726882935,-1.8379379510879517,-1.8317710161209106
0.542404294013977,1.6569559574127197,-1.8694806098937988,-1.858996033668518
0.5703021287918091,1.7511173486709595,-1.9014917612075806,-1.8872452974319458
0.5998481512069702,1.8505194187164307,-1.9339892864227295,-1.9166035652160645
0.6311347484588623,1.9554015398025513,-1.9669926166534424,-1.947168231010437
0.6642588376998901,2.066012144088745,-2.0005226135253906,-1.9790432453155518
0.6993215680122375,2.182596206665039,-2.034602165222168,-2.0123491287231445
0.7364280819892883,2.3053934574127197,-2.0692567825317383,-2.0472264289855957
0.7756879329681396,2.4346365928649902,-2.1045143604278564,-2.0838382244110107
0.8172138929367065,2.5705559253692627,-2.1404058933258057,-2.1223690509796143
0.8611233830451965,2.713379144668579,-2.1769657135009766,-2.163029670715332
0.9075374603271484,2.8633322715759277,-2.2142326831817627,-2.206057548522949
0.9565805196762085,3.0206222534179688,-2.2522501945495605,-2.251744508743286
1.0083810091018677,3.185459613800049,-2.2910666465759277,-2.3004207611083984
1.0630706548690796,3.3580617904663086,-2.330738067626953,-2.352468967437744
1.1207859516143799,3.538672924041748,-2.371325969696045,-2.4083163738250732
1.1816679239273071,3.727604627609253,-2.412900686264038,-2.4683990478515625
1.2458645105361938,3.925243377685547,-2.455540657043457,-2.53315806388855
1.3135318756103516,4.132080078125,-2.4993302822113037,-2.602980375289917
1.3848356008529663,4.3486714363098145,-2.5443613529205322,-2.6782350540161133
1.459952473640442,4.575623512268066,-2.5907320976257324,-2.759284734725952
1.539070963859558,4.813579082489014,-2.6385467052459717,-2.846440553665161
-0.18313342332839966,0.0,0.0,0.0
-0.18598736822605133,-0.22216001152992249,-0.0015016255201771855,-0.11605317145586014
-0.1920868158340454,-0.403596967458725,-0.0046303789131343365,-0.20475639402866364
-0.20082058012485504,-0.5508736968040466,-0.008968688547611237,-0.26993316411972046
-0.21170802414417267,-0.6720036864280701,-0.01417755801230669,-0.31643348932266235
-0.22439289093017578,-0.7740561366081238,-0.01999363675713539,-0.348552942276001
-0.23861919343471527,-0.8625332713127136,-0.026214275509119034,-0.369610458612442
-0.2542087435722351,-0.9417048096656799,-0.032683566212654114,-0.3821564018726349
-0.27104395627975464,-1.0148950815200806,-0.039281513541936874,-0.3881508409976959
-0.2890540361404419,-1.0846681594848633,-0.04591540992259979,-0.3890761733055115
-0.30820372700691223,-1.1529593467712402,-0.05251269415020943,-0.386014848947525
-0.3284846544265747,-1.221237301826477,-0.0590154230594635,-0.37974968552589417
-0.34990912675857544,-1.290631651878357,-0.06537618488073349,-0.3708435893058777
-0.37250539660453796,-1.3620221614837646,-0.07155506312847137,-0.35969430208206177
-0.3963142931461334,-1.4361039400100708,-0.0775173231959343,-0.3465747535228729
-0.4213866889476776,-1.5134379863739014,-0.08323170989751816,-0.3316631615161896
-0.4477817118167877,-1.5944843292236328,-0.088669054210186,-0.3150644898414612
-0.4755653440952301,-1.679631233215332,-0.09380132704973221,-0.2968263328075409
-0.5048094391822815,-1.7692086696624756,-0.09860065579414368,-0.27694764733314514
-0.5355908274650574,-1.86349356174469,-0.10303859412670135,-0.2553788721561432
-0.5679905414581299,-1.962733507156372,-0.10708550363779068,-0.23203743994235992
-0.6020937561988831,-2.0671567916870117,-0.11070998013019562,-0.2068123072385788
-0.6379892826080322,-2.1769769191741943,-0.11387846618890762,-0.17956605553627014
-0.6757697463035583,-2.2924139499664307,-0.11655496060848236,-0.15014708042144775
-0.7155314087867737,-2.413684844970703,-0.11870064586400986,-0.11838199943304062
-0.7573744058609009,-2.5410029888153076,-0.12027350068092346,-0.08407070487737656
-0.8014026880264282,-2.674578905105591,-0.12122774869203568,-0.04698074609041214
-0.8477237820625305,-2.8146283626556396,-0.12151339650154114,-0.006851755082607269
-0.8964492678642273,-2.9613847732543945,-0.12107572704553604,0.03660261258482933
-0.9476951360702515,-3.115107536315918,-0.11985491961240768,0.08369513601064682
-1.0015826225280762,-3.2760894298553467,-0.11778557300567627,0.1347646862268448
-1.0582385063171387,-3.4446725845336914,-0.11479631066322327,0.19017022848129272
-1.1177964210510254,-3.6212708950042725,-0.11080965399742126,0.25027209520339966
-1.1803983449935913,-3.8063621520996094,-0.10574179887771606,0.3154510259628296
-1.2461957931518555,-4.000494956970215,-0.09950222820043564,0.3861050009727478
-1.3153502941131592,-4.2043046951293945,-0.09199360013008118,0.4626326560974121
-1.3880366086959839,-4.418506622314453,-0.08311159908771515,0.5454376935958862
-1.4644423723220825,-4.643896579742432,-0.0727449581027031,0.6349189877510071
-1.5447707176208496,-4.881330966949463,-0.06077570468187332,0.7314490675926208
0.0667908787727356,0.0,0.0,0.0
0.06334085017442703,-0.2659696936607361,-0.0023763489443808794,-0.18356220424175262
0.05623888969421387,-0.46279406547546387,-0.007296563591808081,-0.3214966952800751
0.0465049222111702,-0.6029121279716492,-0.014078956097364426,-0.4213217496871948
0.03492178022861481,-0.7007068991661072,-0.022188760340213776,-0.4919928014278412
0.022057591006159782,-0.7682023048400879,-0.031225774437189102,-0.5410521626472473
0.008312670513987541,-0.8145458698272705,-0.04089541360735893,-0.5742542147636414
-0.006038975901901722,-0.8465898036956787,-0.05098272114992142,-0.595917284488678
-0.02081734500825405,-0.869418203830719,-0.0613321028649807,-0.6092485189437866
-0.03591069206595421,-0.886687695980072,-0.07183104008436203,-0.6165530681610107
-0.05125616490840912,-0.901012122631073,-0.08239782601594925,-0.6194745302200317
-0.06682587414979935,-0.9142609238624573,-0.09297268837690353,-0.6191830635070801
-0.08261694014072418,-0.927771270275116,-0.10351140052080154,-0.6165072917938232
-0.09864439815282822,-0.9425025582313538,-0.1139807403087616,-0.6120313405990601
-0.11493615806102753,-0.9591454863548279,-0.12435516715049744,-0.6061631441116333
-0.13152949512004852,-0.9782018065452576,-0.134614497423172,-0.5991833806037903
-0.14846840500831604,-1.0000401735305786,-0.14474211633205414,-0.5912817120552063
-0.16580206155776978,-1.0249381065368652,-0.15472382307052612,-0.5825810432434082
-0.18358352780342102,-1.0531131029129028,-0.16454686224460602,-0.5731582045555115
-0.20186904072761536,-1.0847457647323608,-0.17419946193695068,-0.5630576610565186
-0.22071756422519684,-1.1199878454208374,-0.18367022275924683,-0.55229651927948
-0.2401902973651886,-1.1589723825454712,-0.19294771552085876,-0.5408709645271301
-0.26035043597221375,-1.2018144130706787,-0.20202024281024933,-0.5287554264068604
-0.28126296401023865,-1.248623013496399,-0.21087546646595,-0.5159103870391846
-0.30299514532089233,-1.2995288372039795,-0.21950042247772217,-0.5023012161254883
-0.3256162405014038,-1.3546686172485352,-0.227881520986557,-0.48788657784461975
-0.3491978645324707,-1.4141759872436523,-0.2360043227672577,-0.4726129174232483
-0.37381404638290405,-1.4781886339187622,-0.24385333061218262,-0.4564179480075836
-0.39954090118408203,-1.5468474626541138,-0.25141194462776184,-0.43923047184944153
-0.42645713686943054,-1.6202971935272217,-0.25866222381591797,-0.4209698438644409
-0.4546438455581665,-1.6986807584762573,-0.2655847370624542,-0.40154197812080383
-0.4841843843460083,-1.7821367979049683,-0.2721581757068634,-0.3808356821537018
-0.5151645541191101,-1.87080717086792,-0.2783593237400055,-0.3587285876274109
-0.5476728081703186,-1.964837670326233,-0.284162700176239,-0.33508557081222534
-0.5817997455596924,-2.0643763542175293,-0.28954052925109863,-0.3097572922706604
-0.6176389455795288,-2.1695759296417236,-0.29446208477020264,-0.28257864713668823
-0.655286431312561,-2.280590534210205,-0.2988939583301544,-0.25336721539497375
-0.6948411464691162,-2.397580146789551,-0.30279916524887085,-0.2219216376543045
-0.7364047765731812,-2.520709753036499,-0.30613741278648376,-0.18801991641521454
-0.7800820469856262,-2.650153160095215,-0.30886420607566833,-0.15141618251800537
-0.8259810209274292,-2.786106824874878,-0.31093084812164307,-0.11185025423765182
-0.8742139339447021,-2.928805351257324,-0.3122841417789459,-0.06905584782361984
-0.9248972535133362,-3.078503131866455,-0.31286612153053284,-0.02274005487561226
-0.9781522750854492,-3.2354846000671387,-0.3126136362552643,0.027416398748755455
-1.0341061353683472,-3.400073289871216,-0.31145787239074707,0.08175918459892273
-1.0928916931152344,-3.5726335048675537,-0.30932357907295227,0.1406707912683487
-1.1546493768692017,-3.753591775894165,-0.3061287999153137,0.20456139743328094
-1.2195281982421875,-3.9434595108032227,-0.301784485578537,0.2738508880138397
-1.2876874208450317,-4.14284610748291,-0.296194463968277,0.3489533066749573
-1.3592982292175293,-4.352457523345947,-0.28925561904907227,0.4302637577056885
-1.4345453977584839,-4.5730814933776855,-0.2808581292629242,0.5181796550750732
-1.513628602027893,-4.805574417114258,-0.2708851993083954,0.6130838394165039
0.28384798765182495,0.0,0.0,0.0
0.2802909314632416,-0.2728923559188843,-0.0029959804378449917,-0.2317579686641693
0.2731170356273651,-0.4634072482585907,-0.009215016849339008,-0.4069913327693939
0.2635345458984375,-0.5867146849632263,-0.017818687483668327,-0.5353888273239136
0.2524743974208832,-0.6594653129577637,-0.028150120750069618,-0.62791508436203
0.24062366783618927,-0.6952567100524902,-0.03971454128623009,-0.6936209201812744
0.22847037017345428,-0.7051748037338257,-0.05215048789978027,-0.7399353384971619
0.21634982526302338,-0.6975131034851074,-0.0651993378996849,-0.7724452018737793
0.20448555052280426,-0.6782762408256531,-0.07867813110351562,-0.795221209526062
0.19302096962928772,-0.6517464518547058,-0.09245859086513519,-0.8111921548843384
0.18204280734062195,-0.6209403872489929,-0.10645151138305664,-0.8224479556083679
0.1715981662273407,-0.5879584550857544,-0.12059556692838669,-0.8304715156555176
0.16170673072338104,-0.5542443990707397,-0.13484904170036316,-0.836310625076294
0.15236955881118774,-0.5207719802856445,-0.14918409287929535,-0.840700626373291
0.14357532560825348,-0.4881855845451355,-0.16358259320259094,-0.8441566824913025
0.13530468940734863,-0.4568895697593689,-0.17803312838077545,-0.8470326066017151
0.1275334358215332,-0.427129328250885,-0.19252891838550568,-0.8495739698410034
0.12023445963859558,-0.39904624223709106,-0.20706643164157867,-0.8519532084465027
0.11337877064943314,-0.37273097038269043,-0.22164461016654968,-0.8543055057525635
0.10693655908107758,-0.3482189476490021,-0.23626413941383362,-0.8567245602607727
0.10087787359952927,-0.32550284266471863,-0.2509269416332245,-0.8592714667320251
0.09517329186201096,-0.3045417070388794,-0.26563560962677,-0.8619809746742249
0.08979426324367523,-0.28527629375457764,-0.28039315342903137,-0.864870548248291
0.08471333980560303,-0.2676391303539276,-0.29520270228385925,-0.8679482340812683
0.07990420609712601,-0.25155818462371826,-0.31006744503974915,-0.8712146878242493
0.07534180581569672,-0.23696090281009674,-0.32499057054519653,-0.8746660351753235
0.07100224494934082,-0.22377538681030273,-0.3399750888347626,-0.8782947659492493
0.06686278432607651,-0.21193230152130127,-0.35502392053604126,-0.8820914626121521
0.0629018247127533,-0.20136547088623047,-0.3701397180557251,-0.886044979095459
0.05909883975982666,-0.19201192259788513,-0.38532498478889465,-0.8901426792144775
0.055434294044971466,-0.1838129460811615,-0.40058210492134094,-0.8943716883659363
0.0518895722925663,-0.17671418190002441,-0.41591304540634155,-0.8987186551094055
0.04844692349433899,-0.17066599428653717,-0.4313196837902069,-0.9031701683998108
0.04508936405181885,-0.1656237244606018,-0.44680362939834595,-0.9077133536338806
0.0418006107211113,-0.16154730319976807,-0.4623662531375885,-0.9123356342315674
0.03856498748064041,-0.1584007292985916,-0.47800877690315247,-0.9170244932174683
0.035367414355278015,-0.15615016222000122,-0.4937320947647095,-0.921765923500061
0.032193321734666824,-0.15476535260677338,-0.5095369815826416,-0.926546037197113
0.02902860753238201,-0.1542205512523651,-0.5254238843917847,-0.9313515424728394
0.02585955150425434,-0.1544944941997528,-0.5413931012153625,-0.9361699223518372
0.0226727407425642,-0.15556983649730682,-0.5574446320533752,-0.9409886002540588
0.019455010071396828,-0.15743276476860046,-0.5735782384872437,-0.9457955360412598
0.01619340106844902,-0.16007328033447266,-0.5897937417030334,-0.9505786299705505
0.012875071726739407,-0.16348451375961304,-0.6060904264450073,-0.9553259611129761
0.00948727410286665,-0.16766290366649628,-0.6224677562713623,-0.9600253105163574
0.006017298437654972,-0.17260690033435822,-0.6389244794845581,-0.9646640419960022
0.002452446613460779,-0.17831693589687347,-0.6554594039916992,-0.969228982925415
-0.0012200308265164495,-0.1847977638244629,-0.6720712184906006,-0.9737071394920349
-0.005013017915189266,-0.19205930829048157,-0.6887581944465637,-0.9780864715576172
-0.008939622901380062,-0.20011675357818604,-0.7055185437202454,-0.9823572039604187
-0.013013225048780441,-0.20898762345314026,-0.7223502993583679,-0.9865087866783142
-0.017247525975108147,-0.21869252622127533,-0.7392512559890747,-0.9905298352241516
-0.02165660448372364,-0.22925548255443573,-0.7562189698219299,-0.994409441947937
-0.026254964992403984,-0.24070407450199127,-0.7732509970664978,-0.9981364607810974
-0.031057629734277725,-0.2530703544616699,-0.7903444170951843,-1.0017004013061523
-0.03608016297221184,-0.2663886249065399,-0.8074962496757507,-1.0050896406173706
-0.0413387194275856,-0.28069576621055603,-0.824703574180603,-1.0082921981811523
-0.046850092709064484,-0.2960314154624939,-0.8419628143310547,-1.0112944841384888
-0.05263175815343857,-0.3124382793903351,-0.8592703938484192,-1.0140825510025024
-0.05870191752910614,-0.32996195554733276,-0.8766225576400757,-1.016641616821289
-0.06507956236600876,-0.3486512303352356,-0.8940150737762451,-1.0189558267593384
-0.07178450375795364,-0.36855843663215637,-0.9114435911178589,-1.0210087299346924
-0.07883748412132263,-0.3897394835948944,-0.9289031624794006,-1.0227824449539185
-0.08626014739274979,-0.41225361824035645,-0.946388840675354,-1.0242587327957153
-0.09407518059015274,-0.4361638128757477,-0.963895320892334,-1.025417447090149
-0.10230633616447449,-0.4615371823310852,-0.9814168810844421,-1.0262380838394165
-0.11097850650548935,-0.48844435811042786,-0.9989474415779114,-1.0266987085342407
-0.12011777609586716,-0.5169596672058105,-1.0164802074432373,-1.0267747640609741
-0.12975145876407623,-0.5471617579460144,-1.034008264541626,-1.0264416933059692
-0.13990823924541473,-0.5791339874267578,-1.0515247583389282,-1.0256727933883667
-0.15061825513839722,-0.6129668951034546,-1.0690213441848755,-1.0244413614273071
-0.16191312670707703,-0.6487554907798767,-1.0864896774291992,-1.022719383239746
-0.17382609844207764,-0.6865993738174438,-1.1039211750030518,-1.020476222038269
-0.18639205396175385,-0.7266021966934204,-1.1213061809539795,-1.017679214477539
-0.19964765012264252,-0.7688723206520081,-1.1386345624923706,-1.0142927169799805
-0.21363134682178497,-0.8135225176811218,-1.1558959484100342,-1.0102787017822266
-0.22838348150253296,-0.8606691360473633,-1.1730786561965942,-1.005595326423645
-0.24394626915454865,-0.9104307889938354,-1.1901706457138062,-1.0001955032348633
-0.26036396622657776,-0.9629330039024353,-1.2071590423583984,-0.9940304160118103
-0.27768293023109436,-1.0183054208755493,-1.224029779434204,-0.9870467782020569
-0.2959516644477844,-1.07668137550354,-1.2407681941986084,-0.9791863560676575
-0.3152208626270294,-1.138196587562561,-1.2573580741882324,-0.9703854322433472
-0.3355433940887451,-1.2029889822006226,-1.2737823724746704,-0.9605729579925537
-0.3569745123386383,-1.271198034286499,-1.290022850036621,-0.9496710300445557
-0.3795718252658844,-1.3429726362228394,-1.30605947971344,-0.9375988245010376
-0.40339556336402893,-1.418474555015564,-1.321871280670166,-0.9242744445800781
-0.4285086393356323,-1.497872233390808,-1.3374356031417847,-0.9096112251281738
-0.4549771249294281,-1.5813528299331665,-1.352728247642517,-0.8935253620147705
-0.4828701317310333,-1.6690999269485474,-1.367723822593689,-0.8759192824363708
-0.5122597813606262,-1.7612935304641724,-1.3823949098587036,-0.8566803932189941
-0.5432211756706238,-1.8581103086471558,-1.396711826324463,-0.8356812000274658
-0.5758324265480042,-1.9597257375717163,-1.4106426239013672,-0.8127774000167847
-0.6101750731468201,-2.0663368701934814,-1.4241535663604736,-0.7878257036209106
-0.6463340520858765,-2.17815899848938,-1.437207818031311,-0.7606790661811829
-0.6843977570533752,-2.295384168624878,-1.4497658014297485,-0.7311527729034424
-0.7244582772254944,-2.4182167053222656,-1.4617847204208374,-0.6990483999252319
-0.7666112780570984,-2.54687237739563,-1.4732184410095215,-0.6641497611999512
-0.8109563589096069,-2.6815760135650635,-1.4840165376663208,-0.6262183785438538
-0.8575974106788635,-2.82257342338562,-1.4941248893737793,-0.5849968194961548
-0.9066437482833862,-2.9701881408691406,-1.5034854412078857,-0.5402593612670898
-0.9582102298736572,-3.1247456073760986,-1.5120357275009155,-0.49173852801322937
-1.0124179124832153,-3.2865989208221436,-1.519708275794983,-0.43913841247558594
-1.0693944692611694,-3.456127643585205,-1.5264304876327515,-0.38212332129478455
-1.1292742490768433,-3.633732795715332,-1.532123327255249,-0.32029101252555847
-1.1922000646591187,-3.8198885917663574,-1.5367004871368408,-0.25321751832962036
-1.2583240270614624,-4.015155792236328,-1.5400686264038086,-0.1804608404636383
-1.3278090953826904,-4.220188140869141,-1.5421262979507446,-0.10156096518039703
-1.4008309841156006,-4.435733795166016,-1.5427638292312622,-0.016032354906201363
-1.477580189704895,-4.662649631500244,-1.5418634414672852,0.07661236822605133
-1.5582634210586548,-4.901889801025391,-1.5392990112304688,0.17684487998485565
0.1838819980621338,0.0,0.0,0.0
0.18031372129917145,-0.274291455745697,-0.0027308540884405375,-0.21106918156147003
0.17305783927440643,-0.47040942311286926,-0.008387193083763123,-0.36978235840797424
0.16326236724853516,-0.602720320224762,-0.016190964728593826,-0.4850464463233948
0.15180686116218567,-0.6874409914016724,-0.025534741580486298,-0.5672175884246826
0.13933345675468445,-0.7377806901931763,-0.03596383333206177,-0.6248050928115845
0.12629437446594238,-0.7642278671264648,-0.04714654013514519,-0.6646042466163635
0.11299897730350494,-0.7744986414909363,-0.05884411558508873,-0.6916341781616211
0.09965205192565918,-0.7742176055908203,-0.0708860531449318,-0.7095687389373779
0.0863829255104065,-0.7674247622489929,-0.08315131813287735,-0.7210604548454285
0.07326734066009521,-0.7569760084152222,-0.09555429220199585,-0.7279976606369019
0.06034327670931816,-0.7448780536651611,-0.10803447663784027,-0.7317194938659668
0.047622255980968475,-0.732532262802124,-0.12054914236068726,-0.7331715822219849
0.035097457468509674,-0.7209073305130005,-0.1330680400133133,-0.7330174446105957
0.02274945005774498,-0.7106668949127197,-0.14556966722011566,-0.7317191958427429
0.01055019348859787,-0.7022621035575867,-0.15803857147693634,-0.7295974493026733
-0.0015341733815148473,-0.695997416973114,-0.17046348750591278,-0.7268721461296082
-0.013541406020522118,-0.6920751929283142,-0.18283596634864807,-0.7236917018890381
-0.025511831045150757,-0.6906283497810364,-0.1951494663953781,-0.7201530337333679
-0.0374874547123909,-0.6917442083358765,-0.20739857852458954,-0.7163172364234924
-0.0495113767683506,-0.6954796314239502,-0.21957863867282867,-0.7122188806533813
-0.06162744760513306,-0.7018736600875854,-0.2316853404045105,-0.7078742384910583
-0.07388002425432205,-0.7109546065330505,-0.24371439218521118,-0.703285276889801
-0.08631385117769241,-0.7227450013160706,-0.2556615471839905,-0.6984434127807617
-0.09897403419017792,-0.737267255783081,-0.2675221562385559,-0.6933327913284302
-0.11190605163574219,-0.7545450329780579,-0.2792913317680359,-0.6879310607910156
-0.12515582144260406,-0.7746066451072693,-0.29096367955207825,-0.6822118163108826
-0.13876973092556,-0.7974854111671448,-0.3025333285331726,-0.6761443018913269
-0.15279489755630493,-0.8232253193855286,-0.3139938712120056,-0.669697642326355
-0.1672791987657547,-0.8518790006637573,-0.32533836364746094,-0.6628386378288269
-0.18227146565914154,-0.8835040330886841,-0.3365591764450073,-0.6555298566818237
-0.1978214830160141,-0.9181656241416931,-0.34764808416366577,-0.6477312445640564
-0.21398025751113892,-0.9559372663497925,-0.3585960566997528,-0.6394001245498657
-0.23080004751682281,-0.9969004392623901,-0.3693934679031372,-0.6304909586906433
-0.2483346313238144,-1.0411502122879028,-0.3800296485424042,-0.6209589838981628
-0.26663950085639954,-1.0887926816940308,-0.39049336314201355,-0.6107578277587891
-0.2857719361782074,-1.1399402618408203,-0.40077248215675354,-0.5998372435569763
-0.30579113960266113,-1.1947120428085327,-0.41085392236709595,-0.5881421566009521
-0.32675835490226746,-1.253235101699829,-0.42072370648384094,-0.5756134986877441
-0.3487371504306793,-1.315643548965454,-0.4303666949272156,-0.5621874332427979
-0.3717932105064392,-1.382077932357788,-0.43976664543151855,-0.5477943420410156
-0.39599475264549255,-1.4526848793029785,-0.4489060044288635,-0.5323586463928223
-0.42141246795654297,-1.5276145935058594,-0.45776593685150146,-0.5157959461212158
-0.4481199383735657,-1.6070473194122314,-0.4663262963294983,-0.4980321228504181
-0.47619369626045227,-1.691162109375,-0.4745654761791229,-0.47898069024086
-0.5057133436203003,-1.780134677886963,-0.48246029019355774,-0.4585398733615875
-0.5367612242698669,-1.8741264343261719,-0.4899856448173523,-0.43658462166786194
-0.5694225430488586,-1.9732961654663086,-0.4971139430999756,-0.4129723608493805
-0.6037850975990295,-2.077805995941162,-0.5038151144981384,-0.38754692673683167
-0.6399394273757935,-2.187821865081787,-0.5100564360618591,-0.36013662815093994
-0.6779792904853821,-2.303513765335083,-0.5158019065856934,-0.3305525779724121
-0.7180013656616211,-2.4250574111938477,-0.5210121273994446,-0.29858681559562683
-0.760105311870575,-2.552635431289673,-0.5256443023681641,-0.26401087641716003
-0.8043944835662842,-2.6864428520202637,-0.5296511054039001,-0.22657456994056702
-0.850975751876831,-2.8266899585723877,-0.532981276512146,-0.18600477278232574
-0.8999598026275635,-2.9736080169677734,-0.5355780720710754,-0.14200282096862793
-0.9514620304107666,-3.127453565597534,-0.5373797416687012,-0.09424059092998505
-1.0056029558181763,-3.2885327339172363,-0.5383188128471375,-0.042374953627586365
-1.0625091791152954,-3.457221746444702,-0.5383220314979553,0.013933266513049603
-1.1223149299621582,-3.6339573860168457,-0.5373103022575378,0.07503852248191833
-1.185162901878357,-3.81923770904541,-0.5351982712745667,0.1413182020187378
-1.2512052059173584,-4.013630390167236,-0.5318937301635742,0.21317258477210999
-1.3206052780151367,-4.217785358428955,-0.5272974371910095,0.29101935029029846
-1.3935389518737793,-4.432432174682617,-0.5213028192520142,0.375302791595459
-1.470196008682251,-4.658393859863281,-0.5137954354286194,0.466462105512619
-1.5507822036743164,-4.896578311920166,-0.5046544671058655,0.5648581981658936
0.6456775069236755,0.0,0.0,0.0
0.6430027484893799,-0.20354151725769043,-0.003708339761942625,-0.288144052028656
0.637765109539032,-0.3332913815975189,-0.01153308805078268,-0.5153478980064392
0.6310675144195557,-0.40092313289642334,-0.02255501039326191,-0.6906566023826599
0.6237969994544983,-0.41951680183410645,-0.036028362810611725,-0.8246649503707886
0.6166369915008545,-0.40073758363723755,-0.05137469619512558,-0.9269877672195435
0.6100996136665344,-0.3542049825191498,-0.06815819442272186,-1.0056310892105103
0.6045607924461365,-0.28742924332618713,-0.08605717122554779,-1.066900372505188
0.6002923846244812,-0.20609472692012787,-0.1048380434513092,-1.1156235933303833
0.5974892377853394,-0.11438687145709991,-0.12433375418186188,-1.1554205417633057
0.5962899923324585,-0.015315210446715355,-0.14442670345306396,-1.188971757888794
0.5967937707901001,0.0890066996216774,-0.1650356948375702,-1.2182484865188599
0.5990713238716125,0.19706210494041443,-0.18610695004463196,-1.244753360748291
0.603173553943634,0.3077845573425293,-0.20760785043239594,-1.2696410417556763
0.6091380715370178,0.420521080493927,-0.2295212298631668,-1.2937482595443726
0.6169962286949158,0.5349615216255188,-0.2518408000469208,-1.3176496028900146
0.6267770528793335,0.6510530114173889,-0.2745674252510071,-1.341724157333374
0.6385129690170288,0.7690780758857727,-0.29770514369010925,-1.3660907745361328
0.6522437334060669,0.8894965052604675,-0.3212580978870392,-1.3907289505004883
0.6680164933204651,1.01276695728302,-0.3452301621437073,-1.41562020778656
0.6858870387077332,1.139395833015442,-0.36962422728538513,-1.4407068490982056
0.7059194445610046,1.269874930381775,-0.39444246888160706,-1.4659414291381836
0.7281816601753235,1.4043445587158203,-0.41968995332717896,-1.4915739297866821
0.7527433633804321,1.5428842306137085,-0.44537681341171265,-1.5179193019866943
0.7796759605407715,1.6856327056884766,-0.4715181291103363,-1.5452572107315063
0.8090531826019287,1.8327057361602783,-0.49813419580459595,-1.5739043951034546
0.8409515023231506,1.9842768907546997,-0.5252501368522644,-1.6041468381881714
0.8754503130912781,2.140526056289673,-0.5528962016105652,-1.6362859010696411
0.9126322269439697,2.301638126373291,-0.5811083316802979,-1.6706463098526
0.9525830745697021,2.4678122997283936,-0.6099278926849365,-1.7075718641281128
0.9953926801681519,2.6392743587493896,-0.6394023299217224,-1.7474209070205688
1.0411550998687744,2.816296339035034,-0.6695854663848877,-1.7905497550964355
1.0899697542190552,2.9991953372955322,-0.7005370855331421,-1.8373191356658936
1.1419422626495361,3.1883387565612793,-0.7323232293128967,-1.8880928754806519
1.1971852779388428,3.384153127670288,-0.7650163769721985,-1.9432299137115479
1.2558201551437378,3.5871427059173584,-0.7986944317817688,-2.0030529499053955
1.3179775476455688,3.7978551387786865,-0.8334412574768066,-2.0678937435150146
1.3837981224060059,4.01688289642334,-0.8693468570709229,-2.138090133666992
1.4534341096878052,4.244849681854248,-0.9065075516700745,-2.214010000228882
1.5270493030548096,4.482425212860107,-0.9450259208679199,-2.2959930896759033
0.28152960538864136,0.0,0.0,0.0
0.277971088886261,-0.2730165421962738,-0.0029902204405516386,-0.23130713403224945
0.27079302072525024,-0.4637165069580078,-0.009196888655424118,-0.40616998076438904
0.26120269298553467,-0.5872600078582764,-0.01778276078402996,-0.534263551235199
0.25013020634651184,-0.660296618938446,-0.028091954067349434,-0.6265426278114319
0.238261878490448,-0.6964247822761536,-0.03963056951761246,-0.6920508146286011
0.22608493268489838,-0.7067199349403381,-0.0520377978682518,-0.738203227519989
0.21393416821956635,-0.6994639039039612,-0.06505545973777771,-0.770574152469635
0.20203272998332977,-0.6806552410125732,-0.07850088179111481,-0.7932261228561401
0.19052372872829437,-0.6545714735984802,-0.09224595874547958,-0.8090816736221313
0.17949363589286804,-0.6242265105247498,-0.10620158910751343,-0.8202264308929443
0.16898928582668304,-0.5917187929153442,-0.12030644714832306,-0.8281400203704834
0.15903015434741974,-0.5584909915924072,-0.1345188170671463,-0.8338676691055298
0.14961713552474976,-0.5255163908004761,-0.14881081879138947,-0.8381425142288208
0.14073868095874786,-0.49343985319137573,-0.16316425800323486,-0.8414786458015442
0.13237524032592773,-0.4626694619655609,-0.17756760120391846,-0.8442307710647583
0.12450233101844788,-0.4334505796432495,-0.19201399385929108,-0.8466426730155945
0.117092564702034,-0.4059244692325592,-0.2064998298883438,-0.848885715007782
0.11011674255132675,-0.3801809549331665,-0.22102385759353638,-0.8510926365852356
