Huisouan/isaac-rl-lab/cartpole.csv
pole_joint_pos,pole_joint_vel,cart_joint_pos,cart_joint_vel,body_state_0,body_state_1,body_state_2,body_state_3,body_state_4,body_state_5,body_state_6,body_state_7,body_state_8,body_state_9,body_state_10,body_state_11,body_state_12
-0.6152264475822449,3.2458102703094482,0.035550571978092194,2.766392707824707,0.0,0.0,2.0,1.0,0.0,0.0,0.0,0.0,0.0,0.0,0.0,0.0,0.0
-0.5273007154464722,5.79755163192749,0.1096714437007904,4.876509666442871,0.0,0.0,2.0,1.0,0.0,0.0,0.0,0.0,0.0,0.0,0.0,0.0,0.0
-0.4071440100669861,7.452724456787109,0.20954881608486176,6.188811302185059,0.0,0.0,2.0,1.0,0.0,0.0,0.0,0.0,0.0,0.0,0.0,0.0,0.0
-0.2732670307159424,7.939123153686523,0.32029014825820923,6.593155860900879,0.0,0.0,2.0,1.0,0.0,0.0,0.0,0.0,0.0,0.0,0.0,0.0,0.0
-0.14425528049468994,7.370128631591797,0.4284963011741638,6.254664897918701,0.0,0.0,2.0,1.0,0.0,0.0,0.0,0.0,0.0,0.0,0.0,0.0,0.0
-0.03164304420351982,6.271399021148682,0.5263291001319885,5.557613849639893,0.0,0.0,2.0,1.0,0.0,0.0,0.0,0.0,0.0,0.0,0.0,0.0,0.0
0.06200909987092018,5.1585187911987305,0.6119517683982849,4.838337421417236,0.0,0.0,2.0,1.0,0.0,0.0,0.0,0.0,0.0,0.0,0.0,0.0,0.0
0.13887394964694977,4.2218122482299805,0.6865257620811462,4.21652364730835,0.0,0.0,2.0,1.0,0.0,0.0,0.0,0.0,0.0,0.0,0.0,0.0,0.0
0.20174366235733032,3.4451348781585693,0.7515907287597656,3.682116985321045,0.0,0.0,2.0,1.0,0.0,0.0,0.0,0.0,0.0,0.0,0.0,0.0,0.0
0.25272151827812195,2.779611825942993,0.8082621693611145,3.2054941654205322,0.0,0.0,2.0,1.0,0.0,0.0,0.0,0.0,0.0,0.0,0.0,0.0,0.0
0.2933179438114166,2.194648504257202,0.8573079705238342,2.7692508697509766,0.0,0.0,2.0,1.0,0.0,0.0,0.0,0.0,0.0,0.0,0.0,0.0,0.0
0.3246937394142151,1.672899842262268,0.899310827255249,2.364661931991577,0.0,0.0,2.0,1.0,0.0,0.0,0.0,0.0,0.0,0.0,0.0,0.0,0.0
0.3478158116340637,1.2049640417099,0.9347696900367737,1.988156795501709,0.0,0.0,2.0,1.0,0.0,0.0,0.0,0.0,0.0,0.0,0.0,0.0,0.0
0.36353328824043274,0.7848986983299255,0.9641488194465637,1.638284683227539,0.0,0.0,2.0,1.0,0.0,0.0,0.0,0.0,0.0,0.0,0.0,0.0,0.0
0.37265250086784363,0.4114540219306946,0.9879248142242432,1.3165483474731445,0.0,0.0,2.0,1.0,0.0,0.0,0.0,0.0,0.0,0.0,0.0,0.0,0.0
0.37597978115081787,0.08521594107151031,1.0066105127334595,1.0254040956497192,0.0,0.0,2.0,1.0,0.0,0.0,0.0,0.0,0.0,0.0,0.0,0.0,0.0
0.374338835477829,-0.1925203800201416,1.0207616090774536,0.7674240469932556,0.0,0.0,2.0,1.0,0.0,0.0,0.0,0.0,0.0,0.0,0.0,0.0,0.0
0.368573933839798,-0.42046797275543213,1.0309714078903198,0.54476398229599,0.0,0.0,2.0,1.0,0.0,0.0,0.0,0.0,0.0,0.0,0.0,0.0,0.0
0.3595418632030487,-0.5980085134506226,1.0378583669662476,0.3587077856063843,0.0,0.0,2.0,1.0,0.0,0.0,0.0,0.0,0.0,0.0,0.0,0.0,0.0
0.34808263182640076,-0.7266260981559753,1.0420392751693726,0.20871742069721222,0.0,0.0,2.0,1.0,0.0,0.0,0.0,0.0,0.0,0.0,0.0,0.0,0.0
0.3349571228027344,-0.8119893670082092,1.0440806150436401,0.09108678996562958,0.0,0.0,2.0,1.0,0.0,0.0,0.0,0.0,0.0,0.0,0.0,0.0,0.0
0.32080528140068054,-0.8616694211959839,1.0444669723510742,0.0006395732634700835,0.0,0.0,2.0,1.0,0.0,0.0,0.0,0.0,0.0,0.0,0.0,0.0,0.0
0.30613330006599426,-0.8836344480514526,1.0435904264450073,-0.06814476102590561,0.0,0.0,2.0,1.0,0.0,0.0,0.0,0.0,0.0,0.0,0.0,0.0,0.0
0.2913191318511963,-0.8852827548980713,1.0417536497116089,-0.12041488289833069,0.0,0.0,2.0,1.0,0.0,0.0,0.0,0.0,0.0,0.0,0.0,0.0,0.0
0.2766300439834595,-0.8728302717208862,1.0391819477081299,-0.16050775349140167,0.0,0.0,2.0,1.0,0.0,0.0,0.0,0.0,0.0,0.0,0.0,0.0,0.0
0.26224619150161743,-0.8510438203811646,1.036040186882019,-0.1917632520198822,0.0,0.0,2.0,1.0,0.0,0.0,0.0,0.0,0.0,0.0,0.0,0.0,0.0
0.24828319251537323,-0.8233941197395325,1.0324472188949585,-0.2166326344013214,0.0,0.0,2.0,1.0,0.0,0.0,0.0,0.0,0.0,0.0,0.0,0.0,0.0
0.23481103777885437,-0.7923014163970947,1.0284897089004517,-0.23685021698474884,0.0,0.0,2.0,1.0,0.0,0.0,0.0,0.0,0.0,0.0,0.0,0.0,0.0
0.22186866402626038,-0.7593996524810791,1.0242314338684082,-0.253615140914917,0.0,0.0,2.0,1.0,0.0,0.0,0.0,0.0,0.0,0.0,0.0,0.0,0.0
0.20947420597076416,-0.725769579410553,1.019720435142517,-0.2677517235279083,0.0,0.0,2.0,1.0,0.0,0.0,0.0,0.0,0.0,0.0,0.0,0.0,0.0
0.19763213396072388,-0.6921197175979614,1.014994502067566,-0.27983152866363525,0.0,0.0,2.0,1.0,0.0,0.0,0.0,0.0,0.0,0.0,0.0,0.0,0.0
0.1863381564617157,-0.6589012742042542,1.0100836753845215,-0.2902509570121765,0.0,0.0,2.0,1.0,0.0,0.0,0.0,0.0,0.0,0.0,0.0,0.0,0.0
0.17558225989341736,-0.6264121532440186,1.0050121545791626,-0.2993012070655823,0.0,0.0,2.0,1.0,0.0,0.0,0.0,0.0,0.0,0.0,0.0,0.0,0.0
0.16535049676895142,-0.5948500633239746,0.9998008012771606,-0.30720365047454834,0.0,0.0,2.0,1.0,0.0,0.0,0.0,0.0,0.0,0.0,0.0,0.0,0.0
0.15562653541564941,-0.5643391609191895,0.9944669604301453,-0.31412768363952637,0.0,0.0,2.0,1.0,0.0,0.0,0.0,0.0,0.0,0.0,0.0,0.0,0.0
0.14639243483543396,-0.5349571704864502,0.9890255331993103,-0.32020819187164307,0.0,0.0,2.0,1.0,0.0,0.0,0.0,0.0,0.0,0.0,0.0,0.0,0.0
0.13762938976287842,-0.5067433714866638,0.9834895730018616,-0.3255515992641449,0.0,0.0,2.0,1.0,0.0,0.0,0.0,0.0,0.0,0.0,0.0,0.0,0.0
0.12931817770004272,-0.4797145128250122,0.9778705835342407,-0.3302459120750427,0.0,0.0,2.0,1.0,0.0,0.0,0.0,0.0,0.0,0.0,0.0,0.0,0.0
0.12143948674201965,-0.4538685083389282,0.9721787571907043,-0.33436357975006104,0.0,0.0,2.0,1.0,0.0,0.0,0.0,0.0,0.0,0.0,0.0,0.0,0.0
0.11397410184144974,-0.4291919767856598,0.9664230346679688,-0.3379661738872528,0.0,0.0,2.0,1.0,0.0,0.0,0.0,0.0,0.0,0.0,0.0,0.0,0.0
0.10690318793058395,-0.40566152334213257,0.9606115818023682,-0.341105580329895,0.0,0.0,2.0,1.0,0.0,0.0,0.0,0.0,0.0,0.0,0.0,0.0,0.0
0.10020828992128372,-0.38324838876724243,0.9547518491744995,-0.3438270688056946,0.0,0.0,2.0,1.0,0.0,0.0,0.0,0.0,0.0,0.0,0.0,0.0,0.0
0.09387148916721344,-0.3619195818901062,0.9488504528999329,-0.34616991877555847,0.0,0.0,2.0,1.0,0.0,0.0,0.0,0.0,0.0,0.0,0.0,0.0,0.0
0.08787543326616287,-0.3416377007961273,0.9429133534431458,-0.3481678366661072,0.0,0.0,2.0,1.0,0.0,0.0,0.0,0.0,0.0,0.0,0.0,0.0,0.0
0.08220335096120834,-0.32236582040786743,0.9369460344314575,-0.3498518764972687,0.0,0.0,2.0,1.0,0.0,0.0,0.0,0.0,0.0,0.0,0.0,0.0,0.0
0.0768391564488411,-0.3040614724159241,0.9309535622596741,-0.3512468934059143,0.0,0.0,2.0,1.0,0.0,0.0,0.0,0.0,0.0,0.0,0.0,0.0,0.0
0.0717674270272255,-0.2866837978363037,0.9249407649040222,-0.35237598419189453,0.0,0.0,2.0,1.0,0.0,0.0,0.0,0.0,0.0,0.0,0.0,0.0,0.0
0.06697340309619904,-0.2701941132545471,0.9189116954803467,-0.35326147079467773,0.0,0.0,2.0,1.0,0.0,0.0,0.0,0.0,0.0,0.0,0.0,0.0,0.0
0.06244289129972458,-0.2545563578605652,0.9128702282905579,-0.35392457246780396,0.0,0.0,2.0,1.0,0.0,0.0,0.0,0.0,0.0,0.0,0.0,0.0,0.0
0.05816231667995453,-0.2397322952747345,0.9068199992179871,-0.35438311100006104,0.0,0.0,2.0,1.0,0.0,0.0,0.0,0.0,0.0,0.0,0.0,0.0,0.0
0.054118718951940536,-0.22568537294864655,0.9007644057273865,-0.3546537756919861,0.0,0.0,2.0,1.0,0.0,0.0,0.0,0.0,0.0,0.0,0.0,0.0,0.0
0.05029970407485962,-0.2123803347349167,0.8947064280509949,-0.35475194454193115,0.0,0.0,2.0,1.0,0.0,0.0,0.0,0.0,0.0,0.0,0.0,0.0,0.0
0.04669346287846565,-0.199783056974411,0.8886487483978271,-0.354691743850708,0.0,0.0,2.0,1.0,0.0,0.0,0.0,0.0,0.0,0.0,0.0,0.0,0.0
0.04328865930438042,-0.18786492943763733,0.8825938701629639,-0.3544889986515045,0.0,0.0,2.0,1.0,0.0,0.0,0.0,0.0,0.0,0.0,0.0,0.0,0.0
0.040074486285448074,-0.17659249901771545,0.8765440583229065,-0.3541545569896698,0.0,0.0,2.0,1.0,0.0,0.0,0.0,0.0,0.0,0.0,0.0,0.0,0.0
0.037040695548057556,-0.1659325212240219,0.8705015182495117,-0.35369759798049927,0.0,0.0,2.0,1.0,0.0,0.0,0.0,0.0,0.0,0.0,0.0,0.0,0.0
0.03417756408452988,-0.15585289895534515,0.8644682765007019,-0.353126585483551,0.0,0.0,2.0,1.0,0.0,0.0,0.0,0.0,0.0,0.0,0.0,0.0,0.0
0.03147587180137634,-0.1463233232498169,0.8584461212158203,-0.3524492681026459,0.0,0.0,2.0,1.0,0.0,0.0,0.0,0.0,0.0,0.0,0.0,0.0,0.0
0.028926892206072807,-0.13731436431407928,0.8524367213249207,-0.3516727685928345,0.0,0.0,2.0,1.0,0.0,0.0,0.0,0.0,0.0,0.0,0.0,0.0,0.0
0.026522355154156685,-0.12879905104637146,0.8464418053627014,-0.3508042097091675,0.0,0.0,2.0,1.0,0.0,0.0,0.0,0.0,0.0,0.0,0.0,0.0,0.0
0.02425443008542061,-0.12075049430131912,0.840462863445282,-0.3498495817184448,0.0,0.0,2.0,1.0,0.0,0.0,0.0,0.0,0.0,0.0,0.0,0.0,0.0
0.022115694358944893,-0.11314462870359421,0.8345011472702026,-0.34881529211997986,0.0,0.0,2.0,1.0,0.0,0.0,0.0,0.0,0.0,0.0,0.0,0.0,0.0
0.020099131390452385,-0.10595745593309402,0.8285580277442932,-0.34770667552948,0.0,0.0,2.0,1.0,0.0,0.0,0.0,0.0,0.0,0.0,0.0,0.0,0.0
0.018198087811470032,-0.09916658699512482,0.822634756565094,-0.34652891755104065,0.0,0.0,2.0,1.0,0.0,0.0,0.0,0.0,0.0,0.0,0.0,0.0,0.0
0.016406269744038582,-0.09275056421756744,0.8167324662208557,-0.34528690576553345,0.0,0.0,2.0,1.0,0.0,0.0,0.0,0.0,0.0,0.0,0.0,0.0,0.0
0.014717720448970795,-0.08668973296880722,0.8108521699905396,-0.34398549795150757,0.0,0.0,2.0,1.0,0.0,0.0,0.0,0.0,0.0,0.0,0.0,0.0,0.0
0.013126803562045097,-0.08096466213464737,0.8049947619438171,-0.34262874722480774,0.0,0.0,2.0,1.0,0.0,0.0,0.0,0.0,0.0,0.0,0.0,0.0,0.0
0.011628186330199242,-0.07555727660655975,0.7991610765457153,-0.34122079610824585,0.0,0.0,2.0,1.0,0.0,0.0,0.0,0.0,0.0,0.0,0.0,0.0,0.0
0.010216818191111088,-0.07045063376426697,0.7933520078659058,-0.3397655487060547,0.0,0.0,2.0,1.0,0.0,0.0,0.0,0.0,0.0,0.0,0.0,0.0,0.0
0.008887920528650284,-0.06562858819961548,0.7875683307647705,-0.3382665812969208,0.0,0.0,2.0,1.0,0.0,0.0,0.0,0.0,0.0,0.0,0.0,0.0,0.0
0.007636975962668657,-0.06107521057128906,0.7818108797073364,-0.3367270231246948,0.0,0.0,2.0,1.0,0.0,0.0,0.0,0.0,0.0,0.0,0.0,0.0,0.0
0.006459712516516447,-0.0567762590944767,0.7760802507400513,-0.33515018224716187,0.0,0.0,2.0,1.0,0.0,0.0,0.0,0.0,0.0,0.0,0.0,0.0,0.0
0.0053520845249295235,-0.0527181401848793,0.7703769207000732,-0.3335391581058502,0.0,0.0,2.0,1.0,0.0,0.0,0.0,0.0,0.0,0.0,0.0,0.0,0.0
0.004310269374400377,-0.04888736084103584,0.7647014856338501,-0.33189651370048523,0.0,0.0,2.0,1.0,0.0,0.0,0.0,0.0,0.0,0.0,0.0,0.0,0.0
0.0033306442201137543,-0.04527219384908676,0.7590545415878296,-0.33022522926330566,0.0,0.0,2.0,1.0,0.0,0.0,0.0,0.0,0.0,0.0,0.0,0.0,0.0
0.0024097904097288847,-0.04186015576124191,0.7534364461898804,-0.3285273313522339,0.0,0.0,2.0,1.0,0.0,0.0,0.0,0.0,0.0,0.0,0.0,0.0,0.0
0.0015444695018231869,-0.038640834391117096,0.7478476762771606,-0.3268055319786072,0.0,0.0,2.0,1.0,0.0,0.0,0.0,0.0,0.0,0.0,0.0,0.0,0.0
0.0007316226256079972,-0.03560325503349304,0.7422885894775391,-0.3250617980957031,0.0,0.0,2.0,1.0,0.0,0.0,0.0,0.0,0.0,0.0,0.0,0.0,0.0
-3.1649437005398795e-05,-0.03273811191320419,0.7367594838142395,-0.32329845428466797,0.0,0.0,2.0,1.0,0.0,0.0,0.0,0.0,0.0,0.0,0.0,0.0,0.0
-0.000748082238715142,-0.030035387724637985,0.7312607169151306,-0.32151713967323303,0.0,0.0,2.0,1.0,0.0,0.0,0.0,0.0,0.0,0.0,0.0,0.0,0.0
-0.0014202657621353865,-0.02748662233352661,0.725792646408081,-0.31971991062164307,0.0,0.0,2.0,1.0,0.0,0.0,0.0,0.0,0.0,0.0,0.0,0.0,0.0
-0.002050649607554078,-0.025083303451538086,0.7203554511070251,-0.3179083466529846,0.0,0.0,2.0,1.0,0.0,0.0,0.0,0.0,0.0,0.0,0.0,0.0,0.0
-0.0026415425818413496,-0.022817013785243034,0.7149491906166077,-0.31608372926712036,0.0,0.0,2.0,1.0,0.0,0.0,0.0,0.0,0.0,0.0,0.0,0.0,0.0
-0.0031951351556926966,-0.020680852234363556,0.709574282169342,-0.31424805521965027,0.0,0.0,2.0,1.0,0.0,0.0,0.0,0.0,0.0,0.0,0.0,0.0,0.0
-0.0037134948652237654,-0.01866733841598034,0.7042310237884521,-0.31240248680114746,0.0,0.0,2.0,1.0,0.0,0.0,0.0,0.0,0.0,0.0,0.0,0.0,0.0
-0.00419857632368803,-0.016769766807556152,0.6989193558692932,-0.3105483651161194,0.0,0.0,2.0,1.0,0.0,0.0,0.0,0.0,0.0,0.0,0.0,0.0,0.0
-0.004652225878089666,-0.014981758780777454,0.6936393976211548,-0.3086869418621063,0.0,0.0,2.0,1.0,0.0,0.0,0.0,0.0,0.0,0.0,0.0,0.0,0.0
-0.005076191388070583,-0.01329735666513443,0.6883912682533264,-0.30681943893432617,0.0,0.0,2.0,1.0,0.0,0.0,0.0,0.0,0.0,0.0,0.0,0.0,0.0
-0.005472127348184586,-0.011711157858371735,0.6831751465797424,-0.3049471974372864,0.0,0.0,2.0,1.0,0.0,0.0,0.0,0.0,0.0,0.0,0.0,0.0,0.0
-0.005841598846018314,-0.010217567905783653,0.6779910922050476,-0.3030710816383362,0.0,0.0,2.0,1.0,0.0,0.0,0.0,0.0,0.0,0.0,0.0,0.0,0.0
-0.006186082027852535,-0.008811446838080883,0.6728391647338867,-0.3011919856071472,0.0,0.0,2.0,1.0,0.0,0.0,0.0,0.0,0.0,0.0,0.0,0.0,0.0
-0.006506968289613724,-0.0074877021834254265,0.667719304561615,-0.29931071400642395,0.0,0.0,2.0,1.0,0.0,0.0,0.0,0.0,0.0,0.0,0.0,0.0,0.0
-0.006805578246712685,-0.006242107599973679,0.6626315712928772,-0.29742830991744995,0.0,0.0,2.0,1.0,0.0,0.0,0.0,0.0,0.0,0.0,0.0,0.0,0.0
-0.007083160802721977,-0.00507053779438138,0.6575759649276733,-0.2955458164215088,0.0,0.0,2.0,1.0,0.0,0.0,0.0,0.0,0.0,0.0,0.0,0.0,0.0
-0.0073409005999565125,-0.003968970850110054,0.6525525450706482,-0.293663889169693,0.0,0.0,2.0,1.0,0.0,0.0,0.0,0.0,0.0,0.0,0.0,0.0,0.0
-0.007579909637570381,-0.00293302396312356,0.647561252117157,-0.29178300499916077,0.0,0.0,2.0,1.0,0.0,0.0,0.0,0.0,0.0,0.0,0.0,0.0,0.0
-0.007801242638379335,-0.0019595464691519737,0.6426019668579102,-0.28990405797958374,0.0,0.0,2.0,1.0,0.0,0.0,0.0,0.0,0.0,0.0,0.0,0.0,0.0
-0.008005896583199501,-0.0010448908433318138,0.6376748085021973,-0.28802764415740967,0.0,0.0,2.0,1.0,0.0,0.0,0.0,0.0,0.0,0.0,0.0,0.0,0.0
-0.008194807916879654,-0.00018560653552412987,0.6327797770500183,-0.2861541211605072,0.0,0.0,2.0,1.0,0.0,0.0,0.0,0.0,0.0,0.0,0.0,0.0,0.0
-0.008368859998881817,0.0006219013594090939,0.6279165744781494,-0.28428372740745544,0.0,0.0,2.0,1.0,0.0,0.0,0.0,0.0,0.0,0.0,0.0,0.0,0.0
-0.008528889156877995,0.0013799765147268772,0.6230852007865906,-0.2824173867702484,0.0,0.0,2.0,1.0,0.0,0.0,0.0,0.0,0.0,0.0,0.0,0.0,0.0
-0.008675684221088886,0.0020914445631206036,0.6182857155799866,-0.28055551648139954,0.0,0.0,2.0,1.0,0.0,0.0,0.0,0.0,0.0,0.0,0.0,0.0,0.0
-0.008809993974864483,0.00275875860825181,0.6135179400444031,-0.27869874238967896,0.0,0.0,2.0,1.0,0.0,0.0,0.0,0.0,0.0,0.0,0.0,0.0,0.0
-0.00893253181129694,0.003384049516171217,0.6087817549705505,-0.27684757113456726,0.0,0.0,2.0,1.0,0.0,0.0,0.0,0.0,0.0,0.0,0.0,0.0,0.0
-0.00904396828263998,0.003969936165958643,0.604077160358429,-0.27500224113464355,0.0,0.0,2.0,1.0,0.0,0.0,0.0,0.0,0.0,0.0,0.0,0.0,0.0
-0.009144934825599194,0.004518840461969376,0.5994040369987488,-0.2731630504131317,0.0,0.0,2.0,1.0,0.0,0.0,0.0,0.0,0.0,0.0,0.0,0.0,0.0
-0.009236034005880356,0.005032130051404238,0.5947622060775757,-0.27133071422576904,0.0,0.0,2.0,1.0,0.0,0.0,0.0,0.0,0.0,0.0,0.0,0.0,0.0
-0.009317834861576557,0.0055121383629739285,0.5901516079902649,-0.2695053517818451,0.0,0.0,2.0,1.0,0.0,0.0,0.0,0.0,0.0,0.0,0.0,0.0,0.0
-0.009390882216393948,0.005960083566606045,0.5855721235275269,-0.26768770813941956,0.0,0.0,2.0,1.0,0.0,0.0,0.0,0.0,0.0,0.0,0.0,0.0,0.0
-0.009455707855522633,0.006376285571604967,0.5810235738754272,-0.26587894558906555,0.0,0.0,2.0,1.0,0.0,0.0,0.0,0.0,0.0,0.0,0.0,0.0,0.0
-0.00951282400637865,0.00676298514008522,0.5765057802200317,-0.26407894492149353,0.0,0.0,2.0,1.0,0.0,0.0,0.0,0.0,0.0,0.0,0.0,0.0,0.0
-0.009562701918184757,0.007121997885406017,0.572018563747406,-0.26228782534599304,0.0,0.0,2.0,1.0,0.0,0.0,0.0,0.0,0.0,0.0,0.0,0.0,0.0
-0.009605794213712215,0.007454703561961651,0.5675618648529053,-0.2605057656764984,0.0,0.0,2.0,1.0,0.0,0.0,0.0,0.0,0.0,0.0,0.0,0.0,0.0
-0.00964251160621643,0.00776353944092989,0.5631355047225952,-0.2587324380874634,0.0,0.0,2.0,1.0,0.0,0.0,0.0,0.0,0.0,0.0,0.0,0.0,0.0
-0.009673246182501316,0.00804938841611147,0.5587392449378967,-0.2569681406021118,0.0,0.0,2.0,1.0,0.0,0.0,0.0,0.0,0.0,0.0,0.0,0.0,0.0
-0.00969836674630642,0.00831397995352745,0.5543730854988098,-0.25521278381347656,0.0,0.0,2.0,1.0,0.0,0.0,0.0,0.0,0.0,0.0,0.0,0.0,0.0
-0.0097182122990489,0.008558887988328934,0.5500367283821106,-0.2534661889076233,0.0,0.0,2.0,1.0,0.0,0.0,0.0,0.0,0.0,0.0,0.0,0.0,0.0
-0.009733101353049278,0.008785389363765717,0.5457300543785095,-0.25172850489616394,0.0,0.0,2.0,1.0,0.0,0.0,0.0,0.0,0.0,0.0,0.0,0.0,0.0
-0.0097433403134346,0.008993944153189659,0.5414530038833618,-0.2500002384185791,0.0,0.0,2.0,1.0,0.0,0.0,0.0,0.0,0.0,0.0,0.0,0.0,0.0
-0.009749216958880424,0.009185964241623878,0.5372053384780884,-0.2482811063528061,0.0,0.0,2.0,1.0,0.0,0.0,0.0,0.0,0.0,0.0,0.0,0.0,0.0
-0.009750998578965664,0.00936257652938366,0.5329869389533997,-0.2465711534023285,0.0,0.0,2.0,1.0,0.0,0.0,0.0,0.0,0.0,0.0,0.0,0.0,0.0
-0.009748931974172592,0.009524865075945854,0.5287975072860718,-0.24487033486366272,0.0,0.0,2.0,1.0,0.0,0.0,0.0,0.0,0.0,0.0,0.0,0.0,0.0
-0.00974325928837061,0.009673139080405235,0.5246371030807495,-0.2431790679693222,0.0,0.0,2.0,1.0,0.0,0.0,0.0,0.0,0.0,0.0,0.0,0.0,0.0
-0.009734205901622772,0.009808719158172607,0.5205054879188538,-0.2414970099925995,0.0,0.0,2.0,1.0,0.0,0.0,0.0,0.0,0.0,0.0,0.0,0.0,0.0
-0.009721977636218071,0.009932287037372589,0.5164024829864502,-0.2398243099451065,0.0,0.0,2.0,1.0,0.0,0.0,0.0,0.0,0.0,0.0,0.0,0.0,0.0
-0.009706770069897175,0.010044818744063377,0.5123279094696045,-0.23816093802452087,0.0,0.0,2.0,1.0,0.0,0.0,0.0,0.0,0.0,0.0,0.0,0.0,0.0
-0.009688773192465305,0.010146168991923332,0.5082814693450928,-0.236507385969162,0.0,0.0,2.0,1.0,0.0,0.0,0.0,0.0,0.0,0.0,0.0,0.0,0.0
-0.009668166749179363,0.01023745909333229,0.5042632818222046,-0.23486341536045074,0.0,0.0,2.0,1.0,0.0,0.0,0.0,0.0,0.0,0.0,0.0,0.0,0.0
-0.00964511837810278,0.010319210588932037,0.5002730488777161,-0.23322905600070953,0.0,0.0,2.0,1.0,0.0,0.0,0.0,0.0,0.0,0.0,0.0,0.0,0.0
-0.009619783610105515,0.01039208099246025,0.49631059169769287,-0.23160429298877716,0.0,0.0,2.0,1.0,0.0,0.0,0.0,0.0,0.0,0.0,0.0,0.0,0.0
-0.009592310525476933,0.010456631891429424,0.49237576127052307,-0.22998914122581482,0.0,0.0,2.0,1.0,0.0,0.0,0.0,0.0,0.0,0.0,0.0,0.0,0.0
-0.009562838822603226,0.010513236746191978,0.4884684383869171,-0.22838370501995087,0.0,0.0,2.0,1.0,0.0,0.0,0.0,0.0,0.0,0.0,0.0,0.0,0.0
-0.00953149888664484,0.010562632232904434,0.4845883250236511,-0.22678785026073456,0.0,0.0,2.0,1.0,0.0,0.0,0.0,0.0,0.0,0.0,0.0,0.0,0.0
-0.009498417377471924,0.010604677721858025,0.4807353615760803,-0.22520197927951813,0.0,0.0,2.0,1.0,0.0,0.0,0.0,0.0,0.0,0.0,0.0,0.0,0.0
-0.009463715367019176,0.010639991611242294,0.476909339427948,-0.22362586855888367,0.0,0.0,2.0,1.0,0.0,0.0,0.0,0.0,0.0,0.0,0.0,0.0,0.0
-0.009427500888705254,0.0106694046407938,0.4731101393699646,-0.22205935418605804,0.0,0.0,2.0,1.0,0.0,0.0,0.0,0.0,0.0,0.0,0.0,0.0,0.0
-0.009389880113303661,0.010692941024899483,0.4693375825881958,-0.22050261497497559,0.0,0.0,2.0,1.0,0.0,0.0,0.0,0.0,0.0,0.0,0.0,0.0,0.0
-0.009350948967039585,0.010710980743169785,0.4655914902687073,-0.2189556360244751,0.0,0.0,2.0,1.0,0.0,0.0,0.0,0.0,0.0,0.0,0.0,0.0,0.0
-0.009310802444815636,0.010723884217441082,0.4618716537952423,-0.21741841733455658,0.0,0.0,2.0,1.0,0.0,0.0,0.0,0.0,0.0,0.0,0.0,0.0,0.0
-0.009269531816244125,0.010731760412454605,0.45817795395851135,-0.2158910185098648,0.0,0.0,2.0,1.0,0.0,0.0,0.0,0.0,0.0,0.0,0.0,0.0,0.0
-0.009227217175066471,0.01073531899601221,0.4545101821422577,-0.21437324583530426,0.0,0.0,2.0,1.0,0.0,0.0,0.0,0.0,0.0,0.0,0.0,0.0,0.0
-0.00918393861502409,0.010734427720308304,0.45086827874183655,-0.21286532282829285,0.0,0.0,2.0,1.0,0.0,0.0,0.0,0.0,0.0,0.0,0.0,0.0,0.0
-0.009139769710600376,0.010729596018791199,0.44725197553634644,-0.21136702597141266,0.0,0.0,2.0,1.0,0.0,0.0,0.0,0.0,0.0,0.0,0.0,0.0,0.0
-0.009094778448343277,0.010721038095653057,0.4436611235141754,-0.20987842977046967,0.0,0.0,2.0,1.0,0.0,0.0,0.0,0.0,0.0,0.0,0.0,0.0,0.0
-0.009049034677445889,0.010708844289183617,0.4400956332683563,-0.20839959383010864,0.0,0.0,2.0,1.0,0.0,0.0,0.0,0.0,0.0,0.0,0.0,0.0,0.0
-0.009002601727843285,0.010693229734897614,0.43655526638031006,-0.20693042874336243,0.0,0.0,2.0,1.0,0.0,0.0,0.0,0.0,0.0,0.0,0.0,0.0,0.0
-0.008955535478889942,0.01067478209733963,0.4330398738384247,-0.20547077059745789,0.0,0.0,2.0,1.0,0.0,0.0,0.0,0.0,0.0,0.0,0.0,0.0,0.0
-0.008907890878617764,0.010653207078576088,0.42954927682876587,-0.20402084290981293,0.0,0.0,2.0,1.0,0.0,0.0,0.0,0.0,0.0,0.0,0.0,0.0,0.0
-0.0088597247377038,0.010628920048475266,0.42608335614204407,-0.20258048176765442,0.0,0.0,2.0,1.0,0.0,0.0,0.0,0.0,0.0,0.0,0.0,0.0,0.0
-0.00881108082830906,0.01060224324464798,0.4226418733596802,-0.201149582862854,0.0,0.0,2.0,1.0,0.0,0.0,0.0,0.0,0.0,0.0,0.0,0.0,0.0
-0.008762010373175144,0.010572865605354309,0.41922470927238464,-0.19972839951515198,0.0,0.0,2.0,1.0,0.0,0.0,0.0,0.0,0.0,0.0,0.0,0.0,0.0
-0.008712557144463062,0.01054142415523529,0.41583171486854553,-0.19831658899784088,0.0,0.0,2.0,1.0,0.0,0.0,0.0,0.0,0.0,0.0,0.0,0.0,0.0
-0.008662760257720947,0.010507924482226372,0.41246268153190613,-0.1969141960144043,0.0,0.0,2.0,1.0,0.0,0.0,0.0,0.0,0.0,0.0,0.0,0.0,0.0
-0.008612655103206635,0.010472560301423073,0.4091174900531769,-0.19552120566368103,0.0,0.0,2.0,1.0,0.0,0.0,0.0,0.0,0.0,0.0,0.0,0.0,0.0
-0.008562286384403706,0.010435117408633232,0.4057959318161011,-0.1941377818584442,0.0,0.0,2.0,1.0,0.0,0.0,0.0,0.0,0.0,0.0,0.0,0.0,0.0
-0.008511688560247421,0.0103958984836936,0.40249788761138916,-0.1927637755870819,0.0,0.0,2.0,1.0,0.0,0.0,0.0,0.0,0.0,0.0,0.0,0.0,0.0
-0.008460893295705318,0.010355141013860703,0.3992232084274292,-0.19139905273914337,0.0,0.0,2.0,1.0,0.0,0.0,0.0,0.0,0.0,0.0,0.0,0.0,0.0
-0.008409935049712658,0.010312815196812153,0.39597171545028687,-0.190043643116951,0.0,0.0,2.0,1.0,0.0,0.0,0.0,0.0,0.0,0.0,0.0,0.0,0.0
-0.008358838967978954,0.010269290767610073,0.3927432596683502,-0.18869733810424805,0.0,0.0,2.0,1.0,0.0,0.0,0.0,0.0,0.0,0.0,0.0,0.0,0.0
-0.008307630196213722,0.010224651545286179,0.3895376920700073,-0.18736015260219574,0.0,0.0,2.0,1.0,0.0,0.0,0.0,0.0,0.0,0.0,0.0,0.0,0.0
-0.008256337605416775,0.010178640484809875,0.3863547742366791,-0.1860322207212448,0.0,0.0,2.0,1.0,0.0,0.0,0.0,0.0,0.0,0.0,0.0,0.0,0.0
-0.008204984478652477,0.01013156957924366,0.3831944763660431,-0.18471339344978333,0.0,0.0,2.0,1.0,0.0,0.0,0.0,0.0,0.0,0.0,0.0,0.0,0.0
-0.008153594098985195,0.010083479806780815,0.38005661964416504,-0.1834036111831665,0.0,0.0,2.0,1.0,0.0,0.0,0.0,0.0,0.0,0.0,0.0,0.0,0.0
-0.00810218695551157,0.010034486651420593,0.3769409656524658,-0.18210284411907196,0.0,0.0,2.0,1.0,0.0,0.0,0.0,0.0,0.0,0.0,0.0,0.0,0.0
-0.008050785399973392,0.009984556585550308,0.37384742498397827,-0.1808110624551773,0.0,0.0,2.0,1.0,0.0,0.0,0.0,0.0,0.0,0.0,0.0,0.0,0.0
-0.00799940712749958,0.009934012778103352,0.37077584862709045,-0.17952805757522583,0.0,0.0,2.0,1.0,0.0,0.0,0.0,0.0,0.0,0.0,0.0,0.0,0.0
-0.007948065176606178,0.009883011691272259,0.36772605776786804,-0.17825384438037872,0.0,0.0,2.0,1.0,0.0,0.0,0.0,0.0,0.0,0.0,0.0,0.0,0.0
-0.007896781899034977,0.009830823168158531,0.3646979331970215,-0.17698878049850464,0.0,0.0,2.0,1.0,0.0,0.0,0.0,0.0,0.0,0.0,0.0,0.0,0.0
-0.00784557405859232,0.009778103791177273,0.36169129610061646,-0.17573244869709015,0.0,0.0,2.0,1.0,0.0,0.0,0.0,0.0,0.0,0.0,0.0,0.0,0.0
-0.0077944565564394,0.009724892675876617,0.35870596766471863,-0.17448480427265167,0.0,0.0,2.0,1.0,0.0,0.0,0.0,0.0,0.0,0.0,0.0,0.0,0.0
-0.007743443362414837,0.009671205654740334,0.35574185848236084,-0.17324581742286682,0.0,0.0,2.0,1.0,0.0,0.0,0.0,0.0,0.0,0.0,0.0,0.0,0.0
-0.007692543789744377,0.009617237374186516,0.35279878973960876,-0.17201532423496246,0.0,0.0,2.0,1.0,0.0,0.0,0.0,0.0,0.0,0.0,0.0,0.0,0.0
-0.0076417699456214905,0.00956290028989315,0.34987661242485046,-0.17079342901706696,0.0,0.0,2.0,1.0,0.0,0.0,0.0,0.0,0.0,0.0,0.0,0.0,0.0
-0.007591133937239647,0.009508194401860237,0.3469752073287964,-0.16958008706569672,0.0,0.0,2.0,1.0,0.0,0.0,0.0,0.0,0.0,0.0,0.0,0.0,0.0
-0.007540648337453604,0.009452994912862778,0.3440944254398346,-0.16837534308433533,0.0,0.0,2.0,1.0,0.0,0.0,0.0,0.0,0.0,0.0,0.0,0.0,0.0
-0.007490325253456831,0.009397376328706741,0.3412340581417084,-0.16717910766601562,0.0,0.0,2.0,1.0,0.0,0.0,0.0,0.0,0.0,0.0,0.0,0.0,0.0
-0.007440198212862015,0.009339794516563416,0.33839404582977295,-0.1659923642873764,0.0,0.0,2.0,1.0,0.0,0.0,0.0,0.0,0.0,0.0,0.0,0.0,0.0
-0.007390303537249565,0.009280365891754627,0.335574209690094,-0.16481506824493408,0.0,0.0,2.0,1.0,0.0,0.0,0.0,0.0,0.0,0.0,0.0,0.0,0.0
-0.007340677548199892,0.009219163097441196,0.3327743113040924,-0.16364705562591553,0.0,0.0,2.0,1.0,0.0,0.0,0.0,0.0,0.0,0.0,0.0,0.0,0.0
-0.007291348185390234,0.009156778454780579,0.329994261264801,-0.1624879390001297,0.0,0.0,2.0,1.0,0.0,0.0,0.0,0.0,0.0,0.0,0.0,0.0,0.0
-0.007242335006594658,0.009093641303479671,0.3272339403629303,-0.16133734583854675,0.0,0.0,2.0,1.0,0.0,0.0,0.0,0.0,0.0,0.0,0.0,0.0,0.0
-0.007193645928055048,0.009030472487211227,0.3244931697845459,-0.16019479930400848,0.0,0.0,2.0,1.0,0.0,0.0,0.0,0.0,0.0,0.0,0.0,0.0,0.0
-0.007145278621464968,0.008968004025518894,0.3217717409133911,-0.15905971825122833,0.0,0.0,2.0,1.0,0.0,0.0,0.0,0.0,0.0,0.0,0.0,0.0,0.0
-0.007097220979630947,0.008906535804271698,0.31906965374946594,-0.15793193876743317,0.0,0.0,2.0,1.0,0.0,0.0,0.0,0.0,0.0,0.0,0.0,0.0,0.0
-0.007049464620649815,0.008845789358019829,0.31638672947883606,-0.15681156516075134,0.0,0.0,2.0,1.0,0.0,0.0,0.0,0.0,0.0,0.0,0.0,0.0,0.0
-0.00700200442224741,0.008785602636635303,0.3137228190898895,-0.15569862723350525,0.0,0.0,2.0,1.0,0.0,0.0,0.0,0.0,0.0,0.0,0.0,0.0,0.0
-0.006954834330826998,0.008726067841053009,0.3110778331756592,-0.15459299087524414,0.0,0.0,2.0,1.0,0.0,0.0,0.0,0.0,0.0,0.0,0.0,0.0,0.0
-0.0069079468958079815,0.0086672930046916,0.30845165252685547,-0.15349458158016205,0.0,0.0,2.0,1.0,0.0,0.0,0.0,0.0,0.0,0.0,0.0,0.0,0.0
-0.006861337460577488,0.008609098382294178,0.30584409832954407,-0.15240347385406494,0.0,0.0,2.0,1.0,0.0,0.0,0.0,0.0,0.0,0.0,0.0,0.0,0.0
-0.006815003231167793,0.00855124369263649,0.3032550811767578,-0.15131978690624237,0.0,0.0,2.0,1.0,0.0,0.0,0.0,0.0,0.0,0.0,0.0,0.0,0.0
-0.0067689442075788975,0.008493626490235329,0.30068454146385193,-0.15024344623088837,0.0,0.0,2.0,1.0,0.0,0.0,0.0,0.0,0.0,0.0,0.0,0.0,0.0
-0.006723152007907629,0.008436938747763634,0.2981322705745697,-0.14917409420013428,0.0,0.0,2.0,1.0,0.0,0.0,0.0,0.0,0.0,0.0,0.0,0.0,0.0
-0.0066776275634765625,0.008380357176065445,0.2955981194972992,-0.14811213314533234,0.0,0.0,2.0,1.0,0.0,0.0,0.0,0.0,0.0,0.0,0.0,0.0,0.0
-0.006632368545979261,0.008324184454977512,0.293082058429718,-0.14705733954906464,0.0,0.0,2.0,1.0,0.0,0.0,0.0,0.0,0.0,0.0,0.0,0.0,0.0
-0.0065873730927705765,0.008268378674983978,0.29058387875556946,-0.14600971341133118,0.0,0.0,2.0,1.0,0.0,0.0,0.0,0.0,0.0,0.0,0.0,0.0,0.0
-0.006542639806866646,0.008212946355342865,0.28810355067253113,-0.14496921002864838,0.0,0.0,2.0,1.0,0.0,0.0,0.0,0.0,0.0,0.0,0.0,0.0,0.0
-0.006498170085251331,0.008157780393958092,0.2856408953666687,-0.14393581449985504,0.0,0.0,2.0,1.0,0.0,0.0,0.0,0.0,0.0,0.0,0.0,0.0,0.0
-0.00645395927131176,0.008103100582957268,0.283195823431015,-0.14290940761566162,0.0,0.0,2.0,1.0,0.0,0.0,0.0,0.0,0.0,0.0,0.0,0.0,0.0
-0.006410007830709219,0.00804863590747118,0.28076818585395813,-0.1418900489807129,0.0,0.0,2.0,1.0,0.0,0.0,0.0,0.0,0.0,0.0,0.0,0.0,0.0
-0.006366312503814697,0.007994584739208221,0.2783578336238861,-0.1408776193857193,0.0,0.0,2.0,1.0,0.0,0.0,0.0,0.0,0.0,0.0,0.0,0.0,0.0
-0.006322877015918493,0.007940676994621754,0.2759646773338318,-0.1398722380399704,0.0,0.0,2.0,1.0,0.0,0.0,0.0,0.0,0.0,0.0,0.0,0.0,0.0
-0.0062796990387141705,0.007887111976742744,0.2735885977745056,-0.13887374103069305,0.0,0.0,2.0,1.0,0.0,0.0,0.0,0.0,0.0,0.0,0.0,0.0,0.0
-0.006236777640879154,0.007833898067474365,0.2712295353412628,-0.13788209855556488,0.0,0.0,2.0,1.0,0.0,0.0,0.0,0.0,0.0,0.0,0.0,0.0,0.0
-0.006194113753736019,0.007780910935252905,0.2688872814178467,-0.13689731061458588,0.0,0.0,2.0,1.0,0.0,0.0,0.0,0.0,0.0,0.0,0.0,0.0,0.0
-0.006151705980300903,0.007728119846433401,0.26656174659729004,-0.13591933250427246,0.0,0.0,2.0,1.0,0.0,0.0,0.0,0.0,0.0,0.0,0.0,0.0,0.0
-0.006109552923589945,0.007675885688513517,0.2642528712749481,-0.13494794070720673,0.0,0.0,2.0,1.0,0.0,0.0,0.0,0.0,0.0,0.0,0.0,0.0,0.0
-0.006067650858312845,0.007623930461704731,0.2619604766368866,-0.1339832842350006,0.0,0.0,2.0,1.0,0.0,0.0,0.0,0.0,0.0,0.0,0.0,0.0,0.0
-0.006026002112776041,0.007572176866233349,0.2596844434738159,-0.1330253630876541,0.0,0.0,2.0,1.0,0.0,0.0,0.0,0.0,0.0,0.0,0.0,0.0,0.0
-0.005984609480947256,0.007520504295825958,0.2574246823787689,-0.13207420706748962,0.0,0.0,2.0,1.0,0.0,0.0,0.0,0.0,0.0,0.0,0.0,0.0,0.0
-0.005943469703197479,0.007469280157238245,0.25518110394477844,-0.13112948834896088,0.0,0.0,2.0,1.0,0.0,0.0,0.0,0.0,0.0,0.0,0.0,0.0,0.0
-0.005902583710849285,0.0074182916432619095,0.25295355916023254,-0.13019132614135742,0.0,0.0,2.0,1.0,0.0,0.0,0.0,0.0,0.0,0.0,0.0,0.0,0.0
-0.005861947312951088,0.007367865182459354,0.25074198842048645,-0.12925951182842255,0.0,0.0,2.0,1.0,0.0,0.0,0.0,0.0,0.0,0.0,0.0,0.0,0.0
-0.005821560975164175,0.007317453157156706,0.24854625761508942,-0.12833428382873535,0.0,0.0,2.0,1.0,0.0,0.0,0.0,0.0,0.0,0.0,0.0,0.0,0.0
-0.005781420506536961,0.007267736829817295,0.2463662475347519,-0.1274152547121048,0.0,0.0,2.0,1.0,0.0,0.0,0.0,0.0,0.0,0.0,0.0,0.0,0.0
-0.005741525907069445,0.007218103855848312,0.24420185387134552,-0.12650272250175476,0.0,0.0,2.0,1.0,0.0,0.0,0.0,0.0,0.0,0.0,0.0,0.0,0.0
-0.005701878573745489,0.0071687158197164536,0.24205294251441956,-0.1255965530872345,0.0,0.0,2.0,1.0,0.0,0.0,0.0,0.0,0.0,0.0,0.0,0.0,0.0
-0.005662479437887669,0.007119443267583847,0.23991942405700684,-0.1246967539191246,0.0,0.0,2.0,1.0,0.0,0.0,0.0,0.0,0.0,0.0,0.0,0.0,0.0
-0.00562332384288311,0.007070780731737614,0.2378012090921402,-0.1238030269742012,0.0,0.0,2.0,1.0,0.0,0.0,0.0,0.0,0.0,0.0,0.0,0.0,0.0
-0.005584411788731813,0.007022282108664513,0.2356981784105301,-0.12291554361581802,0.0,0.0,2.0,1.0,0.0,0.0,0.0,0.0,0.0,0.0,0.0,0.0,0.0
-0.00554573955014348,0.0069743269123137,0.23361021280288696,-0.12203411757946014,0.0,0.0,2.0,1.0,0.0,0.0,0.0,0.0,0.0,0.0,0.0,0.0,0.0
-0.0055073099210858345,0.006926299072802067,0.23153722286224365,-0.12115901708602905,0.0,0.0,2.0,1.0,0.0,0.0,0.0,0.0,0.0,0.0,0.0,0.0,0.0
-0.005469121504575014,0.006878719665110111,0.2294790893793106,-0.12028992176055908,0.0,0.0,2.0,1.0,0.0,0.0,0.0,0.0,0.0,0.0,0.0,0.0,0.0
-0.005431171506643295,0.006831475533545017,0.22743573784828186,-0.11942688375711441,0.0,0.0,2.0,1.0,0.0,0.0,0.0,0.0,0.0,0.0,0.0,0.0,0.0
-0.0053934636525809765,0.006784234661608934,0.22540706396102905,-0.11857002973556519,0.0,0.0,2.0,1.0,0.0,0.0,0.0,0.0,0.0,0.0,0.0,0.0,0.0
-0.005355994217097759,0.00673753023147583,0.22339293360710144,-0.11771897971630096,0.0,0.0,2.0,1.0,0.0,0.0,0.0,0.0,0.0,0.0,0.0,0.0,0.0
-0.005318760871887207,0.006691094022244215,0.22139325737953186,-0.11687389016151428,0.0,0.0,2.0,1.0,0.0,0.0,0.0,0.0,0.0,0.0,0.0,0.0,0.0
-0.005281765945255756,0.006644765380769968,0.21940794587135315,-0.11603481322526932,0.0,0.0,2.0,1.0,0.0,0.0,0.0,0.0,0.0,0.0,0.0,0.0,0.0
-0.005245005711913109,0.0065989503636956215,0.21743689477443695,-0.11520146578550339,0.0,0.0,2.0,1.0,0.0,0.0,0.0,0.0,0.0,0.0,0.0,0.0,0.0
-0.005208480171859264,0.006553202867507935,0.21547996997833252,-0.11437403410673141,0.0,0.0,2.0,1.0,0.0,0.0,0.0,0.0,0.0,0.0,0.0,0.0,0.0
-0.005172187462449074,0.0065080272033810616,0.21353714168071747,-0.11355225741863251,0.0,0.0,2.0,1.0,0.0,0.0,0.0,0.0,0.0,0.0,0.0,0.0,0.0
-0.005136126186698675,0.006462878547608852,0.21160827577114105,-0.11273636668920517,0.0,0.0,2.0,1.0,0.0,0.0,0.0,0.0,0.0,0.0,0.0,0.0,0.0
-0.0051002963446080685,0.006418113596737385,0.20969326794147491,-0.1119261160492897,0.0,0.0,2.0,1.0,0.0,0.0,0.0,0.0,0.0,0.0,0.0,0.0,0.0
-0.005064697004854679,0.006373650394380093,0.2077920287847519,-0.11112156510353088,0.0,0.0,2.0,1.0,0.0,0.0,0.0,0.0,0.0,0.0,0.0,0.0,0.0
-0.005029326770454645,0.0063293613493442535,0.20590445399284363,-0.11032267659902573,0.0,0.0,2.0,1.0,0.0,0.0,0.0,0.0,0.0,0.0,0.0,0.0,0.0
-0.004994184244424105,0.006285421550273895,0.20403043925762177,-0.10952935367822647,0.0,0.0,2.0,1.0,0.0,0.0,0.0,0.0,0.0,0.0,0.0,0.0,0.0
-0.004959270358085632,0.006241727154701948,0.20216989517211914,-0.1087416261434555,0.0,0.0,2.0,1.0,0.0,0.0,0.0,0.0,0.0,0.0,0.0,0.0,0.0
-0.0049245827831327915,0.006198270246386528,0.2003227323293686,-0.10795943439006805,0.0,0.0,2.0,1.0,0.0,0.0,0.0,0.0,0.0,0.0,0.0,0.0,0.0
-0.004890119656920433,0.006155157461762428,0.19848887622356415,-0.10718268901109695,0.0,0.0,2.0,1.0,0.0,0.0,0.0,0.0,0.0,0.0,0.0,0.0,0.0
-0.004855880048125982,0.006112381815910339,0.19666817784309387,-0.10641135275363922,0.0,0.0,2.0,1.0,0.0,0.0,0.0,0.0,0.0,0.0,0.0,0.0,0.0
-0.0048218644224107265,0.0060696713626384735,0.19486062228679657,-0.1056455671787262,0.0,0.0,2.0,1.0,0.0,0.0,0.0,0.0,0.0,0.0,0.0,0.0,0.0
-0.004788069054484367,0.006027529947459698,0.1930660754442215,-0.10488498955965042,0.0,0.0,2.0,1.0,0.0,0.0,0.0,0.0,0.0,0.0,0.0,0.0,0.0
-0.004754492547363043,0.005985569674521685,0.1912844479084015,-0.10412982851266861,0.0,0.0,2.0,1.0,0.0,0.0,0.0,0.0,0.0,0.0,0.0,0.0,0.0
-0.004721136298030615,0.005943664349615574,0.18951565027236938,-0.10338010638952255,0.0,0.0,2.0,1.0,0.0,0.0,0.0,0.0,0.0,0.0,0.0,0.0,0.0
-0.004687999375164509,0.0059021590277552605,0.18775959312915802,-0.10263557732105255,0.0,0.0,2.0,1.0,0.0,0.0,0.0,0.0,0.0,0.0,0.0,0.0,0.0
-0.0046550799161195755,0.0058609419502317905,0.18601617217063904,-0.10189627856016159,0.0,0.0,2.0,1.0,0.0,0.0,0.0,0.0,0.0,0.0,0.0,0.0,0.0
-0.004622375592589378,0.005820015445351601,0.18428531289100647,-0.10116218030452728,0.0,0.0,2.0,1.0,0.0,0.0,0.0,0.0,0.0,0.0,0.0,0.0,0.0
-0.004589888267219067,0.00577918067574501,0.18256694078445435,-0.10043337941169739,0.0,0.0,2.0,1.0,0.0,0.0,0.0,0.0,0.0,0.0,0.0,0.0,0.0
-0.004557615611702204,0.005738680250942707,0.1808609515428543,-0.09970966726541519,0.0,0.0,2.0,1.0,0.0,0.0,0.0,0.0,0.0,0.0,0.0,0.0,0.0
-0.004525555297732353,0.005698601249605417,0.1791672259569168,-0.09899095445871353,0.0,0.0,2.0,1.0,0.0,0.0,0.0,0.0,0.0,0.0,0.0,0.0,0.0
-0.004493705928325653,0.005658673122525215,0.17748571932315826,-0.09827735275030136,0.0,0.0,2.0,1.0,0.0,0.0,0.0,0.0,0.0,0.0,0.0,0.0,0.0
-0.004462061449885368,0.005619512405246496,0.1758163422346115,-0.09756848961114883,0.0,0.0,2.0,1.0,0.0,0.0,0.0,0.0,0.0,0.0,0.0,0.0,0.0
-0.00443061999976635,0.005580362863838673,0.1741590052843094,-0.09686476737260818,0.0,0.0,2.0,1.0,0.0,0.0,0.0,0.0,0.0,0.0,0.0,0.0,0.0
-0.004399380646646023,0.005541713442653418,0.17251361906528473,-0.09616586565971375,0.0,0.0,2.0,1.0,0.0,0.0,0.0,0.0,0.0,0.0,0.0,0.0,0.0
-0.004368341527879238,0.005503125488758087,0.17088010907173157,-0.09547200798988342,0.0,0.0,2.0,1.0,0.0,0.0,0.0,0.0,0.0,0.0,0.0,0.0,0.0
-0.004337499849498272,0.005465068854391575,0.16925838589668274,-0.09478290379047394,0.0,0.0,2.0,1.0,0.0,0.0,0.0,0.0,0.0,0.0,0.0,0.0,0.0
-0.0043068560771644115,0.0054270923137664795,0.16764837503433228,-0.09409879148006439,0.0,0.0,2.0,1.0,0.0,0.0,0.0,0.0,0.0,0.0,0.0,0.0,0.0
-0.004276410676538944,0.00538927037268877,0.1660500019788742,-0.09341955929994583,0.0,0.0,2.0,1.0,0.0,0.0,0.0,0.0,0.0,0.0,0.0,0.0,0.0
-0.00424615852534771,0.005351944360882044,0.16446314752101898,-0.09274499118328094,0.0,0.0,2.0,1.0,0.0,0.0,0.0,0.0,0.0,0.0,0.0,0.0,0.0
-0.004216099623590708,0.00531480647623539,0.16288776695728302,-0.09207525849342346,0.0,0.0,2.0,1.0,0.0,0.0,0.0,0.0,0.0,0.0,0.0,0.0,0.0
-0.004186234902590513,0.005277775228023529,0.16132375597953796,-0.09141037613153458,0.0,0.0,2.0,1.0,0.0,0.0,0.0,0.0,0.0,0.0,0.0,0.0,0.0
-0.004156563431024551,0.005241016857326031,0.15977104008197784,-0.09075018018484116,0.0,0.0,2.0,1.0,0.0,0.0,0.0,0.0,0.0,0.0,0.0,0.0,0.0
-0.004127082880586386,0.0052045052871108055,0.1582295298576355,-0.0900946706533432,0.0,0.0,2.0,1.0,0.0,0.0,0.0,0.0,0.0,0.0,0.0,0.0,0.0
-0.004097794182598591,0.005168150644749403,0.15669916570186615,-0.0894438698887825,0.0,0.0,2.0,1.0,0.0,0.0,0.0,0.0,0.0,0.0,0.0,0.0,0.0
-0.0040686954744160175,0.0051321773789823055,0.15517984330654144,-0.08879763633012772,0.0,0.0,2.0,1.0,0.0,0.0,0.0,0.0,0.0,0.0,0.0,0.0,0.0
-0.00403978768736124,0.005096193868666887,0.1536715030670166,-0.08815613389015198,0.0,0.0,2.0,1.0,0.0,0.0,0.0,0.0,0.0,0.0,0.0,0.0,0.0
-0.004011068027466536,0.0050606196746230125,0.15217407047748566,-0.08751912415027618,0.0,0.0,2.0,1.0,0.0,0.0,0.0,0.0,0.0,0.0,0.0,0.0,0.0
-0.003982537426054478,0.005025138147175312,0.15068745613098145,-0.08688674122095108,0.0,0.0,2.0,1.0,0.0,0.0,0.0,0.0,0.0,0.0,0.0,0.0,0.0
-0.003954196814447641,0.004989823792129755,0.149211585521698,-0.08625885844230652,0.0,0.0,2.0,1.0,0.0,0.0,0.0,0.0,0.0,0.0,0.0,0.0,0.0
-0.003926041070371866,0.004955015145242214,0.14774638414382935,-0.08563531935214996,0.0,0.0,2.0,1.0,0.0,0.0,0.0,0.0,0.0,0.0,0.0,0.0,0.0
-0.0038980692625045776,0.004920292180031538,0.14629176259040833,-0.08501633256673813,0.0,0.0,2.0,1.0,0.0,0.0,0.0,0.0,0.0,0.0,0.0,0.0,0.0
-0.0038702834863215685,0.0048856837674975395,0.14484767615795135,-0.08440183848142624,0.0,0.0,2.0,1.0,0.0,0.0,0.0,0.0,0.0,0.0,0.0,0.0,0.0
-0.003842683043330908,0.004851292818784714,0.14341402053833008,-0.08379174023866653,0.0,0.0,2.0,1.0,0.0,0.0,0.0,0.0,0.0,0.0,0.0,0.0,0.0
-0.0038152658380568027,0.0048172082751989365,0.14199072122573853,-0.08318597078323364,0.0,0.0,2.0,1.0,0.0,0.0,0.0,0.0,0.0,0.0,0.0,0.0,0.0
-0.0037880330346524715,0.0047831907868385315,0.14057770371437073,-0.08258463442325592,0.0,0.0,2.0,1.0,0.0,0.0,0.0,0.0,0.0,0.0,0.0,0.0,0.0
-0.0037609839346259832,0.00474937167018652,0.1391749233007431,-0.08198761940002441,0.0,0.0,2.0,1.0,0.0,0.0,0.0,0.0,0.0,0.0,0.0,0.0,0.0
-0.0037341176066547632,0.004715820774435997,0.1377822607755661,-0.08139484375715256,0.0,0.0,2.0,1.0,0.0,0.0,0.0,0.0,0.0,0.0,0.0,0.0,0.0
-0.0037074314896017313,0.004682572558522224,0.13639967143535614,-0.08080629259347916,0.0,0.0,2.0,1.0,0.0,0.0,0.0,0.0,0.0,0.0,0.0,0.0,0.0
-0.0036809269804507494,0.004649337846785784,0.13502711057662964,-0.08022207766771317,0.0,0.0,2.0,1.0,0.0,0.0,0.0,0.0,0.0,0.0,0.0,0.0,0.0
-0.003654602449387312,0.004616459831595421,0.13366442918777466,-0.07964195311069489,0.0,0.0,2.0,1.0,0.0,0.0,0.0,0.0,0.0,0.0,0.0,0.0,0.0
-0.0036284576635807753,0.004583666566759348,0.13231161236763,-0.07906606048345566,0.0,0.0,2.0,1.0,0.0,0.0,0.0,0.0,0.0,0.0,0.0,0.0,0.0
-0.0036024898290634155,0.004551277030259371,0.1309685856103897,-0.07849420607089996,0.0,0.0,2.0,1.0,0.0,0.0,0.0,0.0,0.0,0.0,0.0,0.0,0.0
-0.0035766996443271637,0.004518921487033367,0.1296352744102478,-0.07792657613754272,0.0,0.0,2.0,1.0,0.0,0.0,0.0,0.0,0.0,0.0,0.0,0.0,0.0
-0.0035510866437107325,0.0044867959804832935,0.12831160426139832,-0.07736297696828842,0.0,0.0,2.0,1.0,0.0,0.0,0.0,0.0,0.0,0.0,0.0,0.0,0.0
-0.003525648033246398,0.004455037880688906,0.12699750065803528,-0.07680333405733109,0.0,0.0,2.0,1.0,0.0,0.0,0.0,0.0,0.0,0.0,0.0,0.0,0.0
-0.0035003831144422293,0.0044233789667487144,0.12569290399551392,-0.07624776661396027,0.0,0.0,2.0,1.0,0.0,0.0,0.0,0.0,0.0,0.0,0.0,0.0,0.0
-0.003475289326161146,0.004392155446112156,0.12439776211977005,-0.07569610327482224,0.0,0.0,2.0,1.0,0.0,0.0,0.0,0.0,0.0,0.0,0.0,0.0,0.0
-0.003450369695201516,0.0043607172556221485,0.12311197817325592,-0.07514864206314087,0.0,0.0,2.0,1.0,0.0,0.0,0.0,0.0,0.0,0.0,0.0,0.0,0.0
-0.0034256225917488337,0.0043296972289681435,0.12183548510074615,-0.07460498064756393,0.0,0.0,2.0,1.0,0.0,0.0,0.0,0.0,0.0,0.0,0.0,0.0,0.0
-0.0034010454546660185,0.004298873711377382,0.12056823819875717,-0.0740652084350586,0.0,0.0,2.0,1.0,0.0,0.0,0.0,0.0,0.0,0.0,0.0,0.0,0.0
-0.0033766364213079214,0.004268399439752102,0.119310162961483,-0.07352927327156067,0.0,0.0,2.0,1.0,0.0,0.0,0.0,0.0,0.0,0.0,0.0,0.0,0.0
-0.0033523961901664734,0.0042379265651106834,0.11806118488311768,-0.0729973092675209,0.0,0.0,2.0,1.0,0.0,0.0,0.0,0.0,0.0,0.0,0.0,0.0,0.0
-0.003328324295580387,0.004207668360322714,0.11682123690843582,-0.07246914505958557,0.0,0.0,2.0,1.0,0.0,0.0,0.0,0.0,0.0,0.0,0.0,0.0,0.0
-0.0033044195733964443,0.004177674651145935,0.11559027433395386,-0.07194474339485168,0.0,0.0,2.0,1.0,0.0,0.0,0.0,0.0,0.0,0.0,0.0,0.0,0.0
-0.003280679462477565,0.004147965461015701,0.11436820775270462,-0.07142408192157745,0.0,0.0,2.0,1.0,0.0,0.0,0.0,0.0,0.0,0.0,0.0,0.0,0.0
-0.003257103729993105,0.004118363838642836,0.11315499246120453,-0.07090724259614944,0.0,0.0,2.0,1.0,0.0,0.0,0.0,0.0,0.0,0.0,0.0,0.0,0.0
-0.0032336940057575703,0.004088803194463253,0.11195055395364761,-0.07039420306682587,0.0,0.0,2.0,1.0,0.0,0.0,0.0,0.0,0.0,0.0,0.0,0.0,0.0
-0.0032104472629725933,0.004059640225023031,0.1107548326253891,-0.06988473981618881,0.0,0.0,2.0,1.0,0.0,0.0,0.0,0.0,0.0,0.0,0.0,0.0,0.0
-0.0031873618718236685,0.004030668176710606,0.10956776142120361,-0.06937896460294724,0.0,0.0,2.0,1.0,0.0,0.0,0.0,0.0,0.0,0.0,0.0,0.0,0.0
-0.157143235206604,0.0,0.0,0.0,0.0,0.0,2.0,1.0,0.0,0.0,0.0,0.0,0.0,0.0,0.0,0.0,0.0
-0.1340475231409073,1.7845358848571777,0.015464303083717823,1.1953333616256714,0.0,0.0,2.0,1.0,0.0,0.0,0.0,0.0,0.0,0.0,0.0,0.0,0.0
-0.10337696224451065,1.7981829643249512,0.036261241883039474,1.2252916097640991,0.0,0.0,2.0,1.0,0.0,0.0,0.0,0.0,0.0,0.0,0.0,0.0,0.0
-0.07621412724256516,1.5214215517044067,0.05506056919693947,1.0611743927001953,0.0,0.0,2.0,1.0,0.0,0.0,0.0,0.0,0.0,0.0,0.0,0.0,0.0
-0.05336972698569298,1.2753695249557495,0.07126506417989731,0.9130688905715942,0.0,0.0,2.0,1.0,0.0,0.0,0.0,0.0,0.0,0.0,0.0,0.0,0.0
-0.03428490459918976,1.062954306602478,0.08517882227897644,0.7833693027496338,0.0,0.0,2.0,1.0,0.0,0.0,0.0,0.0,0.0,0.0,0.0,0.0,0.0
-0.018448423594236374,0.8794928193092346,0.0970829427242279,0.6695207357406616,0.0,0.0,2.0,1.0,0.0,0.0,0.0,0.0,0.0,0.0,0.0,0.0,0.0
-0.005420333240181208,0.7209249138832092,0.1072198748588562,0.569347083568573,0.0,0.0,2.0,1.0,0.0,0.0,0.0,0.0,0.0,0.0,0.0,0.0,0.0
0.005185235291719437,0.5843340158462524,0.11580405384302139,0.4813746213912964,0.0,0.0,2.0,1.0,0.0,0.0,0.0,0.0,0.0,0.0,0.0,0.0,0.0
0.0137117188423872,0.4673480689525604,0.12302873283624649,0.4044382870197296,0.0,0.0,2.0,1.0,0.0,0.0,0.0,0.0,0.0,0.0,0.0,0.0,0.0
0.020464424043893814,0.3677590787410736,0.12906812131404877,0.33743318915367126,0.0,0.0,2.0,1.0,0.0,0.0,0.0,0.0,0.0,0.0,0.0,0.0,0.0
0.02571249008178711,0.28346332907676697,0.134077787399292,0.2792774736881256,0.0,0.0,2.0,1.0,0.0,0.0,0.0,0.0,0.0,0.0,0.0,0.0,0.0
0.029692532494664192,0.2126069813966751,0.1381964534521103,0.22900988161563873,0.0,0.0,2.0,1.0,0.0,0.0,0.0,0.0,0.0,0.0,0.0,0.0,0.0
0.032611023634672165,0.15344326198101044,0.14154675602912903,0.1857011616230011,0.0,0.0,2.0,1.0,0.0,0.0,0.0,0.0,0.0,0.0,0.0,0.0,0.0
0.03464671969413757,0.10438120365142822,0.14423638582229614,0.1484898328781128,0.0,0.0,2.0,1.0,0.0,0.0,0.0,0.0,0.0,0.0,0.0,0.0,0.0
0.035953495651483536,0.06399751454591751,0.146359384059906,0.11659415811300278,0.0,0.0,2.0,1.0,0.0,0.0,0.0,0.0,0.0,0.0,0.0,0.0,0.0
0.03666301816701889,0.03102778270840645,0.1479974091053009,0.0893104150891304,0.0,0.0,2.0,1.0,0.0,0.0,0.0,0.0,0.0,0.0,0.0,0.0,0.0
0.03688736632466316,0.0043566664680838585,0.14922106266021729,0.06601022183895111,0.0,0.0,2.0,1.0,0.0,0.0,0.0,0.0,0.0,0.0,0.0,0.0,0.0
0.03672143444418907,-0.01699216663837433,0.15009117126464844,0.046137236058712006,0.0,0.0,2.0,1.0,0.0,0.0,0.0,0.0,0.0,0.0,0.0,0.0,0.0
0.03624512255191803,-0.033867668360471725,0.15065991878509521,0.029202407225966454,0.0,0.0,2.0,1.0,0.0,0.0,0.0,0.0,0.0,0.0,0.0,0.0,0.0
0.0355253666639328,-0.04700295254588127,0.15097197890281677,0.014779030345380306,0.0,0.0,2.0,1.0,0.0,0.0,0.0,0.0,0.0,0.0,0.0,0.0,0.0
0.03461796045303345,-0.057026781141757965,0.15106546878814697,0.0024973833933472633,0.0,0.0,2.0,1.0,0.0,0.0,0.0,0.0,0.0,0.0,0.0,0.0,0.0
0.03356919065117836,-0.06447548419237137,0.15097281336784363,-0.007961172610521317,0.0,0.0,2.0,1.0,0.0,0.0,0.0,0.0,0.0,0.0,0.0,0.0,0.0
0.03241722658276558,-0.06980443745851517,0.15072159469127655,-0.016870060935616493,0.0,0.0,2.0,1.0,0.0,0.0,0.0,0.0,0.0,0.0,0.0,0.0,0.0
0.031193409115076065,-0.0733974426984787,0.15033528208732605,-0.0244623851031065,0.0,0.0,2.0,1.0,0.0,0.0,0.0,0.0,0.0,0.0,0.0,0.0,0.0
0.02992333099246025,-0.07557784020900726,0.1498337686061859,-0.030936941504478455,0.0,0.0,2.0,1.0,0.0,0.0,0.0,0.0,0.0,0.0,0.0,0.0,0.0
0.028627725318074226,-0.07661636918783188,0.14923395216464996,-0.036462459713220596,0.0,0.0,2.0,1.0,0.0,0.0,0.0,0.0,0.0,0.0,0.0,0.0,0.0
0.027323303744196892,-0.07673865556716919,0.14855022728443146,-0.041181646287441254,0.0,0.0,2.0,1.0,0.0,0.0,0.0,0.0,0.0,0.0,0.0,0.0,0.0
0.026023413985967636,-0.07613285630941391,0.14779473841190338,-0.04521551728248596,0.0,0.0,2.0,1.0,0.0,0.0,0.0,0.0,0.0,0.0,0.0,0.0,0.0
0.02473859116435051,-0.07495531439781189,0.14697791635990143,-0.04866655170917511,0.0,0.0,2.0,1.0,0.0,0.0,0.0,0.0,0.0,0.0,0.0,0.0,0.0
0.023477064445614815,-0.0733347237110138,0.14610858261585236,-0.05162094160914421,0.0,0.0,2.0,1.0,0.0,0.0,0.0,0.0,0.0,0.0,0.0,0.0,0.0
0.02224515564739704,-0.07137759029865265,0.14519426226615906,-0.054151751101017,0.0,0.0,2.0,1.0,0.0,0.0,0.0,0.0,0.0,0.0,0.0,0.0,0.0
0.021047599613666534,-0.06917107850313187,0.14424137771129608,-0.05632053315639496,0.0,0.0,2.0,1.0,0.0,0.0,0.0,0.0,0.0,0.0,0.0,0.0,0.0
0.019887862727046013,-0.06678652763366699,0.14325551688671112,-0.058179255574941635,0.0,0.0,2.0,1.0,0.0,0.0,0.0,0.0,0.0,0.0,0.0,0.0,0.0
0.018768351525068283,-0.0642818734049797,0.14224132895469666,-0.059771787375211716,0.0,0.0,2.0,1.0,0.0,0.0,0.0,0.0,0.0,0.0,0.0,0.0,0.0
0.017690613865852356,-0.06170470267534256,0.1412028968334198,-0.061135563999414444,0.0,0.0,2.0,1.0,0.0,0.0,0.0,0.0,0.0,0.0,0.0,0.0,0.0
0.016655515879392624,-0.05909233167767525,0.1401437371969223,-0.06230168417096138,0.0,0.0,2.0,1.0,0.0,0.0,0.0,0.0,0.0,0.0,0.0,0.0,0.0
0.015663370490074158,-0.056475404649972916,0.13906684517860413,-0.06329694390296936,0.0,0.0,2.0,1.0,0.0,0.0,0.0,0.0,0.0,0.0,0.0,0.0,0.0
0.014714050106704235,-0.05387774854898453,0.13797487318515778,-0.06414379179477692,0.0,0.0,2.0,1.0,0.0,0.0,0.0,0.0,0.0,0.0,0.0,0.0,0.0
0.013807082548737526,-0.05131794512271881,0.1368701308965683,-0.06486134231090546,0.0,0.0,2.0,1.0,0.0,0.0,0.0,0.0,0.0,0.0,0.0,0.0,0.0
0.012941718101501465,-0.04881107434630394,0.1357545703649521,-0.06546621769666672,0.0,0.0,2.0,1.0,0.0,0.0,0.0,0.0,0.0,0.0,0.0,0.0,0.0
0.01211700402200222,-0.04636796936392784,0.13462994992733002,-0.0659722089767456,0.0,0.0,2.0,1.0,0.0,0.0,0.0,0.0,0.0,0.0,0.0,0.0,0.0
0.011331829242408276,-0.043996796011924744,0.13349780440330505,-0.0663912370800972,0.0,0.0,2.0,1.0,0.0,0.0,0.0,0.0,0.0,0.0,0.0,0.0,0.0
0.010584970936179161,-0.041703496128320694,0.13235950469970703,-0.06673355400562286,0.0,0.0,2.0,1.0,0.0,0.0,0.0,0.0,0.0,0.0,0.0,0.0,0.0
0.009875125251710415,-0.03949178382754326,0.13121624290943146,-0.06700784713029861,0.0,0.0,2.0,1.0,0.0,0.0,0.0,0.0,0.0,0.0,0.0,0.0,0.0
0.009200937114655972,-0.03736460208892822,0.1300690621137619,-0.0672219768166542,0.0,0.0,2.0,1.0,0.0,0.0,0.0,0.0,0.0,0.0,0.0,0.0,0.0
0.008561023510992527,-0.035322610288858414,0.12891890108585358,-0.06738219410181046,0.0,0.0,2.0,1.0,0.0,0.0,0.0,0.0,0.0,0.0,0.0,0.0,0.0
0.007953987456858158,-0.03336634486913681,0.12776662409305573,-0.06749439239501953,0.0,0.0,2.0,1.0,0.0,0.0,0.0,0.0,0.0,0.0,0.0,0.0,0.0
0.007378438487648964,-0.031495045870542526,0.12661300599575043,-0.06756341457366943,0.0,0.0,2.0,1.0,0.0,0.0,0.0,0.0,0.0,0.0,0.0,0.0,0.0
0.006833000108599663,-0.02970755472779274,0.1254587024450302,-0.06759359687566757,0.0,0.0,2.0,1.0,0.0,0.0,0.0,0.0,0.0,0.0,0.0,0.0,0.0
0.006316320039331913,-0.028002090752124786,0.12430433928966522,-0.0675886943936348,0.0,0.0,2.0,1.0,0.0,0.0,0.0,0.0,0.0,0.0,0.0,0.0,0.0
0.005827075801789761,-0.026376839727163315,0.12315046787261963,-0.06755214184522629,0.0,0.0,2.0,1.0,0.0,0.0,0.0,0.0,0.0,0.0,0.0,0.0,0.0
0.005363983102142811,-0.02482905425131321,0.12199757993221283,-0.06748665124177933,0.0,0.0,2.0,1.0,0.0,0.0,0.0,0.0,0.0,0.0,0.0,0.0,0.0
0.0049257948994636536,-0.023356549441814423,0.12084615975618362,-0.06739500910043716,0.0,0.0,2.0,1.0,0.0,0.0,0.0,0.0,0.0,0.0,0.0,0.0,0.0
0.004511305596679449,-0.021956585347652435,0.11969660967588425,-0.06727948039770126,0.0,0.0,2.0,1.0,0.0,0.0,0.0,0.0,0.0,0.0,0.0,0.0,0.0
0.004119357094168663,-0.020626338198781013,0.11854930967092514,-0.0671420767903328,0.0,0.0,2.0,1.0,0.0,0.0,0.0,0.0,0.0,0.0,0.0,0.0,0.0
0.0037488332018256187,-0.019363177940249443,0.11740461736917496,-0.06698476523160934,0.0,0.0,2.0,1.0,0.0,0.0,0.0,0.0,0.0,0.0,0.0,0.0,0.0
0.003398663131520152,-0.01816428080201149,0.11626283824443817,-0.06680921465158463,0.0,0.0,2.0,1.0,0.0,0.0,0.0,0.0,0.0,0.0,0.0,0.0,0.0
0.003067817073315382,-0.017027229070663452,0.11512428522109985,-0.06661710143089294,0.0,0.0,2.0,1.0,0.0,0.0,0.0,0.0,0.0,0.0,0.0,0.0,0.0
0.002755312481895089,-0.015948940068483353,0.1139892116189003,-0.06640954315662384,0.0,0.0,2.0,1.0,0.0,0.0,0.0,0.0,0.0,0.0,0.0,0.0,0.0
0.0024602150078862906,-0.014926598407328129,0.1128578707575798,-0.06618768721818924,0.0,0.0,2.0,1.0,0.0,0.0,0.0,0.0,0.0,0.0,0.0,0.0,0.0
0.002181632211431861,-0.013957676477730274,0.11173046380281448,-0.06595276296138763,0.0,0.0,2.0,1.0,0.0,0.0,0.0,0.0,0.0,0.0,0.0,0.0,0.0
0.0019187073921784759,-0.013040118850767612,0.11060722917318344,-0.0657060444355011,0.0,0.0,2.0,1.0,0.0,0.0,0.0,0.0,0.0,0.0,0.0,0.0,0.0
0.0016706292517483234,-0.012170945294201374,0.1094883382320404,-0.06544819474220276,0.0,0.0,2.0,1.0,0.0,0.0,0.0,0.0,0.0,0.0,0.0,0.0,0.0
0.001436625374481082,-0.011347932741045952,0.10837399214506149,-0.06518013775348663,0.0,0.0,2.0,1.0,0.0,0.0,0.0,0.0,0.0,0.0,0.0,0.0,0.0
0.0012159619946032763,-0.010568800382316113,0.10726434737443924,-0.06490270048379898,0.0,0.0,2.0,1.0,0.0,0.0,0.0,0.0,0.0,0.0,0.0,0.0,0.0
0.0010079356143251061,-0.009831726551055908,0.10615954548120499,-0.06461682170629501,0.0,0.0,2.0,1.0,0.0,0.0,0.0,0.0,0.0,0.0,0.0,0.0,0.0
0.0008118843543343246,-0.009134059771895409,0.10505973547697067,-0.06432284414768219,0.0,0.0,2.0,1.0,0.0,0.0,0.0,0.0,0.0,0.0,0.0,0.0,0.0
0.0006271777674555779,-0.008474045433104038,0.10396503657102585,-0.06402155756950378,0.0,0.0,2.0,1.0,0.0,0.0,0.0,0.0,0.0,0.0,0.0,0.0,0.0
0.0004532175953499973,-0.00784970447421074,0.10287555307149887,-0.06371357291936874,0.0,0.0,2.0,1.0,0.0,0.0,0.0,0.0,0.0,0.0,0.0,0.0,0.0
0.0002894331410061568,-0.00725948391482234,0.10179142653942108,-0.06339959055185318,0.0,0.0,2.0,1.0,0.0,0.0,0.0,0.0,0.0,0.0,0.0,0.0,0.0
0.0001352827384835109,-0.006701479200273752,0.10071273148059845,-0.06307999044656754,0.0,0.0,2.0,1.0,0.0,0.0,0.0,0.0,0.0,0.0,0.0,0.0,0.0
-9.74392423813697e-06,-0.006173896603286266,0.09963955730199814,-0.06275518238544464,0.0,0.0,2.0,1.0,0.0,0.0,0.0,0.0,0.0,0.0,0.0,0.0,0.0
-0.00014613091479986906,-0.005675090476870537,0.09857199341058731,-0.062425654381513596,0.0,0.0,2.0,1.0,0.0,0.0,0.0,0.0,0.0,0.0,0.0,0.0,0.0
-0.0002743428631220013,-0.0052041104063391685,0.09751011431217194,-0.0620921328663826,0.0,0.0,2.0,1.0,0.0,0.0,0.0,0.0,0.0,0.0,0.0,0.0,0.0
-0.0003948177327401936,-0.004759114235639572,0.09645397216081619,-0.0617547333240509,0.0,0.0,2.0,1.0,0.0,0.0,0.0,0.0,0.0,0.0,0.0,0.0,0.0
-0.0005079700495116413,-0.0043387943878769875,0.09540364146232605,-0.061413854360580444,0.0,0.0,2.0,1.0,0.0,0.0,0.0,0.0,0.0,0.0,0.0,0.0,0.0
-0.0006141915218904614,-0.003941779490560293,0.09435918182134628,-0.0610697939991951,0.0,0.0,2.0,1.0,0.0,0.0,0.0,0.0,0.0,0.0,0.0,0.0,0.0
-0.0007138513028621674,-0.0035666893236339092,0.09332062304019928,-0.06072280555963516,0.0,0.0,2.0,1.0,0.0,0.0,0.0,0.0,0.0,0.0,0.0,0.0,0.0
-0.0008073039352893829,-0.0032127411104738712,0.09228801727294922,-0.060373418033123016,0.0,0.0,2.0,1.0,0.0,0.0,0.0,0.0,0.0,0.0,0.0,0.0,0.0
-0.0008948828326538205,-0.002878588857129216,0.09126141667366028,-0.060021769255399704,0.0,0.0,2.0,1.0,0.0,0.0,0.0,0.0,0.0,0.0,0.0,0.0,0.0
-0.0009769046446308494,-0.002563249319791794,0.09024085849523544,-0.059668172150850296,0.0,0.0,2.0,1.0,0.0,0.0,0.0,0.0,0.0,0.0,0.0,0.0,0.0
-0.0010536679765209556,-0.0022656426299363375,0.08922634273767471,-0.05931282415986061,0.0,0.0,2.0,1.0,0.0,0.0,0.0,0.0,0.0,0.0,0.0,0.0,0.0
-0.001125456765294075,-0.001984910573810339,0.08821792155504227,-0.05895603075623512,0.0,0.0,2.0,1.0,0.0,0.0,0.0,0.0,0.0,0.0,0.0,0.0,0.0
-0.001192541210912168,-0.0017202674644067883,0.0872156172990799,-0.058598048985004425,0.0,0.0,2.0,1.0,0.0,0.0,0.0,0.0,0.0,0.0,0.0,0.0,0.0
-0.0012551741674542427,-0.0014705366920679808,0.08621944487094879,-0.058238912373781204,0.0,0.0,2.0,1.0,0.0,0.0,0.0,0.0,0.0,0.0,0.0,0.0,0.0
-0.0013135954504832625,-0.0012350662145763636,0.08522939682006836,-0.057878926396369934,0.0,0.0,2.0,1.0,0.0,0.0,0.0,0.0,0.0,0.0,0.0,0.0,0.0
-0.001368035445921123,-0.0010133247124031186,0.08424551039934158,-0.05751841142773628,0.0,0.0,2.0,1.0,0.0,0.0,0.0,0.0,0.0,0.0,0.0,0.0,0.0
-0.0014187112683430314,-0.0008043899433687329,0.08326779305934906,-0.05715743079781532,0.0,0.0,2.0,1.0,0.0,0.0,0.0,0.0,0.0,0.0,0.0,0.0,0.0
-0.001465829904191196,-0.0006077559664845467,0.08229624480009079,-0.05679621919989586,0.0,0.0,2.0,1.0,0.0,0.0,0.0,0.0,0.0,0.0,0.0,0.0,0.0
-0.0015095830895006657,-0.0004223668947815895,0.08133086562156677,-0.05643470212817192,0.0,0.0,2.0,1.0,0.0,0.0,0.0,0.0,0.0,0.0,0.0,0.0,0.0
-0.001550151384435594,-0.0002477362286299467,0.0803716629743576,-0.056073147803545,0.0,0.0,2.0,1.0,0.0,0.0,0.0,0.0,0.0,0.0,0.0,0.0,0.0
-0.0015877147670835257,-8.386350236833096e-05,0.0794186219573021,-0.05571198835968971,0.0,0.0,2.0,1.0,0.0,0.0,0.0,0.0,0.0,0.0,0.0,0.0,0.0
-0.0016224352875724435,7.061474025249481e-05,0.07847175002098083,-0.0553508885204792,0.0,0.0,2.0,1.0,0.0,0.0,0.0,0.0,0.0,0.0,0.0,0.0,0.0
-0.0016544703394174576,0.00021567230578511953,0.07753104716539383,-0.05499029904603958,0.0,0.0,2.0,1.0,0.0,0.0,0.0,0.0,0.0,0.0,0.0,0.0,0.0
-0.001683965791016817,0.00035219069104641676,0.07659649848937988,-0.054630108177661896,0.0,0.0,2.0,1.0,0.0,0.0,0.0,0.0,0.0,0.0,0.0,0.0,0.0
-0.0017110643675550818,0.0004801867762580514,0.0756680890917778,-0.0542706735432148,0.0,0.0,2.0,1.0,0.0,0.0,0.0,0.0,0.0,0.0,0.0,0.0,0.0
-0.001735897734761238,0.0006005143513903022,0.07474581152200699,-0.05391186848282814,0.0,0.0,2.0,1.0,0.0,0.0,0.0,0.0,0.0,0.0,0.0,0.0,0.0
-0.0017585924360901117,0.0007133138133212924,0.07382964342832565,-0.05355391278862953,0.0,0.0,2.0,1.0,0.0,0.0,0.0,0.0,0.0,0.0,0.0,0.0,0.0
-0.0017792636062949896,0.0008194620022550225,0.0729195848107338,-0.05319667607545853,0.0,0.0,2.0,1.0,0.0,0.0,0.0,0.0,0.0,0.0,0.0,0.0,0.0
-0.001798026729375124,0.0009186285315081477,0.07201561331748962,-0.052840638905763626,0.0,0.0,2.0,1.0,0.0,0.0,0.0,0.0,0.0,0.0,0.0,0.0,0.0
-0.001814990071579814,0.0010115040931850672,0.07111770659685135,-0.0524856299161911,0.0,0.0,2.0,1.0,0.0,0.0,0.0,0.0,0.0,0.0,0.0,0.0,0.0
-0.0018302513053640723,0.0010987210553139448,0.07022584974765778,-0.052131589502096176,0.0,0.0,2.0,1.0,0.0,0.0,0.0,0.0,0.0,0.0,0.0,0.0,0.0
-0.0018439069390296936,0.0011801965301856399,0.06934002041816711,-0.051778823137283325,0.0,0.0,2.0,1.0,0.0,0.0,0.0,0.0,0.0,0.0,0.0,0.0,0.0
-0.0018560464959591627,0.001256409683264792,0.06846020370721817,-0.05142728611826897,0.0,0.0,2.0,1.0,0.0,0.0,0.0,0.0,0.0,0.0,0.0,0.0,0.0
-0.0018667549593374133,0.0013276832178235054,0.06758636236190796,-0.051077038049697876,0.0,0.0,2.0,1.0,0.0,0.0,0.0,0.0,0.0,0.0,0.0,0.0,0.0
-0.001876116613857448,0.0013939430937170982,0.06671848893165588,-0.05072830989956856,0.0,0.0,2.0,1.0,0.0,0.0,0.0,0.0,0.0,0.0,0.0,0.0,0.0
-0.0018842070130631328,0.0014558833790943027,0.06585655361413956,-0.050380904227495193,0.0,0.0,2.0,1.0,0.0,0.0,0.0,0.0,0.0,0.0,0.0,0.0,0.0
-0.0018910993821918964,0.0015134998830035329,0.06500054150819778,-0.05003500357270241,0.0,0.0,2.0,1.0,0.0,0.0,0.0,0.0,0.0,0.0,0.0,0.0,0.0
-0.0018968606600537896,0.0015672490699216723,0.06415041536092758,-0.04969052970409393,0.0,0.0,2.0,1.0,0.0,0.0,0.0,0.0,0.0,0.0,0.0,0.0,0.0
-0.00190155568998307,0.001617184723727405,0.06330616027116776,-0.049347635358572006,0.0,0.0,2.0,1.0,0.0,0.0,0.0,0.0,0.0,0.0,0.0,0.0,0.0
-0.0019052487332373857,0.0016633362974971533,0.06246773898601532,-0.04900645464658737,0.0,0.0,2.0,1.0,0.0,0.0,0.0,0.0,0.0,0.0,0.0,0.0,0.0
-0.0019079974154010415,0.0017062125261873007,0.06163512542843819,-0.04866679385304451,0.0,0.0,2.0,1.0,0.0,0.0,0.0,0.0,0.0,0.0,0.0,0.0,0.0
-0.001909855054691434,0.00174599583260715,0.06080828979611397,-0.048328738659620285,0.0,0.0,2.0,1.0,0.0,0.0,0.0,0.0,0.0,0.0,0.0,0.0,0.0
-0.0019108746200799942,0.0017826668918132782,0.059987206012010574,-0.04799242317676544,0.0,0.0,2.0,1.0,0.0,0.0,0.0,0.0,0.0,0.0,0.0,0.0,0.0
-0.0019111058209091425,0.0018164949724450707,0.05917183309793472,-0.04765782132744789,0.0,0.0,2.0,1.0,0.0,0.0,0.0,0.0,0.0,0.0,0.0,0.0,0.0
-0.0019105952233076096,0.001847598236054182,0.05836215987801552,-0.047324977815151215,0.0,0.0,2.0,1.0,0.0,0.0,0.0,0.0,0.0,0.0,0.0,0.0,0.0
-0.0019093892769888043,0.001876017777249217,0.05755814537405968,-0.04699396342039108,0.0,0.0,2.0,1.0,0.0,0.0,0.0,0.0,0.0,0.0,0.0,0.0,0.0
-0.0019075284944847226,0.0019021660555154085,0.05675976350903511,-0.04666462540626526,0.0,0.0,2.0,1.0,0.0,0.0,0.0,0.0,0.0,0.0,0.0,0.0,0.0
-0.0019050519913434982,0.0019260335247963667,0.05596698448061943,-0.04633709788322449,0.0,0.0,2.0,1.0,0.0,0.0,0.0,0.0,0.0,0.0,0.0,0.0,0.0
-0.001901995507068932,0.0019478872418403625,0.05517977848649025,-0.04601133242249489,0.0,0.0,2.0,1.0,0.0,0.0,0.0,0.0,0.0,0.0,0.0,0.0,0.0
-0.0018983972258865833,0.0019674685318022966,0.05439810827374458,-0.045687559992074966,0.0,0.0,2.0,1.0,0.0,0.0,0.0,0.0,0.0,0.0,0.0,0.0,0.0
-0.0018942926544696093,0.0019850481767207384,0.05362194776535034,-0.04536566883325577,0.0,0.0,2.0,1.0,0.0,0.0,0.0,0.0,0.0,0.0,0.0,0.0,0.0
-0.0018897115951403975,0.0020010091830044985,0.05285125970840454,-0.04504549130797386,0.0,0.0,2.0,1.0,0.0,0.0,0.0,0.0,0.0,0.0,0.0,0.0,0.0
-0.0018846818711608648,0.0020153585355728865,0.05208601430058479,-0.044727157801389694,0.0,0.0,2.0,1.0,0.0,0.0,0.0,0.0,0.0,0.0,0.0,0.0,0.0
-0.0018792339833453298,0.0020279218442738056,0.05132618546485901,-0.04441079869866371,0.0,0.0,2.0,1.0,0.0,0.0,0.0,0.0,0.0,0.0,0.0,0.0,0.0
-0.001873393659479916,0.0020390902645885944,0.050571735948324203,-0.044096264988183975,0.0,0.0,2.0,1.0,0.0,0.0,0.0,0.0,0.0,0.0,0.0,0.0,0.0
-0.0018671888392418623,0.00204861955717206,0.049822624772787094,-0.04378373548388481,0.0,0.0,2.0,1.0,0.0,0.0,0.0,0.0,0.0,0.0,0.0,0.0,0.0
-0.0018606407102197409,0.002057053614407778,0.04907882958650589,-0.04347296059131622,0.0,0.0,2.0,1.0,0.0,0.0,0.0,0.0,0.0,0.0,0.0,0.0,0.0
-0.0018537732539698482,0.0020640697330236435,0.048340316861867905,-0.043164171278476715,0.0,0.0,2.0,1.0,0.0,0.0,0.0,0.0,0.0,0.0,0.0,0.0,0.0
-0.0018466077744960785,0.0020699393935501575,0.04760705679655075,-0.04285728558897972,0.0,0.0,2.0,1.0,0.0,0.0,0.0,0.0,0.0,0.0,0.0,0.0,0.0
-0.0018391654593870044,0.0020746076479554176,0.046879008412361145,-0.04255237802863121,0.0,0.0,2.0,1.0,0.0,0.0,0.0,0.0,0.0,0.0,0.0,0.0,0.0
-0.0018314669141545892,0.0020781077910214663,0.046156145632267,-0.042249444872140884,0.0,0.0,2.0,1.0,0.0,0.0,0.0,0.0,0.0,0.0,0.0,0.0,0.0
-0.0018235307652503252,0.002080630511045456,0.045438431203365326,-0.04194840416312218,0.0,0.0,2.0,1.0,0.0,0.0,0.0,0.0,0.0,0.0,0.0,0.0,0.0
-0.0018153730779886246,0.002082259627059102,0.04472583159804344,-0.041649229824543,0.0,0.0,2.0,1.0,0.0,0.0,0.0,0.0,0.0,0.0,0.0,0.0,0.0
-0.0018070092191919684,0.0020830566063523293,0.04401832073926926,-0.041351933032274246,0.0,0.0,2.0,1.0,0.0,0.0,0.0,0.0,0.0,0.0,0.0,0.0,0.0
-0.0017984539736062288,0.002083080355077982,0.043315865099430084,-0.04105652496218681,0.0,0.0,2.0,1.0,0.0,0.0,0.0,0.0,0.0,0.0,0.0,0.0,0.0
-0.0017897216603159904,0.002082276623696089,0.04261842370033264,-0.04076305776834488,0.0,0.0,2.0,1.0,0.0,0.0,0.0,0.0,0.0,0.0,0.0,0.0,0.0
-0.001780825899913907,0.0020807539112865925,0.041925981640815735,-0.04047152027487755,0.0,0.0,2.0,1.0,0.0,0.0,0.0,0.0,0.0,0.0,0.0,0.0,0.0
-0.0017717831069603562,0.0020782663486897945,0.041238486766815186,-0.04018201678991318,0.0,0.0,2.0,1.0,0.0,0.0,0.0,0.0,0.0,0.0,0.0,0.0,0.0
-0.0017626017797738314,0.0020755017176270485,0.0405559204518795,-0.0398942232131958,0.0,0.0,2.0,1.0,0.0,0.0,0.0,0.0,0.0,0.0,0.0,0.0,0.0
-0.001753294258378446,0.0020719817839562893,0.039878230541944504,-0.0396084301173687,0.0,0.0,2.0,1.0,0.0,0.0,0.0,0.0,0.0,0.0,0.0,0.0,0.0
-0.001743872999213636,0.002067789901047945,0.039205402135849,-0.03932459279894829,0.0,0.0,2.0,1.0,0.0,0.0,0.0,0.0,0.0,0.0,0.0,0.0,0.0
-0.001734349294565618,0.002063014544546604,0.038537394255399704,-0.03904267027974129,0.0,0.0,2.0,1.0,0.0,0.0,0.0,0.0,0.0,0.0,0.0,0.0,0.0
-0.0017247318755835295,0.002057822421193123,0.03787418082356453,-0.038762547075748444,0.0,0.0,2.0,1.0,0.0,0.0,0.0,0.0,0.0,0.0,0.0,0.0,0.0
-0.001715026912279427,0.0020523695275187492,0.03721572831273079,-0.03848418965935707,0.0,0.0,2.0,1.0,0.0,0.0,0.0,0.0,0.0,0.0,0.0,0.0,0.0
-0.0017052438342943788,0.0020463403780013323,0.0365620031952858,-0.03820779174566269,0.0,0.0,2.0,1.0,0.0,0.0,0.0,0.0,0.0,0.0,0.0,0.0,0.0
-0.001695392420515418,0.0020398148335516453,0.035912975668907166,-0.037933316081762314,0.0,0.0,2.0,1.0,0.0,0.0,0.0,0.0,0.0,0.0,0.0,0.0,0.0
-0.0016854777932167053,0.0020331600680947304,0.03526861220598221,-0.03766058012843132,0.0,0.0,2.0,1.0,0.0,0.0,0.0,0.0,0.0,0.0,0.0,0.0,0.0
-0.0016755107790231705,0.0020257695578038692,0.03462888300418854,-0.03738991171121597,0.0,0.0,2.0,1.0,0.0,0.0,0.0,0.0,0.0,0.0,0.0,0.0,0.0
-0.0016654976643621922,0.0020181993022561073,0.03399375081062317,-0.037121016532182693,0.0,0.0,2.0,1.0,0.0,0.0,0.0,0.0,0.0,0.0,0.0,0.0,0.0
-0.0016554464818909764,0.0020102064590901136,0.03336318954825401,-0.03685402125120163,0.0,0.0,2.0,1.0,0.0,0.0,0.0,0.0,0.0,0.0,0.0,0.0,0.0
-0.00164536212105304,0.0020019980147480965,0.03273716941475868,-0.03658881410956383,0.0,0.0,2.0,1.0,0.0,0.0,0.0,0.0,0.0,0.0,0.0,0.0,0.0
-0.001635249238461256,0.001993582583963871,0.03211564943194389,-0.03632539510726929,0.0,0.0,2.0,1.0,0.0,0.0,0.0,0.0,0.0,0.0,0.0,0.0,0.0
-0.001625114120543003,0.0019848302472382784,0.031498607248067856,-0.03606384992599487,0.0,0.0,2.0,1.0,0.0,0.0,0.0,0.0,0.0,0.0,0.0,0.0,0.0
-0.0016149635193869472,0.0019757619593292475,0.030886005610227585,-0.03580416738986969,0.0,0.0,2.0,1.0,0.0,0.0,0.0,0.0,0.0,0.0,0.0,0.0,0.0
-0.0016048011602833867,0.0019665604922920465,0.03027781844139099,-0.03554622456431389,0.0,0.0,2.0,1.0,0.0,0.0,0.0,0.0,0.0,0.0,0.0,0.0,0.0
-0.001594632281921804,0.001957104541361332,0.029674015939235687,-0.03529009968042374,0.0,0.0,2.0,1.0,0.0,0.0,0.0,0.0,0.0,0.0,0.0,0.0,0.0
-0.0015844590961933136,0.0019476076122373343,0.029074562713503838,-0.03503568843007088,0.0,0.0,2.0,1.0,0.0,0.0,0.0,0.0,0.0,0.0,0.0,0.0,0.0
-0.0015742880059406161,0.0019377535209059715,0.028479432687163353,-0.03478315845131874,0.0,0.0,2.0,1.0,0.0,0.0,0.0,0.0,0.0,0.0,0.0,0.0,0.0
-0.0015641218051314354,0.0019278668332844973,0.027888590469956398,-0.0345323346555233,0.0,0.0,2.0,1.0,0.0,0.0,0.0,0.0,0.0,0.0,0.0,0.0,0.0
-0.0015539659652858973,0.0019176490604877472,0.027302011847496033,-0.03428339213132858,0.0,0.0,2.0,1.0,0.0,0.0,0.0,0.0,0.0,0.0,0.0,0.0,0.0
-0.001543824328109622,0.0019073039293289185,0.026719659566879272,-0.03403618186712265,0.0,0.0,2.0,1.0,0.0,0.0,0.0,0.0,0.0,0.0,0.0,0.0,0.0
-0.0015336992219090462,0.0018969294615089893,0.026141509413719177,-0.03379064425826073,0.0,0.0,2.0,1.0,0.0,0.0,0.0,0.0,0.0,0.0,0.0,0.0,0.0
-0.001523592509329319,0.0018864809535443783,0.02556752972304821,-0.0335468091070652,0.0,0.0,2.0,1.0,0.0,0.0,0.0,0.0,0.0,0.0,0.0,0.0,0.0
-0.0015135062858462334,0.0018759905360639095,0.024997692555189133,-0.03330465406179428,0.0,0.0,2.0,1.0,0.0,0.0,0.0,0.0,0.0,0.0,0.0,0.0,0.0
-0.0015034439275041223,0.001865336555056274,0.024431966245174408,-0.033064261078834534,0.0,0.0,2.0,1.0,0.0,0.0,0.0,0.0,0.0,0.0,0.0,0.0,0.0
-0.0014934070641174912,0.001854670001193881,0.023870326578617096,-0.0328255295753479,0.0,0.0,2.0,1.0,0.0,0.0,0.0,0.0,0.0,0.0,0.0,0.0,0.0
-0.001483400003053248,0.0018437462858855724,0.02331274189054966,-0.03258858621120453,0.0,0.0,2.0,1.0,0.0,0.0,0.0,0.0,0.0,0.0,0.0,0.0,0.0
-0.0014734228607267141,0.001832983223721385,0.02275918424129486,-0.03235320374369621,0.0,0.0,2.0,1.0,0.0,0.0,0.0,0.0,0.0,0.0,0.0,0.0,0.0
-0.0014634797116741538,0.0018219752237200737,0.022209621965885162,-0.03211959823966026,0.0,0.0,2.0,1.0,0.0,0.0,0.0,0.0,0.0,0.0,0.0,0.0,0.0
-0.001453571836464107,0.0018109753727912903,0.021664030849933624,-0.03188760578632355,0.0,0.0,2.0,1.0,0.0,0.0,0.0,0.0,0.0,0.0,0.0,0.0,0.0
-0.0014437016798183322,0.001799889258109033,0.02112237736582756,-0.03165726736187935,0.0,0.0,2.0,1.0,0.0,0.0,0.0,0.0,0.0,0.0,0.0,0.0,0.0
-0.0014338663313537836,0.001789124682545662,0.02058463916182518,-0.03142837435007095,0.0,0.0,2.0,1.0,0.0,0.0,0.0,0.0,0.0,0.0,0.0,0.0,0.0
-0.0014240704476833344,0.0017779951449483633,0.020050792023539543,-0.0312013179063797,0.0,0.0,2.0,1.0,0.0,0.0,0.0,0.0,0.0,0.0,0.0,0.0,0.0
-0.0014143162406980991,0.001766869449056685,0.019520798698067665,-0.03097585029900074,0.0,0.0,2.0,1.0,0.0,0.0,0.0,0.0,0.0,0.0,0.0,0.0,0.0
-0.0014046048745512962,0.0017557444516569376,0.018994634971022606,-0.03075197897851467,0.0,0.0,2.0,1.0,0.0,0.0,0.0,0.0,0.0,0.0,0.0,0.0,0.0
-0.0013949356507509947,0.0017447408754378557,0.018472276628017426,-0.03052961453795433,0.0,0.0,2.0,1.0,0.0,0.0,0.0,0.0,0.0,0.0,0.0,0.0,0.0
-0.0013853101991117,0.001733657205477357,0.017953695729374886,-0.030308900400996208,0.0,0.0,2.0,1.0,0.0,0.0,0.0,0.0,0.0,0.0,0.0,0.0,0.0
-0.0013757318956777453,0.0017224072944372892,0.01743886061012745,-0.03008982352912426,0.0,0.0,2.0,1.0,0.0,0.0,0.0,0.0,0.0,0.0,0.0,0.0,0.0
-0.001366197131574154,0.001711572054773569,0.016927756369113922,-0.029872069135308266,0.0,0.0,2.0,1.0,0.0,0.0,0.0,0.0,0.0,0.0,0.0,0.0,0.0
-0.001356709050014615,0.001700413296930492,0.01642034202814102,-0.029656093567609787,0.0,0.0,2.0,1.0,0.0,0.0,0.0,0.0,0.0,0.0,0.0,0.0,0.0
-0.0013472692808136344,0.0016893672291189432,0.015916600823402405,-0.029441606253385544,0.0,0.0,2.0,1.0,0.0,0.0,0.0,0.0,0.0,0.0,0.0,0.0,0.0
-0.001337879803031683,0.001678183674812317,0.015416502952575684,-0.02922873944044113,0.0,0.0,2.0,1.0,0.0,0.0,0.0,0.0,0.0,0.0,0.0,0.0,0.0
-0.001328540500253439,0.0016671225894242525,0.014920019544661045,-0.029017329216003418,0.0,0.0,2.0,1.0,0.0,0.0,0.0,0.0,0.0,0.0,0.0,0.0,0.0
-0.0013192511396482587,0.001656107371672988,0.01442712638527155,-0.028807418420910835,0.0,0.0,2.0,1.0,0.0,0.0,0.0,0.0,0.0,0.0,0.0,0.0,0.0
-0.0013100117212161422,0.0016451353440061212,0.01393780205398798,-0.028598982840776443,0.0,0.0,2.0,1.0,0.0,0.0,0.0,0.0,0.0,0.0,0.0,0.0,0.0
-0.001300822594203055,0.0016342224553227425,0.01345201674848795,-0.028392037376761436,0.0,0.0,2.0,1.0,0.0,0.0,0.0,0.0,0.0,0.0,0.0,0.0,0.0
-0.0012916858540847898,0.00162320036906749,0.012969747185707092,-0.028186636045575142,0.0,0.0,2.0,1.0,0.0,0.0,0.0,0.0,0.0,0.0,0.0,0.0,0.0
-0.0012825997546315193,0.0016124428948387504,0.01249096728861332,-0.027982566505670547,0.0,0.0,2.0,1.0,0.0,0.0,0.0,0.0,0.0,0.0,0.0,0.0,0.0
-0.0012735648779198527,0.0016015884466469288,0.01201565284281969,-0.027780063450336456,0.0,0.0,2.0,1.0,0.0,0.0,0.0,0.0,0.0,0.0,0.0,0.0,0.0
-0.0012645823881030083,0.0015907590277493,0.011543778702616692,-0.027579015120863914,0.0,0.0,2.0,1.0,0.0,0.0,0.0,0.0,0.0,0.0,0.0,0.0,0.0
-0.0012556537985801697,0.0015798903768882155,0.011075318790972233,-0.027379462495446205,0.0,0.0,2.0,1.0,0.0,0.0,0.0,0.0,0.0,0.0,0.0,0.0,0.0
-0.0012467785272747278,0.0015691572334617376,0.010610249824821949,-0.027181290090084076,0.0,0.0,2.0,1.0,0.0,0.0,0.0,0.0,0.0,0.0,0.0,0.0,0.0
-0.0012379580875858665,0.0015583194326609373,0.010148544795811176,-0.026984600350260735,0.0,0.0,2.0,1.0,0.0,0.0,0.0,0.0,0.0,0.0,0.0,0.0,0.0
-0.0012291902676224709,0.0015477640554308891,0.009690185077488422,-0.026789193972945213,0.0,0.0,2.0,1.0,0.0,0.0,0.0,0.0,0.0,0.0,0.0,0.0,0.0
-0.0012204756494611502,0.001537128584459424,0.009235141798853874,-0.026595255360007286,0.0,0.0,2.0,1.0,0.0,0.0,0.0,0.0,0.0,0.0,0.0,0.0,0.0
-0.001211813185364008,0.0015266615664586425,0.008783395402133465,-0.02640264481306076,0.0,0.0,2.0,1.0,0.0,0.0,0.0,0.0,0.0,0.0,0.0,0.0,0.0
-0.0012032045051455498,0.0015161032788455486,0.008334919810295105,-0.02621150203049183,0.0,0.0,2.0,1.0,0.0,0.0,0.0,0.0,0.0,0.0,0.0,0.0,0.0
-0.0011946501908823848,0.0015056140255182981,0.00788968987762928,-0.026021722704172134,0.0,0.0,2.0,1.0,0.0,0.0,0.0,0.0,0.0,0.0,0.0,0.0,0.0
-0.0011861484963446856,0.0014952832134440541,0.007447685580700636,-0.0258332546800375,0.0,0.0,2.0,1.0,0.0,0.0,0.0,0.0,0.0,0.0,0.0,0.0,0.0
-0.0011777012841776013,0.0014848614810034633,0.007008880376815796,-0.025646226480603218,0.0,0.0,2.0,1.0,0.0,0.0,0.0,0.0,0.0,0.0,0.0,0.0,0.0
-0.001169308670796454,0.0014744726940989494,0.006573252379894257,-0.025460556149482727,0.0,0.0,2.0,1.0,0.0,0.0,0.0,0.0,0.0,0.0,0.0,0.0,0.0
-0.0011609714711084962,0.0014641062589362264,0.00614077877253294,-0.025276219472289085,0.0,0.0,2.0,1.0,0.0,0.0,0.0,0.0,0.0,0.0,0.0,0.0,0.0
-0.0011526854941621423,0.001454126089811325,0.005711438599973917,-0.025093041360378265,0.0,0.0,2.0,1.0,0.0,0.0,0.0,0.0,0.0,0.0,0.0,0.0,0.0
-0.0011444543488323689,0.0014438214711844921,0.005285206716507673,-0.02491142228245735,0.0,0.0,2.0,1.0,0.0,0.0,0.0,0.0,0.0,0.0,0.0,0.0,0.0
-0.0011362775694578886,0.001433709403499961,0.004862060770392418,-0.024731028825044632,0.0,0.0,2.0,1.0,0.0,0.0,0.0,0.0,0.0,0.0,0.0,0.0,0.0
-0.00112815760076046,0.0014234122354537249,0.0044419774785637856,-0.02455204166471958,0.0,0.0,2.0,1.0,0.0,0.0,0.0,0.0,0.0,0.0,0.0,0.0,0.0
-0.0011200897861272097,0.0014135984238237143,0.004024937748908997,-0.024374088272452354,0.0,0.0,2.0,1.0,0.0,0.0,0.0,0.0,0.0,0.0,0.0,0.0,0.0
-0.001112073427066207,0.0014037293149158359,0.003610920161008835,-0.024197490885853767,0.0,0.0,2.0,1.0,0.0,0.0,0.0,0.0,0.0,0.0,0.0,0.0,0.0
-0.0011041098041459918,0.0013938869815319777,0.0031999018974602222,-0.024022193625569344,0.0,0.0,2.0,1.0,0.0,0.0,0.0,0.0,0.0,0.0,0.0,0.0,0.0
-0.0010962001979351044,0.0013839751482009888,0.002791860606521368,-0.02384822815656662,0.0,0.0,2.0,1.0,0.0,0.0,0.0,0.0,0.0,0.0,0.0,0.0,0.0
-0.0010883435606956482,0.001374249579384923,0.0023867753334343433,-0.023675426840782166,0.0,0.0,2.0,1.0,0.0,0.0,0.0,0.0,0.0,0.0,0.0,0.0,0.0
-0.0010805390775203705,0.0013645635917782784,0.001984625356271863,-0.02350388839840889,0.0,0.0,2.0,1.0,0.0,0.0,0.0,0.0,0.0,0.0,0.0,0.0,0.0
-0.0010727852350100875,0.0013550587464123964,0.0015853899531066418,-0.02333352155983448,0.0,0.0,2.0,1.0,0.0,0.0,0.0,0.0,0.0,0.0,0.0,0.0,0.0
-0.0010650834301486611,0.0013454209547489882,0.0011890470050275326,-0.023164493963122368,0.0,0.0,2.0,1.0,0.0,0.0,0.0,0.0,0.0,0.0,0.0,0.0,0.0
-0.0010574330808594823,0.0013359584845602512,0.0007955757318995893,-0.02299663797020912,0.0,0.0,2.0,1.0,0.0,0.0,0.0,0.0,0.0,0.0,0.0,0.0,0.0
-0.0010498363990336657,0.001326339552178979,0.00040495427674613893,-0.022830111905932426,0.0,0.0,2.0,1.0,0.0,0.0,0.0,0.0,0.0,0.0,0.0,0.0,0.0
-0.0010422924533486366,0.0013168808072805405,1.7162497897516005e-05,-0.022664710879325867,0.0,0.0,2.0,1.0,0.0,0.0,0.0,0.0,0.0,0.0,0.0,0.0,0.0
-0.0010347996139898896,0.0013075906317681074,-0.0003678187495097518,-0.022500429302453995,0.0,0.0,2.0,1.0,0.0,0.0,0.0,0.0,0.0,0.0,0.0,0.0,0.0
-0.00102735694963485,0.0012983636697754264,-0.0007500093197450042,-0.022337326779961586,0.0,0.0,2.0,1.0,0.0,0.0,0.0,0.0,0.0,0.0,0.0,0.0,0.0
-0.0010199641110375524,0.0012891775695607066,-0.0011294297873973846,-0.02217542938888073,0.0,0.0,2.0,1.0,0.0,0.0,0.0,0.0,0.0,0.0,0.0,0.0,0.0
-0.0010126216802746058,0.0012800288386642933,-0.001506100525148213,-0.02201472967863083,0.0,0.0,2.0,1.0,0.0,0.0,0.0,0.0,0.0,0.0,0.0,0.0,0.0
-0.001005329773761332,0.0012708732392638922,-0.0018800421385094523,-0.021855231374502182,0.0,0.0,2.0,1.0,0.0,0.0,0.0,0.0,0.0,0.0,0.0,0.0,0.0
-0.0009980895556509495,0.0012617481406778097,-0.0022512751165777445,-0.0216969083994627,0.0,0.0,2.0,1.0,0.0,0.0,0.0,0.0,0.0,0.0,0.0,0.0,0.0
-0.000990900443866849,0.001252681016921997,-0.0026198183186352253,-0.0215397160500288,0.0,0.0,2.0,1.0,0.0,0.0,0.0,0.0,0.0,0.0,0.0,0.0,0.0
-0.0009837603429332376,0.001243816688656807,-0.002985690487548709,-0.021383587270975113,0.0,0.0,2.0,1.0,0.0,0.0,0.0,0.0,0.0,0.0,0.0,0.0,0.0
-0.00097667146474123,0.0012347856536507607,-0.003348912578076124,-0.0212287288159132,0.0,0.0,2.0,1.0,0.0,0.0,0.0,0.0,0.0,0.0,0.0,0.0,0.0
-0.0009696329943835735,0.001225920394062996,-0.0037095029838383198,-0.02107492834329605,0.0,0.0,2.0,1.0,0.0,0.0,0.0,0.0,0.0,0.0,0.0,0.0,0.0
-0.0009626448736526072,0.0012170892441645265,-0.004067481029778719,-0.020922241732478142,0.0,0.0,2.0,1.0,0.0,0.0,0.0,0.0,0.0,0.0,0.0,0.0,0.0
-0.0009557064040564001,0.0012083095498383045,-0.004422865808010101,-0.02077065408229828,0.0,0.0,2.0,1.0,0.0,0.0,0.0,0.0,0.0,0.0,0.0,0.0,0.0
-0.000948814966250211,0.0011997928377240896,-0.00477567408233881,-0.020620059221982956,0.0,0.0,2.0,1.0,0.0,0.0,0.0,0.0,0.0,0.0,0.0,0.0,0.0
-0.0009419725392945111,0.001191106392070651,-0.0051259263418614864,-0.02047068066895008,0.0,0.0,2.0,1.0,0.0,0.0,0.0,0.0,0.0,0.0,0.0,0.0,0.0
-0.0009351790067739785,0.0011825170367956161,-0.005473640747368336,-0.020322339609265327,0.0,0.0,2.0,1.0,0.0,0.0,0.0,0.0,0.0,0.0,0.0,0.0,0.0
-0.0009284325642511249,0.0011740978807210922,-0.005818834062665701,-0.020174993202090263,0.0,0.0,2.0,1.0,0.0,0.0,0.0,0.0,0.0,0.0,0.0,0.0,0.0
-0.0009217322804033756,0.0011657634750008583,-0.006161524448543787,-0.020028695464134216,0.0,0.0,2.0,1.0,0.0,0.0,0.0,0.0,0.0,0.0,0.0,0.0,0.0
-0.0009150778641924262,0.0011574699310585856,-0.006501730065792799,-0.019883472472429276,0.0,0.0,2.0,1.0,0.0,0.0,0.0,0.0,0.0,0.0,0.0,0.0,0.0
-0.0009084692574106157,0.0011492252815514803,-0.006839469540864229,-0.01973932422697544,0.0,0.0,2.0,1.0,0.0,0.0,0.0,0.0,0.0,0.0,0.0,0.0,0.0
-0.0009019068093039095,0.0011409842409193516,-0.007174760568886995,-0.019596276804804802,0.0,0.0,2.0,1.0,0.0,0.0,0.0,0.0,0.0,0.0,0.0,0.0,0.0
-0.0008953932556323707,0.0011325906962156296,-0.007507622707635164,-0.01945437118411064,0.0,0.0,2.0,1.0,0.0,0.0,0.0,0.0,0.0,0.0,0.0,0.0,0.0
-0.0008889260934665799,0.0011244644410908222,-0.007838073186576366,-0.01931336522102356,0.0,0.0,2.0,1.0,0.0,0.0,0.0,0.0,0.0,0.0,0.0,0.0,0.0
-0.0008825059048831463,0.0011163034942001104,-0.008166128769516945,-0.019173452630639076,0.0,0.0,2.0,1.0,0.0,0.0,0.0,0.0,0.0,0.0,0.0,0.0,0.0
-0.0008761323988437653,0.0011082049459218979,-0.00849180854856968,-0.01903454214334488,0.0,0.0,2.0,1.0,0.0,0.0,0.0,0.0,0.0,0.0,0.0,0.0,0.0
-0.0008698044111952186,0.0011002440005540848,-0.008815128356218338,-0.01889658533036709,0.0,0.0,2.0,1.0,0.0,0.0,0.0,0.0,0.0,0.0,0.0,0.0,0.0
-0.0008635222911834717,0.0010922166984528303,-0.009136105887591839,-0.01875968463718891,0.0,0.0,2.0,1.0,0.0,0.0,0.0,0.0,0.0,0.0,0.0,0.0,0.0
-0.00085728510748595,0.0010843694908544421,-0.009454757906496525,-0.018623705953359604,0.0,0.0,2.0,1.0,0.0,0.0,0.0,0.0,0.0,0.0,0.0,0.0,0.0
-0.0008510928601026535,0.0010765306651592255,-0.009771100245416164,-0.01848873496055603,0.0,0.0,2.0,1.0,0.0,0.0,0.0,0.0,0.0,0.0,0.0,0.0,0.0
-0.0008449433371424675,0.0010688664624467492,-0.010085148736834526,-0.018354661762714386,0.0,0.0,2.0,1.0,0.0,0.0,0.0,0.0,0.0,0.0,0.0,0.0,0.0
-0.0008388377609662712,0.0010611559264361858,-0.010396919213235378,-0.01822163164615631,0.0,0.0,2.0,1.0,0.0,0.0,0.0,0.0,0.0,0.0,0.0,0.0,0.0
-0.0008327748510055244,0.0010535598266869783,-0.010706430301070213,-0.0180895384401083,0.0,0.0,2.0,1.0,0.0,0.0,0.0,0.0,0.0,0.0,0.0,0.0,0.0
-0.0008267565863206983,0.0010458303149789572,-0.011013698764145374,-0.0179585088044405,0.0,0.0,2.0,1.0,0.0,0.0,0.0,0.0,0.0,0.0,0.0,0.0,0.0
-0.0008207811042666435,0.001038351096212864,-0.011318739503622055,-0.01782830059528351,0.0,0.0,2.0,1.0,0.0,0.0,0.0,0.0,0.0,0.0,0.0,0.0,0.0
-0.0008148481138050556,0.0010308614000678062,-0.011621569283306599,-0.01769907772541046,0.0,0.0,2.0,1.0,0.0,0.0,0.0,0.0,0.0,0.0,0.0,0.0,0.0
-0.0008089575567282736,0.0010234240908175707,-0.011922204867005348,-0.017570804804563522,0.0,0.0,2.0,1.0,0.0,0.0,0.0,0.0,0.0,0.0,0.0,0.0,0.0
-0.0008031122852116823,0.0010157959768548608,-0.012220662087202072,-0.017443574965000153,0.0,0.0,2.0,1.0,0.0,0.0,0.0,0.0,0.0,0.0,0.0,0.0,0.0
-0.000797307409811765,0.0010086572729051113,-0.012516955845057964,-0.01731701008975506,0.0,0.0,2.0,1.0,0.0,0.0,0.0,0.0,0.0,0.0,0.0,0.0,0.0
-0.0007915410096757114,0.0010015240404754877,-0.01281109917908907,-0.017191387712955475,0.0,0.0,2.0,1.0,0.0,0.0,0.0,0.0,0.0,0.0,0.0,0.0,0.0
-0.0007858160533942282,0.000994260422885418,-0.013103111647069454,-0.017066804692149162,0.0,0.0,2.0,1.0,0.0,0.0,0.0,0.0,0.0,0.0,0.0,0.0,0.0
-0.00078013347228989,0.0009869898203760386,-0.013393008150160313,-0.016943147405982018,0.0,0.0,2.0,1.0,0.0,0.0,0.0,0.0,0.0,0.0,0.0,0.0,0.0
-0.0007744920440018177,0.0009798625251278281,-0.01368080172687769,-0.016820315271615982,0.0,0.0,2.0,1.0,0.0,0.0,0.0,0.0,0.0,0.0,0.0,0.0,0.0
-0.0007688907207921147,0.0009728155564516783,-0.013966510072350502,-0.01669834740459919,0.0,0.0,2.0,1.0,0.0,0.0,0.0,0.0,0.0,0.0,0.0,0.0,0.0
-0.0007633285131305456,0.0009658625931479037,-0.01425014715641737,-0.01657724380493164,0.0,0.0,2.0,1.0,0.0,0.0,0.0,0.0,0.0,0.0,0.0,0.0,0.0
-0.000757805653847754,0.0009589095134288073,-0.014531727880239487,-0.016457056626677513,0.0,0.0,2.0,1.0,0.0,0.0,0.0,0.0,0.0,0.0,0.0,0.0,0.0
-0.000752321386244148,0.0009520301246084273,-0.014811265282332897,-0.01633770950138569,0.0,0.0,2.0,1.0,0.0,0.0,0.0,0.0,0.0,0.0,0.0,0.0,0.0
-0.0007468764670193195,0.0009451420628465712,-0.015088776126503944,-0.016219286248087883,0.0,0.0,2.0,1.0,0.0,0.0,0.0,0.0,0.0,0.0,0.0,0.0,0.0
-0.0007414718857035041,0.0009382143616676331,-0.015364276245236397,-0.016101745888590813,0.0,0.0,2.0,1.0,0.0,0.0,0.0,0.0,0.0,0.0,0.0,0.0,0.0
-0.000736104091629386,0.000931629678234458,-0.015637777745723724,-0.015984905883669853,0.0,0.0,2.0,1.0,0.0,0.0,0.0,0.0,0.0,0.0,0.0,0.0,0.0
-0.0007307759369723499,0.0009247456328012049,-0.01590929552912712,-0.01586911268532276,0.0,0.0,2.0,1.0,0.0,0.0,0.0,0.0,0.0,0.0,0.0,0.0,0.0
-0.0007254870142787695,0.000918043777346611,-0.01617884822189808,-0.01575406640768051,0.0,0.0,2.0,1.0,0.0,0.0,0.0,0.0,0.0,0.0,0.0,0.0,0.0
-0.0007202360429801047,0.0009114174754358828,-0.016446446999907494,-0.015639828518033028,0.0,0.0,2.0,1.0,0.0,0.0,0.0,0.0,0.0,0.0,0.0,0.0,0.0
-0.0007150209276005626,0.0009049671934917569,-0.01671210117638111,-0.015526331961154938,0.0,0.0,2.0,1.0,0.0,0.0,0.0,0.0,0.0,0.0,0.0,0.0,0.0
-0.000709842424839735,0.0008984450832940638,-0.016975829377770424,-0.015413740649819374,0.0,0.0,2.0,1.0,0.0,0.0,0.0,0.0,0.0,0.0,0.0,0.0,0.0
-0.0007047010585665703,0.0008919631945900619,-0.017237648367881775,-0.015301983803510666,0.0,0.0,2.0,1.0,0.0,0.0,0.0,0.0,0.0,0.0,0.0,0.0,0.0
-0.0006995962467044592,0.0008855343330651522,-0.01749756932258606,-0.015191049315035343,0.0,0.0,2.0,1.0,0.0,0.0,0.0,0.0,0.0,0.0,0.0,0.0,0.0
-0.0006945307832211256,0.0008789239218458533,-0.017755605280399323,-0.015081028454005718,0.0,0.0,2.0,1.0,0.0,0.0,0.0,0.0,0.0,0.0,0.0,0.0,0.0
-0.0006895005935803056,0.0008727339445613325,-0.01801176741719246,-0.014971597120165825,0.0,0.0,2.0,1.0,0.0,0.0,0.0,0.0,0.0,0.0,0.0,0.0,0.0
-0.0006845075404271483,0.0008662895997986197,-0.01826607622206211,-0.014863126911222935,0.0,0.0,2.0,1.0,0.0,0.0,0.0,0.0,0.0,0.0,0.0,0.0,0.0
-0.0006795499939471483,0.000860081403516233,-0.018518539145588875,-0.014755330979824066,0.0,0.0,2.0,1.0,0.0,0.0,0.0,0.0,0.0,0.0,0.0,0.0,0.0
-0.0006746278959326446,0.0008538877591490746,-0.018769172951579094,-0.014648349955677986,0.0,0.0,2.0,1.0,0.0,0.0,0.0,0.0,0.0,0.0,0.0,0.0,0.0
-0.0006697431090287864,0.0008475604699924588,-0.019017990678548813,-0.01454225368797779,0.0,0.0,2.0,1.0,0.0,0.0,0.0,0.0,0.0,0.0,0.0,0.0,0.0
-0.0006648943526670337,0.0008414104813709855,-0.01926499977707863,-0.014436840079724789,0.0,0.0,2.0,1.0,0.0,0.0,0.0,0.0,0.0,0.0,0.0,0.0,0.0
-0.0006600797059945762,0.000835397164337337,-0.01951022259891033,-0.014332135207951069,0.0,0.0,2.0,1.0,0.0,0.0,0.0,0.0,0.0,0.0,0.0,0.0,0.0
-0.0006553011480718851,0.0008292003767564893,-0.01975366659462452,-0.014228315092623234,0.0,0.0,2.0,1.0,0.0,0.0,0.0,0.0,0.0,0.0,0.0,0.0,0.0
-0.0006505569908767939,0.0008232571417465806,-0.019995348528027534,-0.014125127345323563,0.0,0.0,2.0,1.0,0.0,0.0,0.0,0.0,0.0,0.0,0.0,0.0,0.0
-0.0006458479911088943,0.0008172239759005606,-0.020235277712345123,-0.014022762887179852,0.0,0.0,2.0,1.0,0.0,0.0,0.0,0.0,0.0,0.0,0.0,0.0,0.0
-0.0006411714130081236,0.0008114303927868605,-0.02047346532344818,-0.013921012170612812,0.0,0.0,2.0,1.0,0.0,0.0,0.0,0.0,0.0,0.0,0.0,0.0,0.0
-0.0006365288863889873,0.0008055204525589943,-0.020709926262497902,-0.013820101507008076,0.0,0.0,2.0,1.0,0.0,0.0,0.0,0.0,0.0,0.0,0.0,0.0,0.0
-0.0006319191306829453,0.000799738394562155,-0.020944669842720032,-0.013719873502850533,0.0,0.0,2.0,1.0,0.0,0.0,0.0,0.0,0.0,0.0,0.0,0.0,0.0
-0.0006273434264585376,0.0007938737398944795,-0.021177712827920914,-0.013620438054203987,0.0,0.0,2.0,1.0,0.0,0.0,0.0,0.0,0.0,0.0,0.0,0.0,0.0
-0.0006228007259778678,0.0007881573401391506,-0.021409066393971443,-0.013521639630198479,0.0,0.0,2.0,1.0,0.0,0.0,0.0,0.0,0.0,0.0,0.0,0.0,0.0
-0.0006182888173498213,0.0007825910579413176,-0.021638741716742516,-0.013423540629446507,0.0,0.0,2.0,1.0,0.0,0.0,0.0,0.0,0.0,0.0,0.0,0.0,0.0
-0.0006138097960501909,0.0007768590003252029,-0.021866751834750175,-0.013326284475624561,0.0,0.0,2.0,1.0,0.0,0.0,0.0,0.0,0.0,0.0,0.0,0.0,0.0
-0.0006093650590628386,0.0007710845675319433,-0.022093113511800766,-0.013229762203991413,0.0,0.0,2.0,1.0,0.0,0.0,0.0,0.0,0.0,0.0,0.0,0.0,0.0
-0.0006049540243111551,0.0007654499495401978,-0.022317834198474884,-0.013133854605257511,0.0,0.0,2.0,1.0,0.0,0.0,0.0,0.0,0.0,0.0,0.0,0.0,0.0
-0.0006005736067891121,0.0007600234821438789,-0.022540921345353127,-0.01303854864090681,0.0,0.0,2.0,1.0,0.0,0.0,0.0,0.0,0.0,0.0,0.0,0.0,0.0
-0.0005962234572507441,0.0007545870030298829,-0.022762393578886986,-0.012943982146680355,0.0,0.0,2.0,1.0,0.0,0.0,0.0,0.0,0.0,0.0,0.0,0.0,0.0
-0.0005919060786254704,0.0007489961571991444,-0.022982260212302208,-0.012850189581513405,0.0,0.0,2.0,1.0,0.0,0.0,0.0,0.0,0.0,0.0,0.0,0.0,0.0
-0.0005876178620383143,0.0007437753374688327,-0.02320053242146969,-0.0127568943426013,0.0,0.0,2.0,1.0,0.0,0.0,0.0,0.0,0.0,0.0,0.0,0.0,0.0
-0.0005833611940033734,0.0007382719195447862,-0.023417221382260323,-0.012664456851780415,0.0,0.0,2.0,1.0,0.0,0.0,0.0,0.0,0.0,0.0,0.0,0.0,0.0
0.6645949482917786,0.0,0.0,0.0,0.0,0.0,2.0,1.0,0.0,0.0,0.0,0.0,0.0,0.0,0.0,0.0,0.0
0.6234620213508606,-3.202944755554199,-0.035325370728969574,-2.7490952014923096,0.0,0.0,2.0,1.0,0.0,0.0,0.0,0.0,0.0,0.0,0.0,0.0,0.0
0.5319855809211731,-6.091516971588135,-0.11270040273666382,-5.136862754821777,0.0,0.0,2.0,1.0,0.0,0.0,0.0,0.0,0.0,0.0,0.0,0.0,0.0
0.3984023928642273,-8.408611297607422,-0.22329087555408478,-6.940428256988525,0.0,0.0,2.0,1.0,0.0,0.0,0.0,0.0,0.0,0.0,0.0,0.0,0.0
0.24903249740600586,-8.744415283203125,-0.3445900082588196,-7.092902660369873,0.0,0.0,2.0,1.0,0.0,0.0,0.0,0.0,0.0,0.0,0.0,0.0,0.0
0.10916317999362946,-8.151376724243164,-0.4573824107646942,-6.603903293609619,0.0,0.0,2.0,1.0,0.0,0.0,0.0,0.0,0.0,0.0,0.0,0.0,0.0
-0.01809435710310936,-7.209317684173584,-0.5616413950920105,-5.980855941772461,0.0,0.0,2.0,1.0,0.0,0.0,0.0,0.0,0.0,0.0,0.0,0.0,0.0
-0.1243044063448906,-5.840500354766846,-0.6522164344787598,-5.086167335510254,0.0,0.0,2.0,1.0,0.0,0.0,0.0,0.0,0.0,0.0,0.0,0.0,0.0
-0.20605450868606567,-4.398045063018799,-0.7265105843544006,-4.118086814880371,0.0,0.0,2.0,1.0,0.0,0.0,0.0,0.0,0.0,0.0,0.0,0.0,0.0
-0.2648775279521942,-3.0942788124084473,-0.785099446773529,-3.215761423110962,0.0,0.0,2.0,1.0,0.0,0.0,0.0,0.0,0.0,0.0,0.0,0.0,0.0
-0.30397385358810425,-1.9899746179580688,-0.8297402262687683,-2.426347494125366,0.0,0.0,2.0,1.0,0.0,0.0,0.0,0.0,0.0,0.0,0.0,0.0,0.0
-0.3268350064754486,-1.0897808074951172,-0.8625249862670898,-1.7615851163864136,0.0,0.0,2.0,1.0,0.0,0.0,0.0,0.0,0.0,0.0,0.0,0.0,0.0
-0.33693405985832214,-0.39208921790122986,-0.8856680989265442,-1.2278674840927124,0.0,0.0,2.0,1.0,0.0,0.0,0.0,0.0,0.0,0.0,0.0,0.0,0.0
-0.3377556800842285,0.1008525937795639,-0.9014931917190552,-0.8319966197013855,0.0,0.0,2.0,1.0,0.0,0.0,0.0,0.0,0.0,0.0,0.0,0.0,0.0
-0.3324764668941498,0.41326847672462463,-0.9121726155281067,-0.5602501630783081,0.0,0.0,2.0,1.0,0.0,0.0,0.0,0.0,0.0,0.0,0.0,0.0,0.0
-0.3235666751861572,0.5920767188072205,-0.9194211959838867,-0.381608247756958,0.0,0.0,2.0,1.0,0.0,0.0,0.0,0.0,0.0,0.0,0.0,0.0,0.0
-0.31267568469047546,0.6859220862388611,-0.9243999719619751,-0.26307743787765503,0.0,0.0,2.0,1.0,0.0,0.0,0.0,0.0,0.0,0.0,0.0,0.0,0.0
-0.3007822036743164,0.7312192320823669,-0.927812933921814,-0.17982159554958344,0.0,0.0,2.0,1.0,0.0,0.0,0.0,0.0,0.0,0.0,0.0,0.0,0.0
-0.2884504199028015,0.7484504580497742,-0.9300808906555176,-0.11785930395126343,0.0,0.0,2.0,1.0,0.0,0.0,0.0,0.0,0.0,0.0,0.0,0.0,0.0
-0.2760124206542969,0.7490103840827942,-0.9314664006233215,-0.06940215080976486,0.0,0.0,2.0,1.0,0.0,0.0,0.0,0.0,0.0,0.0,0.0,0.0,0.0
-0.26367005705833435,0.7393708825111389,-0.9321422576904297,-0.030008379369974136,0.0,0.0,2.0,1.0,0.0,0.0,0.0,0.0,0.0,0.0,0.0,0.0,0.0
-0.2515488266944885,0.7233476042747498,-0.9322289228439331,0.0029638262931257486,0.0,0.0,2.0,1.0,0.0,0.0,0.0,0.0,0.0,0.0,0.0,0.0,0.0
-0.2397278994321823,0.7033241391181946,-0.9318142533302307,0.0311887226998806,0.0,0.0,2.0,1.0,0.0,0.0,0.0,0.0,0.0,0.0,0.0,0.0,0.0
-0.228256955742836,0.6808134317398071,-0.9309651255607605,0.05575444549322128,0.0,0.0,2.0,1.0,0.0,0.0,0.0,0.0,0.0,0.0,0.0,0.0,0.0
-0.21716657280921936,0.6568109393119812,-0.929734468460083,0.07740149646997452,0.0,0.0,2.0,1.0,0.0,0.0,0.0,0.0,0.0,0.0,0.0,0.0,0.0
-0.20647436380386353,0.6320011615753174,-0.9281650185585022,0.09666135162115097,0.0,0.0,2.0,1.0,0.0,0.0,0.0,0.0,0.0,0.0,0.0,0.0,0.0
-0.19618885219097137,0.6068682670593262,-0.9262924790382385,0.11393076926469803,0.0,0.0,2.0,1.0,0.0,0.0,0.0,0.0,0.0,0.0,0.0,0.0,0.0
-0.18631193041801453,0.5817643404006958,-0.9241467714309692,0.1295168101787567,0.0,0.0,2.0,1.0,0.0,0.0,0.0,0.0,0.0,0.0,0.0,0.0,0.0
-0.17684070765972137,0.5569495558738708,-0.921753466129303,0.14366360008716583,0.0,0.0,2.0,1.0,0.0,0.0,0.0,0.0,0.0,0.0,0.0,0.0,0.0
-0.16776888072490692,0.5326011180877686,-0.9191346764564514,0.15655876696109772,0.0,0.0,2.0,1.0,0.0,0.0,0.0,0.0,0.0,0.0,0.0,0.0,0.0
-0.15908780694007874,0.5088421106338501,-0.9163098931312561,0.16835162043571472,0.0,0.0,2.0,1.0,0.0,0.0,0.0,0.0,0.0,0.0,0.0,0.0,0.0
-0.15078715980052948,0.4857563376426697,-0.9132962822914124,0.1791633516550064,0.0,0.0,2.0,1.0,0.0,0.0,0.0,0.0,0.0,0.0,0.0,0.0,0.0
-0.14285559952259064,0.463398814201355,-0.9101094007492065,0.18909403681755066,0.0,0.0,2.0,1.0,0.0,0.0,0.0,0.0,0.0,0.0,0.0,0.0,0.0
-0.135281041264534,0.44180557131767273,-0.9067630171775818,0.19822879135608673,0.0,0.0,2.0,1.0,0.0,0.0,0.0,0.0,0.0,0.0,0.0,0.0,0.0
-0.12805095314979553,0.4209960401058197,-0.9032699465751648,0.20663966238498688,0.0,0.0,2.0,1.0,0.0,0.0,0.0,0.0,0.0,0.0,0.0,0.0,0.0
-0.12115258723497391,0.40097805857658386,-0.8996416926383972,0.2143886536359787,0.0,0.0,2.0,1.0,0.0,0.0,0.0,0.0,0.0,0.0,0.0,0.0,0.0
-0.11457318067550659,0.3817498981952667,-0.8958888649940491,0.22152931988239288,0.0,0.0,2.0,1.0,0.0,0.0,0.0,0.0,0.0,0.0,0.0,0.0,0.0
-0.10829994827508926,0.3633088767528534,-0.8920212388038635,0.22811241447925568,0.0,0.0,2.0,1.0,0.0,0.0,0.0,0.0,0.0,0.0,0.0,0.0,0.0
-0.10232029855251312,0.3456403613090515,-0.8880478739738464,0.23417852818965912,0.0,0.0,2.0,1.0,0.0,0.0,0.0,0.0,0.0,0.0,0.0,0.0,0.0
-0.09662201255559921,0.32871702313423157,-0.8839770555496216,0.23975783586502075,0.0,0.0,2.0,1.0,0.0,0.0,0.0,0.0,0.0,0.0,0.0,0.0,0.0
-0.09119323641061783,0.3125174343585968,-0.8798167705535889,0.24488234519958496,0.0,0.0,2.0,1.0,0.0,0.0,0.0,0.0,0.0,0.0,0.0,0.0,0.0
-0.08602245151996613,0.29702043533325195,-0.8755742907524109,0.2495822310447693,0.0,0.0,2.0,1.0,0.0,0.0,0.0,0.0,0.0,0.0,0.0,0.0,0.0
-0.08109848201274872,0.28220444917678833,-0.8712567687034607,0.2538855969905853,0.0,0.0,2.0,1.0,0.0,0.0,0.0,0.0,0.0,0.0,0.0,0.0,0.0
-0.07641051709651947,0.26804664731025696,-0.8668704032897949,0.25781774520874023,0.0,0.0,2.0,1.0,0.0,0.0,0.0,0.0,0.0,0.0,0.0,0.0,0.0
-0.07194811850786209,0.254524290561676,-0.8624212741851807,0.2614022195339203,0.0,0.0,2.0,1.0,0.0,0.0,0.0,0.0,0.0,0.0,0.0,0.0,0.0
-0.06770119071006775,0.2416137307882309,-0.8579150438308716,0.264660507440567,0.0,0.0,2.0,1.0,0.0,0.0,0.0,0.0,0.0,0.0,0.0,0.0,0.0
-0.06366003304719925,0.22929197549819946,-0.8533571362495422,0.2676125168800354,0.0,0.0,2.0,1.0,0.0,0.0,0.0,0.0,0.0,0.0,0.0,0.0,0.0
-0.05981532111763954,0.21753530204296112,-0.848752498626709,0.2702763080596924,0.0,0.0,2.0,1.0,0.0,0.0,0.0,0.0,0.0,0.0,0.0,0.0,0.0
-0.05615811049938202,0.20632095634937286,-0.8441057801246643,0.27266889810562134,0.0,0.0,2.0,1.0,0.0,0.0,0.0,0.0,0.0,0.0,0.0,0.0,0.0
-0.05267981439828873,0.19562633335590363,-0.8394215106964111,0.2748062014579773,0.0,0.0,2.0,1.0,0.0,0.0,0.0,0.0,0.0,0.0,0.0,0.0,0.0
-0.04937218129634857,0.1854313462972641,-0.834703803062439,0.2767040431499481,0.0,0.0,2.0,1.0,0.0,0.0,0.0,0.0,0.0,0.0,0.0,0.0,0.0
-0.04622731730341911,0.175713911652565,-0.829956591129303,0.27837586402893066,0.0,0.0,2.0,1.0,0.0,0.0,0.0,0.0,0.0,0.0,0.0,0.0,0.0
-0.04323766008019447,0.1664535254240036,-0.8251835107803345,0.27983471751213074,0.0,0.0,2.0,1.0,0.0,0.0,0.0,0.0,0.0,0.0,0.0,0.0,0.0
-0.040395982563495636,0.15762968361377716,-0.8203880786895752,0.28109246492385864,0.0,0.0,2.0,1.0,0.0,0.0,0.0,0.0,0.0,0.0,0.0,0.0,0.0
-0.037695396691560745,0.14922279119491577,-0.8155736923217773,0.28216034173965454,0.0,0.0,2.0,1.0,0.0,0.0,0.0,0.0,0.0,0.0,0.0,0.0,0.0
-0.03512929752469063,0.14121362566947937,-0.8107433319091797,0.2830488383769989,0.0,0.0,2.0,1.0,0.0,0.0,0.0,0.0,0.0,0.0,0.0,0.0,0.0
-0.032691411674022675,0.13358330726623535,-0.8059000372886658,0.283767431974411,0.0,0.0,2.0,1.0,0.0,0.0,0.0,0.0,0.0,0.0,0.0,0.0,0.0
-0.030375758185982704,0.126314178109169,-0.8010463714599609,0.2843254804611206,0.0,0.0,2.0,1.0,0.0,0.0,0.0,0.0,0.0,0.0,0.0,0.0,0.0
-0.02817660942673683,0.11939053237438202,-0.7961851358413696,0.2847326397895813,0.0,0.0,2.0,1.0,0.0,0.0,0.0,0.0,0.0,0.0,0.0,0.0,0.0
-0.026088496670126915,0.11279691755771637,-0.7913187742233276,0.28499770164489746,0.0,0.0,2.0,1.0,0.0,0.0,0.0,0.0,0.0,0.0,0.0,0.0,0.0
-0.02410619519650936,0.10651828348636627,-0.786449670791626,0.2851289212703705,0.0,0.0,2.0,1.0,0.0,0.0,0.0,0.0,0.0,0.0,0.0,0.0,0.0
-0.02222471870481968,0.10054081678390503,-0.781579852104187,0.2851344645023346,0.0,0.0,2.0,1.0,0.0,0.0,0.0,0.0,0.0,0.0,0.0,0.0,0.0
-0.02043929137289524,0.09485119581222534,-0.7767115235328674,0.285022109746933,0.0,0.0,2.0,1.0,0.0,0.0,0.0,0.0,0.0,0.0,0.0,0.0,0.0
-0.01874534972012043,0.08943631500005722,-0.7718465328216553,0.28479886054992676,0.0,0.0,2.0,1.0,0.0,0.0,0.0,0.0,0.0,0.0,0.0,0.0,0.0
-0.017138546332716942,0.08428356051445007,-0.7669866681098938,0.284471333026886,0.0,0.0,2.0,1.0,0.0,0.0,0.0,0.0,0.0,0.0,0.0,0.0,0.0
-0.01561473123729229,0.07938078045845032,-0.7621336579322815,0.2840457558631897,0.0,0.0,2.0,1.0,0.0,0.0,0.0,0.0,0.0,0.0,0.0,0.0,0.0
-0.014169941656291485,0.07471628487110138,-0.7572891116142273,0.28352805972099304,0.0,0.0,2.0,1.0,0.0,0.0,0.0,0.0,0.0,0.0,0.0,0.0,0.0
-0.012800401076674461,0.07027919590473175,-0.752454400062561,0.28292396664619446,0.0,0.0,2.0,1.0,0.0,0.0,0.0,0.0,0.0,0.0,0.0,0.0,0.0
-0.011502519249916077,0.06605786830186844,-0.7476311922073364,0.28223803639411926,0.0,0.0,2.0,1.0,0.0,0.0,0.0,0.0,0.0,0.0,0.0,0.0,0.0
-0.010272890329360962,0.062041398137807846,-0.7428206205368042,0.28147485852241516,0.0,0.0,2.0,1.0,0.0,0.0,0.0,0.0,0.0,0.0,0.0,0.0,0.0
-0.009108249098062515,0.05822145193815231,-0.738024115562439,0.2806400954723358,0.0,0.0,2.0,1.0,0.0,0.0,0.0,0.0,0.0,0.0,0.0,0.0,0.0
-0.00800547655671835,0.054589129984378815,-0.7332426905632019,0.27973848581314087,0.0,0.0,2.0,1.0,0.0,0.0,0.0,0.0,0.0,0.0,0.0,0.0,0.0
-0.006961596664041281,0.05113576725125313,-0.7284774780273438,0.2787744700908661,0.0,0.0,2.0,1.0,0.0,0.0,0.0,0.0,0.0,0.0,0.0,0.0,0.0
-0.005973766092211008,0.04785315692424774,-0.7237293720245361,0.27775225043296814,0.0,0.0,2.0,1.0,0.0,0.0,0.0,0.0,0.0,0.0,0.0,0.0,0.0
-0.005039273761212826,0.044733501970767975,-0.718999445438385,0.27667585015296936,0.0,0.0,2.0,1.0,0.0,0.0,0.0,0.0,0.0,0.0,0.0,0.0,0.0
-0.0041555315256118774,0.041769225150346756,-0.7142884731292725,0.2755489647388458,0.0,0.0,2.0,1.0,0.0,0.0,0.0,0.0,0.0,0.0,0.0,0.0,0.0
-0.0033200778998434544,0.03895264118909836,-0.7095974087715149,0.2743748426437378,0.0,0.0,2.0,1.0,0.0,0.0,0.0,0.0,0.0,0.0,0.0,0.0,0.0
-0.0025305640883743763,0.03627697378396988,-0.7049269676208496,0.27315694093704224,0.0,0.0,2.0,1.0,0.0,0.0,0.0,0.0,0.0,0.0,0.0,0.0,0.0
-0.001784751657396555,0.03373558819293976,-0.7002778649330139,0.27189838886260986,0.0,0.0,2.0,1.0,0.0,0.0,0.0,0.0,0.0,0.0,0.0,0.0,0.0
-0.0010805075289681554,0.03132209554314613,-0.6956507563591003,0.27060210704803467,0.0,0.0,2.0,1.0,0.0,0.0,0.0,0.0,0.0,0.0,0.0,0.0,0.0
-0.00041580034303478897,0.029030345380306244,-0.6910461783409119,0.2692708671092987,0.0,0.0,2.0,1.0,0.0,0.0,0.0,0.0,0.0,0.0,0.0,0.0,0.0
0.00021131116955075413,0.02685500867664814,-0.686464786529541,0.2679075598716736,0.0,0.0,2.0,1.0,0.0,0.0,0.0,0.0,0.0,0.0,0.0,0.0,0.0
0.0008026693831197917,0.02478983998298645,-0.6819071173667908,0.26651430130004883,0.0,0.0,2.0,1.0,0.0,0.0,0.0,0.0,0.0,0.0,0.0,0.0,0.0
0.0013600352685898542,0.022830281406641006,-0.6773735880851746,0.2650938630104065,0.0,0.0,2.0,1.0,0.0,0.0,0.0,0.0,0.0,0.0,0.0,0.0,0.0
0.0018850855994969606,0.020971007645130157,-0.6728646755218506,0.2636483907699585,0.0,0.0,2.0,1.0,0.0,0.0,0.0,0.0,0.0,0.0,0.0,0.0,0.0
0.002379416720941663,0.019207196310162544,-0.6683806777000427,0.2621799111366272,0.0,0.0,2.0,1.0,0.0,0.0,0.0,0.0,0.0,0.0,0.0,0.0,0.0
0.0028445525094866753,0.017534609884023666,-0.6639220118522644,0.2606906294822693,0.0,0.0,2.0,1.0,0.0,0.0,0.0,0.0,0.0,0.0,0.0,0.0,0.0
0.003281938610598445,0.015948308631777763,-0.6594890356063843,0.2591821253299713,0.0,0.0,2.0,1.0,0.0,0.0,0.0,0.0,0.0,0.0,0.0,0.0,0.0
0.003692957339808345,0.014444736763834953,-0.6550819873809814,0.2576565742492676,0.0,0.0,2.0,1.0,0.0,0.0,0.0,0.0,0.0,0.0,0.0,0.0,0.0
0.004078921861946583,0.013019463047385216,-0.6507012248039246,0.2561154067516327,0.0,0.0,2.0,1.0,0.0,0.0,0.0,0.0,0.0,0.0,0.0,0.0,0.0
0.004441085737198591,0.011669078841805458,-0.646346926689148,0.2545604109764099,0.0,0.0,2.0,1.0,0.0,0.0,0.0,0.0,0.0,0.0,0.0,0.0,0.0
0.00478063989430666,0.010389687493443489,-0.642019510269165,0.2529928982257843,0.0,0.0,2.0,1.0,0.0,0.0,0.0,0.0,0.0,0.0,0.0,0.0,0.0
0.005098715890198946,0.00917784497141838,-0.637718915939331,0.25141435861587524,0.0,0.0,2.0,1.0,0.0,0.0,0.0,0.0,0.0,0.0,0.0,0.0,0.0
0.005396395921707153,0.008030492812395096,-0.6334454417228699,0.24982619285583496,0.0,0.0,2.0,1.0,0.0,0.0,0.0,0.0,0.0,0.0,0.0,0.0,0.0
0.005674704443663359,0.006944111082702875,-0.629199206829071,0.24822954833507538,0.0,0.0,2.0,1.0,0.0,0.0,0.0,0.0,0.0,0.0,0.0,0.0,0.0
0.0059346226043999195,0.0059162890538573265,-0.6249803304672241,0.24662597477436066,0.0,0.0,2.0,1.0,0.0,0.0,0.0,0.0,0.0,0.0,0.0,0.0,0.0
0.006177088245749474,0.004944251850247383,-0.6207889318466187,0.24501654505729675,0.0,0.0,2.0,1.0,0.0,0.0,0.0,0.0,0.0,0.0,0.0,0.0,0.0
0.006402985658496618,0.0040246848948299885,-0.6166249513626099,0.24340209364891052,0.0,0.0,2.0,1.0,0.0,0.0,0.0,0.0,0.0,0.0,0.0,0.0,0.0
0.006613166071474552,0.0031558279879391193,-0.6124886870384216,0.2417839765548706,0.0,0.0,2.0,1.0,0.0,0.0,0.0,0.0,0.0,0.0,0.0,0.0,0.0
0.006808429956436157,0.0023343805223703384,-0.608380138874054,0.24016277492046356,0.0,0.0,2.0,1.0,0.0,0.0,0.0,0.0,0.0,0.0,0.0,0.0,0.0
0.006989542860537767,0.001558434683829546,-0.6042991876602173,0.23853957653045654,0.0,0.0,2.0,1.0,0.0,0.0,0.0,0.0,0.0,0.0,0.0,0.0,0.0
0.007157236337661743,0.0008259820751845837,-0.6002460718154907,0.23691532015800476,0.0,0.0,2.0,1.0,0.0,0.0,0.0,0.0,0.0,0.0,0.0,0.0,0.0
0.0073122018948197365,0.00013432791456580162,-0.5962207317352295,0.23529057204723358,0.0,0.0,2.0,1.0,0.0,0.0,0.0,0.0,0.0,0.0,0.0,0.0,0.0
0.007455098908394575,-0.0005180910229682922,-0.592223048210144,0.2336663156747818,0.0,0.0,2.0,1.0,0.0,0.0,0.0,0.0,0.0,0.0,0.0,0.0,0.0
0.007586560677736998,-0.0011330707930028439,-0.5882530808448792,0.2320432811975479,0.0,0.0,2.0,1.0,0.0,0.0,0.0,0.0,0.0,0.0,0.0,0.0,0.0
0.007707181386649609,-0.0017129424959421158,-0.5843108892440796,0.23042190074920654,0.0,0.0,2.0,1.0,0.0,0.0,0.0,0.0,0.0,0.0,0.0,0.0,0.0
0.007817531935870647,-0.0022591035813093185,-0.5803962349891663,0.22880300879478455,0.0,0.0,2.0,1.0,0.0,0.0,0.0,0.0,0.0,0.0,0.0,0.0,0.0
0.007918156683444977,-0.0027730041183531284,-0.5765092372894287,0.22718726098537445,0.0,0.0,2.0,1.0,0.0,0.0,0.0,0.0,0.0,0.0,0.0,0.0,0.0
0.00800956878811121,-0.003256837837398052,-0.5726498961448669,0.22557488083839417,0.0,0.0,2.0,1.0,0.0,0.0,0.0,0.0,0.0,0.0,0.0,0.0,0.0
0.00809225533157587,-0.0037118657492101192,-0.5688180327415466,0.22396650910377502,0.0,0.0,2.0,1.0,0.0,0.0,0.0,0.0,0.0,0.0,0.0,0.0,0.0
0.008166681975126266,-0.004139432683587074,-0.565013587474823,0.22236268222332,0.0,0.0,2.0,1.0,0.0,0.0,0.0,0.0,0.0,0.0,0.0,0.0,0.0
0.008233288303017616,-0.004541246686130762,-0.5612364411354065,0.22076363861560822,0.0,0.0,2.0,1.0,0.0,0.0,0.0,0.0,0.0,0.0,0.0,0.0,0.0
0.008292493410408497,-0.00491837365552783,-0.5574864745140076,0.21916994452476501,0.0,0.0,2.0,1.0,0.0,0.0,0.0,0.0,0.0,0.0,0.0,0.0,0.0
0.008344694972038269,-0.005272130016237497,-0.5537636876106262,0.21758195757865906,0.0,0.0,2.0,1.0,0.0,0.0,0.0,0.0,0.0,0.0,0.0,0.0,0.0
0.008390272967517376,-0.0056036533787846565,-0.5500679612159729,0.2160000503063202,0.0,0.0,2.0,1.0,0.0,0.0,0.0,0.0,0.0,0.0,0.0,0.0,0.0
0.008429589681327343,-0.005914050620049238,-0.5463991761207581,0.21442459523677826,0.0,0.0,2.0,1.0,0.0,0.0,0.0,0.0,0.0,0.0,0.0,0.0,0.0
0.00846298597753048,-0.00620432011783123,-0.5427572727203369,0.21285592019557953,0.0,0.0,2.0,1.0,0.0,0.0,0.0,0.0,0.0,0.0,0.0,0.0,0.0
0.008490788750350475,-0.00647569028660655,-0.5391419529914856,0.21129421889781952,0.0,0.0,2.0,1.0,0.0,0.0,0.0,0.0,0.0,0.0,0.0,0.0,0.0
0.008513307198882103,-0.00672879908233881,-0.5355532169342041,0.20973999798297882,0.0,0.0,2.0,1.0,0.0,0.0,0.0,0.0,0.0,0.0,0.0,0.0,0.0
0.00853084959089756,-0.0069640278816223145,-0.5319908857345581,0.208193838596344,0.0,0.0,2.0,1.0,0.0,0.0,0.0,0.0,0.0,0.0,0.0,0.0,0.0
0.008543706499040127,-0.007182199042290449,-0.5284549593925476,0.2066560536623001,0.0,0.0,2.0,1.0,0.0,0.0,0.0,0.0,0.0,0.0,0.0,0.0,0.0
0.008552157320082188,-0.007384069729596376,-0.524945080280304,0.20512685179710388,0.0,0.0,2.0,1.0,0.0,0.0,0.0,0.0,0.0,0.0,0.0,0.0,0.0
0.008556465618312359,-0.007570837624371052,-0.5214612483978271,0.2036062330007553,0.0,0.0,2.0,1.0,0.0,0.0,0.0,0.0,0.0,0.0,0.0,0.0,0.0
0.008556880988180637,-0.007743126712739468,-0.5180032849311829,0.2020944058895111,0.0,0.0,2.0,1.0,0.0,0.0,0.0,0.0,0.0,0.0,0.0,0.0,0.0
0.008553635329008102,-0.007902070879936218,-0.5145710110664368,0.2005913108587265,0.0,0.0,2.0,1.0,0.0,0.0,0.0,0.0,0.0,0.0,0.0,0.0,0.0
0.008546952158212662,-0.008048176765441895,-0.5111643671989441,0.1990971863269806,0.0,0.0,2.0,1.0,0.0,0.0,0.0,0.0,0.0,0.0,0.0,0.0,0.0
0.008537035435438156,-0.008182382211089134,-0.507783055305481,0.1976119577884674,0.0,0.0,2.0,1.0,0.0,0.0,0.0,0.0,0.0,0.0,0.0,0.0,0.0
0.008524085395038128,-0.008305218070745468,-0.5044271349906921,0.19613583385944366,0.0,0.0,2.0,1.0,0.0,0.0,0.0,0.0,0.0,0.0,0.0,0.0,0.0
0.008508283644914627,-0.008417675271630287,-0.501096248626709,0.19466866552829742,0.0,0.0,2.0,1.0,0.0,0.0,0.0,0.0,0.0,0.0,0.0,0.0,0.0
0.008489809930324554,-0.008519810624420643,-0.49779021739959717,0.19321087002754211,0.0,0.0,2.0,1.0,0.0,0.0,0.0,0.0,0.0,0.0,0.0,0.0,0.0
0.008468830958008766,-0.008612488396465778,-0.4945089817047119,0.1917622685432434,0.0,0.0,2.0,1.0,0.0,0.0,0.0,0.0,0.0,0.0,0.0,0.0,0.0
0.008445503190159798,-0.008696261793375015,-0.4912523627281189,0.19032293558120728,0.0,0.0,2.0,1.0,0.0,0.0,0.0,0.0,0.0,0.0,0.0,0.0,0.0
0.008419970981776714,-0.008771775290369987,-0.4880201816558838,0.18889287114143372,0.0,0.0,2.0,1.0,0.0,0.0,0.0,0.0,0.0,0.0,0.0,0.0,0.0
0.008392378687858582,-0.0088390177115798,-0.4848123788833618,0.1874724179506302,0.0,0.0,2.0,1.0,0.0,0.0,0.0,0.0,0.0,0.0,0.0,0.0,0.0
0.008362862281501293,-0.008898723870515823,-0.4816286563873291,0.18606142699718475,0.0,0.0,2.0,1.0,0.0,0.0,0.0,0.0,0.0,0.0,0.0,0.0,0.0
