Huisouan/isaac-rl-lab/source/vqvae/data/cartpole/cartpole.csv
pole_joint_pos,pole_joint_vel,cart_joint_pos,cart_joint_vel
0.2110067456960678,-2.4057745933532715,-0.02123929187655449,-1.6432068347930908
0.1625661551952362,-2.973900318145752,-0.05457247793674469,-2.052260637283325
0.1149698793888092,-2.7225799560546875,-0.08780890703201294,-1.9127552509307861
0.07481954246759415,-2.2254326343536377,-0.11650805920362473,-1.6063615083694458
0.04303210973739624,-1.73720383644104,-0.13998174667358398,-1.3004812002182007
0.01845538057386875,-1.3356003761291504,-0.15890049934387207,-1.046292781829834
-0.00039205601206049323,-1.021013855934143,-0.17416051030158997,-0.8448174595832825
-0.014769225381314754,-0.7760693430900574,-0.18652614951133728,-0.6855538487434387
-0.0256832093000412,-0.5868113040924072,-0.19660991430282593,-0.560120701789856
-0.03390862047672272,-0.43970826268196106,-0.20488300919532776,-0.4602893590927124
-0.040024545043706894,-0.32395294308662415,-0.2116975635290146,-0.3794839680194855
-0.04446488991379738,-0.23176226019859314,-0.21731755137443542,-0.31299862265586853
-0.04756000638008118,-0.1576073318719864,-0.221944659948349,-0.25751861929893494
-0.04957199841737747,-0.09796929359436035,-0.22574006021022797,-0.21097849309444427
-0.050713613629341125,-0.05014950782060623,-0.2288360297679901,-0.17180165648460388
-0.05115801468491554,-0.011945514008402824,-0.23134158551692963,-0.13869816064834595
-0.051047079265117645,0.018361981958150864,-0.23334744572639465,-0.11066332459449768
-0.05049766227602959,0.042162686586380005,-0.234929621219635,-0.08688320964574814
-0.049605999141931534,0.06060914695262909,-0.23615197837352753,-0.06667893379926682
-0.04845118895173073,0.07465976476669312,-0.23706823587417603,-0.049482010304927826
-0.04709808900952339,0.08511237800121307,-0.23772358894348145,-0.034815628081560135
-0.04559968039393425,0.09262954443693161,-0.23815606534481049,-0.02228052355349064
-0.04399913176894188,0.09776010364294052,-0.2383977323770523,-0.011542833410203457
-0.04233147203922272,0.10095909237861633,-0.23847565054893494,-0.0023226996418088675
-0.04062496870756149,0.10260307043790817,-0.23841272294521332,0.005614202469587326
-0.03890232741832733,0.10300265997648239,-0.23822830617427826,0.012463917024433613
-0.03718165308237076,0.10241435468196869,-0.23793885111808777,0.018390914425253868
-0.03547724336385727,0.10104984045028687,-0.23755832016468048,0.023533323779702187
-0.03380029648542404,0.09908217936754227,-0.23709861934185028,0.028006497770547867
-0.03215942904353142,0.09665405005216599,-0.23656992614269257,0.03190780058503151
-0.030561160296201706,0.09388209879398346,-0.23598091304302216,0.035319048911333084
-0.029010295867919922,0.09086146950721741,-0.23533913493156433,0.038309067487716675
-0.02751024439930916,0.08766940236091614,-0.23465096950531006,0.040935859084129333
-0.02606327086687088,0.08436869829893112,-0.23392198979854584,0.04324857518076897
-0.02467072382569313,0.0810101181268692,-0.23315703868865967,0.04528883472084999
-0.023333212360739708,0.07763399183750153,-0.23236030340194702,0.04709174856543541
-0.022050753235816956,0.07427261024713516,-0.23153546452522278,0.04868721216917038
-0.020822901278734207,0.07095124572515488,-0.23068571090698242,0.050100646913051605
-0.01964884251356125,0.06768990308046341,-0.22981388866901398,0.05135388299822807
-0.018527479842305183,0.0645034909248352,-0.228922501206398,0.05246537923812866
-0.017457500100135803,0.061403483152389526,-0.22801373898983002,0.05345118045806885
-0.01643742434680462,0.05839840695261955,-0.22708959877490997,0.05432514473795891
-0.015465667471289635,0.055493973195552826,-0.22615180909633636,0.05509905517101288
-0.014540566131472588,0.05269363522529602,-0.22520196437835693,0.05578305572271347
-0.013660403899848461,0.04999987408518791,-0.2242414951324463,0.05638629198074341
-0.012823446653783321,0.047413237392902374,-0.22327165305614471,0.05691642686724663
-0.012027952820062637,0.04493359476327896,-0.22229361534118652,0.05738038197159767
-0.011272192001342773,0.04255977272987366,-0.22130842506885529,0.057784099131822586
-0.010554461739957333,0.0402897484600544,-0.2203170359134674,0.05813276022672653
-0.009873086586594582,0.03812166303396225,-0.2193203568458557,0.05843127518892288
-0.009226437658071518,0.03605252504348755,-0.21831917762756348,0.058683622628450394
-0.008612925186753273,0.03407954424619675,-0.217314213514328,0.05889362469315529
-0.008031013421714306,0.032199643552303314,-0.2163061797618866,0.05906463414430618
-0.007479213178157806,0.03040945902466774,-0.215295672416687,0.05919961258769035
-0.006956097204238176,0.028705522418022156,-0.2142833024263382,0.05930117890238762
-0.006460285745561123,0.027084635570645332,-0.21326959133148193,0.05937192589044571
-0.005990456789731979,0.02554348111152649,-0.21225503087043762,0.059414103627204895
-0.005545340478420258,0.024078691378235817,-0.21124008297920227,0.05942973122000694
-0.005123722366988659,0.022686831653118134,-0.2102251946926117,0.05942060425877571
-0.0047244424931705,0.021364687010645866,-0.20921075344085693,0.059388451278209686
-0.004346390720456839,0.020109262317419052,-0.20819714665412903,0.05933491885662079
-0.00398850766941905,0.018917398527264595,-0.20718471705913544,0.059261392802000046
-0.0036497842520475388,0.017786100506782532,-0.20617377758026123,0.0591692253947258
-0.0033292556181550026,0.016712628304958344,-0.20516464114189148,0.05905970558524132
-0.00302600534632802,0.01569407247006893,-0.20415757596492767,0.058933936059474945
-0.0027391582261770964,0.014728029258549213,-0.2031528502702713,0.058793116360902786
-0.0024678839836269617,0.013811656273901463,-0.20215073227882385,0.05863809958100319
-0.0022113900631666183,0.012942816130816936,-0.20115141570568085,0.058469999581575394
-0.0019689220935106277,0.012119109742343426,-0.2001551240682602,0.05828965827822685
-0.0017397652845829725,0.011338192969560623,-0.1991620808839798,0.058097850531339645
-0.0015232383739203215,0.01059805043041706,-0.1981724202632904,0.057895395904779434
-0.0013186916476115584,0.009896822273731232,-0.19718633592128754,0.05768314376473427
-0.0011255108984187245,0.00923225935548544,-0.19620400667190552,0.05746156722307205
-0.000943111430387944,0.008602670393884182,-0.1952255815267563,0.05723142623901367
-0.000770938815549016,0.008006235584616661,-0.1942511945962906,0.0569932758808136
-0.0006084656924940646,0.007441321387887001,-0.19328097999095917,0.056747693568468094
-0.0004551928141154349,0.006906194146722555,-0.1923150271177292,0.056495144963264465
-0.00031064447830431163,0.006399563513696194,-0.19135348498821259,0.056236278265714645
-0.00017437012866139412,0.005919784773141146,-0.19039644300937653,0.05597143620252609
-4.594108395394869e-05,0.0054656206630170345,-0.18944396078586578,0.05570116639137268
7.504862878704444e-05,0.005035655107349157,-0.1884961724281311,0.055425841361284256
0.00018898543203249574,0.0046288128942251205,-0.18755315244197845,0.055146001279354095
0.0002962397993542254,0.004244109615683556,-0.18661494553089142,0.05486210435628891
0.0003971621044911444,0.0038802465423941612,-0.18568165600299835,0.054574355483055115
0.0004920790088362992,0.0035358131863176823,-0.18475332856178284,0.05428288131952286
0.000581302389036864,0.0032099923118948936,-0.18383002281188965,0.053988173604011536
0.0006651318399235606,0.002902070991694927,-0.18291176855564117,0.053690627217292786
0.0007438481552526355,0.0026108170859515667,-0.181998610496521,0.05339033156633377
0.0008177172858268023,0.0023354291915893555,-0.18109065294265747,0.05308759957551956
0.0008869926678016782,0.002075137570500374,-0.1801878809928894,0.052782729268074036
0.0009519156883470714,0.0018292136956006289,-0.17929033935070038,0.05247598513960838
0.00101271434687078,0.0015968573279678822,-0.17839805781841278,0.052167560905218124
0.0010696075623854995,0.0013775427360087633,-0.177511066198349,0.05185774713754654
0.001122799003496766,0.0011702470947057009,-0.17662936449050903,0.051546528935432434
0.0011724827345460653,0.0009745464194566011,-0.17575301229953766,0.05123426392674446
0.0012188435066491365,0.0007898207986727357,-0.17488200962543488,0.05092111602425575
0.001262060715816915,0.0006158056203275919,-0.17401635646820068,0.050607409328222275
0.0013022985076531768,0.0004514119355008006,-0.17315608263015747,0.05029299110174179
0.0013397167203947902,0.0002965921303257346,-0.17230115830898285,0.04997827112674713
0.0013744647148996592,0.00015055679250508547,-0.1714516282081604,0.04966321960091591
0.0014066846342757344,1.2947944924235344e-05,-0.17060746252536774,0.049348022788763046
0.0014365107053890824,-0.00011667853686958551,-0.16976870596408844,0.04903280362486839
0.0014640698209404945,-0.0002388011198490858,-0.16893531382083893,0.04871765896677971
0.0014894854975864291,-0.0003536223666742444,-0.16810733079910278,0.0484028123319149
0.001512872171588242,-0.0004616924561560154,-0.16728469729423523,0.04808825999498367
0.0015343392733484507,-0.0005632673855870962,-0.16646745800971985,0.04777416214346886
0.0015539901796728373,-0.0006587442476302385,-0.16565556824207306,0.04746057093143463
0.001571923727169633,-0.000748432008549571,-0.16484901309013367,0.047147564589977264
0.0015882335137575865,-0.0008325614035129547,-0.16404777765274048,0.04683526232838631
0.0016030063852667809,-0.0009116375586017966,-0.1632518619298935,0.04652365297079086
0.0016163289546966553,-0.0009855011012405157,-0.1624612659215927,0.046213023364543915
0.0016282782889902592,-0.0010549704311415553,-0.16167594492435455,0.04590311646461487
0.0016389297088608146,-0.0011199482250958681,-0.1608959287405014,0.04559421166777611
0.0016483557410538197,-0.0011806621914729476,-0.16012118756771088,0.04528633877635002
0.0016566207632422447,-0.0012377098901197314,-0.15935169160366058,0.04497936740517616
0.0016637904336676002,-0.0012907561613246799,-0.15858741104602814,0.04467367008328438
0.001669925870373845,-0.0013403018238022923,-0.15782833099365234,0.04436909034848213
0.0016750855138525367,-0.0013864143984392285,-0.1570744514465332,0.04406578838825226
0.0016793246613815427,-0.0014293286949396133,-0.15632572770118713,0.04376375302672386
0.0016826956998556852,-0.0014692043187096715,-0.15558212995529175,0.043462999165058136
0.001685247290879488,-0.001506231026723981,-0.15484365820884705,0.043163564056158066
0.0016870240215212107,-0.0015406570164486766,-0.15411029756069183,0.04286544397473335
0.0016880732728168368,-0.0015723034739494324,-0.15338200330734253,0.04256885126233101
0.0016884362557902932,-0.0016016184817999601,-0.15265876054763794,0.04227360710501671
0.001688151154667139,-0.0016287434846162796,-0.15194053947925568,0.04197975620627403
0.0016872556880116463,-0.0016536483308300376,-0.15122731029987335,0.04168742150068283
0.0016857882728800178,-0.0016762976301833987,-0.15051907300949097,0.041396696120500565
0.0016837810399010777,-0.0016972204903140664,-0.14981576800346375,0.04110736772418022
0.0016812653047963977,-0.0017162519507110119,-0.14911741018295288,0.04081963375210762
0.0016782736638560891,-0.001733410288579762,-0.1484239250421524,0.04053350165486336
0.0016748345224186778,-0.0017490156460553408,-0.14773529767990112,0.040248896926641464
0.0016709750052541494,-0.0017630105139687657,-0.14705151319503784,0.03996588662266731
0.0016667188610881567,-0.001775730517692864,-0.14637255668640137,0.03968437388539314
0.0016620923997834325,-0.0017868814757093787,-0.14569838345050812,0.03940457105636597
0.0016571179730817676,-0.001796828699298203,-0.1450289487838745,0.03912632167339325
0.0016518173506483436,-0.001805521547794342,-0.14436426758766174,0.03884974122047424
0.001646213699132204,-0.0018128575757145882,-0.14370429515838623,0.03857488930225372
0.0016403249464929104,-0.0018193069845438004,-0.14304900169372559,0.03830156475305557
0.0016341704176738858,-0.0018245815299451351,-0.14239834249019623,0.038029979914426804
0.0016277693212032318,-0.001828797161579132,-0.14175228774547577,0.03776009380817413
0.001621138770133257,-0.001832080539315939,-0.1411108374595642,0.037491846829652786
0.0016142919193953276,-0.0018347064033150673,-0.14047391712665558,0.03722512349486351
0.001607244834303856,-0.0018363273702561855,-0.13984155654907227,0.03696015104651451
0.0016000100877135992,-0.0018374023493379354,-0.1392136961221695,0.03669673576951027
0.0015926026972010732,-0.0018375166691839695,-0.13859032094478607,0.03643510118126869
0.0015850344207137823,-0.0018370866309851408,-0.13797138631343842,0.03617504984140396
0.001577317132614553,-0.0018360093235969543,-0.13735686242580414,0.03591666743159294
0.0015694628236815333,-0.0018342242110520601,-0.13674673438072205,0.035659998655319214
0.0015614823205396533,-0.0018319126684218645,-0.13614097237586975,0.035404957830905914
0.0015533852856606245,-0.0018291180022060871,-0.13553954660892487,0.03515155240893364
0.001545181148685515,-0.0018257906194776297,-0.1349424421787262,0.03489983454346657
0.0015368808526545763,-0.0018218464683741331,-0.13434958457946777,0.034649863839149475
0.0015284930123016238,-0.0018175130244344473,-0.13376100361347198,0.03440149500966072
0.0015200268244370818,-0.0018126432551071048,-0.13317662477493286,0.03415482118725777
0.0015114867128431797,-0.001807686290703714,-0.1325964480638504,0.03390961140394211
0.0015028798952698708,-0.001802265178412199,-0.13202042877674103,0.03366611897945404
0.0014942149864509702,-0.0017963876016438007,-0.13144856691360474,0.03342432901263237
0.0014854997862130404,-0.0017901306273415685,-0.13088080286979675,0.03318418562412262
0.0014767390675842762,-0.001783718355000019,-0.1303171068429947,0.03294558823108673
0.0014679395826533437,-0.0017768808174878359,-0.12975746393203735,0.03270866721868515
0.001459105173125863,-0.001769957598298788,-0.12920187413692474,0.03247326985001564
0.001450242125429213,-0.0017626469489187002,-0.12865027785301208,0.03223953768610954
0.001441353582777083,-0.0017552704084664583,-0.128102645277977,0.032007329165935516
0.0014324451331049204,-0.001747588161379099,-0.12755896151065826,0.031776778399944305
0.001423521782271564,-0.0017396655166521668,-0.12701916694641113,0.03154785931110382
0.0014145905151963234,-0.001731349853798747,-0.12648329138755798,0.031320612877607346
0.0014056524960324168,-0.0017231510719284415,-0.12595127522945404,0.03109475038945675
0.0013967102859169245,-0.0017147860489785671,-0.12542308866977692,0.03087046928703785
0.0013877677265554667,-0.0017062518745660782,-0.12489871680736542,0.03064776584506035
0.001378829125314951,-0.0016975083854049444,-0.12437812983989716,0.030426669865846634
0.0013698975089937449,-0.001688681193627417,-0.12386128306388855,0.03020709939301014
0.0013609769521281123,-0.0016796366544440389,-0.123348169028759,0.029989147558808327
0.0013520707143470645,-0.00167046207934618,-0.12283876538276672,0.02977268397808075
0.0013431794941425323,-0.0016613644547760487,-0.12233304232358932,0.029557641595602036
0.0013343042228370905,-0.0016522235237061977,-0.12183097004890442,0.0293441005051136
0.0013254486257210374,-0.001642884686589241,-0.12133252620697021,0.029132157564163208
0.0013166168937459588,-0.0016333730891346931,-0.12083768099546432,0.028921736404299736
0.0013078090269118547,-0.0016239834949374199,-0.12034640461206436,0.02871270664036274
0.00129902851767838,-0.0016143531538546085,-0.11985868960618973,0.028505245223641396
0.0012902739690616727,-0.0016049777623265982,-0.11937449127435684,0.028299085795879364
0.001281549921259284,-0.0015952468384057283,-0.11889380216598511,0.028094567358493805
0.001272855675779283,-0.0015857142861932516,-0.11841658502817154,0.027891363948583603
0.0012641939101740718,-0.0015759952366352081,-0.11794281750917435,0.02768968977034092
0.0012555673019960523,-0.001566234976053238,-0.11747246980667114,0.027489453554153442
0.0012469751527532935,-0.0015565946232527494,-0.11700553447008133,0.027290549129247665
0.0012384175788611174,-0.0015469735953956842,-0.11654197424650192,0.027093039825558662
0.0012298956280574203,-0.0015373340575024486,-0.11608176678419113,0.026896951720118523
0.0012214133748784661,-0.0015274882316589355,-0.11562488228082657,0.026702377945184708
0.0012129704700782895,-0.0015177447348833084,-0.11517131328582764,0.0265091173350811
0.0012045656330883503,-0.0015081458259373903,-0.11472102254629135,0.02631717547774315
0.0011962034041061997,-0.001498237601481378,-0.11427399516105652,0.026126781478524208
0.0011878825025632977,-0.0014886079588904977,-0.11383020877838135,0.025937585160136223
0.0011796030448749661,-0.0014789262786507607,-0.11338962614536285,0.025749802589416504
0.001171367708593607,-0.0014691243413835764,-0.11295223236083984,0.025563443079590797
0.0011631760280579329,-0.0014594551175832748,-0.11251801997423172,0.02537834644317627
0.0011550284689292312,-0.0014497777447104454,-0.1120869442820549,0.02519460767507553
0.0011469279415905476,-0.0014399674255400896,-0.1116589903831482,0.025012241676449776
0.00113887176848948,-0.00143044488504529,-0.1112341359257698,0.02483103610575199
0.001130859018303454,-0.0014209381770342588,-0.11081235855817795,0.024651138111948967
0.0011228917865082622,-0.0014113901415839791,-0.11039363592863083,0.024472584947943687
0.001114971237257123,-0.0014017987996339798,-0.10997795313596725,0.024295348674058914
0.0011070974869653583,-0.001392291858792305,-0.10956528037786484,0.024119345471262932
0.0010992692550644279,-0.0013829299714416265,-0.10915559530258179,0.023944532498717308
0.0010914863087236881,-0.0013735666871070862,-0.10874888300895691,0.023771008476614952
0.0010837494628503919,-0.0013641932746395469,-0.10834510624408722,0.023598749190568924
0.0010760577861219645,-0.0013549777213484049,-0.10794425755739212,0.02342766895890236
0.0010684134904295206,-0.0013456371380016208,-0.10754631459712982,0.02325793355703354
0.001060816808603704,-0.0013363242615014315,-0.10715125501155853,0.02308942936360836
0.0010532691376283765,-0.0013269920600578189,-0.10675905644893646,0.02292216755449772
0.001045769196934998,-0.0013178109657019377,-0.10636969655752182,0.02275603823363781
0.0010383161716163158,-0.001308706123381853,-0.10598316788673401,0.022591078653931618
0.0010309094795957208,-0.0012996885925531387,-0.10559943318367004,0.02242729626595974
0.001023549702949822,-0.0012906539486721158,-0.10521847754716873,0.022264748811721802
0.0010162395192310214,-0.001281477976590395,-0.10484027862548828,0.022103454917669296
0.001008974970318377,-0.0012727107387036085,-0.10446483641862869,0.021943122148513794
0.001001757918857038,-0.0012637265026569366,-0.10409211367368698,0.021784096956253052
0.0009945874335244298,-0.001254918402992189,-0.10372210294008255,0.021626153960824013
0.0009874639799818397,-0.0012461248552426696,-0.10335476696491241,0.02146936021745205
0.0009803868597373366,-0.0012374066282063723,-0.10299008339643478,0.021313687786459923
0.0009733566548675299,-0.001228670822456479,-0.10262805223464966,0.021159188821911812
0.0009663744131103158,-0.001219951780512929,-0.10226864367723465,0.021005813032388687
0.0009594385628588498,-0.0012113655684515834,-0.10191184282302856,0.02085348777472973
0.0009525470086373389,-0.0012029679492115974,-0.10155762732028961,0.02070220187306404
0.0009457042906433344,-0.0011942165438085794,-0.1012059822678566,0.020552249625325203
0.0009389088372699916,-0.0011857550125569105,-0.10085689276456833,0.020403213798999786
0.0009321565739810467,-0.0011776058236137033,-0.10051032900810242,0.020255111157894135
0.0009254502365365624,-0.0011691353283822536,-0.10016626119613647,0.020108290016651154
0.0009187895338982344,-0.0011608737986534834,-0.0998247042298317,0.019962435588240623
0.0009121739421971142,-0.0011526437010616064,-0.09948562830686569,0.019817665219306946
0.0009056027047336102,-0.0011445051059126854,-0.09914900362491608,0.019673941656947136
0.0008990784990601242,-0.0011361862998455763,-0.09881482273340225,0.01953137293457985
0.0008925983565859497,-0.0011282195337116718,-0.09848307073116302,0.0193896796554327
0.0008861644892022014,-0.0011200120206922293,-0.09815371781587601,0.019249185919761658
0.0008797763148322701,-0.0011119686532765627,-0.09782674908638,0.019109627231955528
0.0008734334842301905,-0.0011039681266993284,-0.09750215709209442,0.01897107996046543
0.0008671340183354914,-0.0010961521184071898,-0.09717991948127747,0.018833458423614502
0.0008608776843175292,-0.0010883442591875792,-0.09686002135276794,0.018696868792176247
0.0008546655881218612,-0.0010804729536175728,-0.09654244035482407,0.018561335280537605
0.0008484982536174357,-0.0010726866312325,-0.09622716903686523,0.01842675916850567
0.0008423732360824943,-0.0010650502517819405,-0.09591417759656906,0.018293099477887154
0.000836291816085577,-0.0010573515901342034,-0.09560345858335495,0.018160460516810417
0.0008302527130581439,-0.0010498461779206991,-0.09529498964548111,0.018028702586889267
0.0008242541225627065,-0.0010424148058518767,-0.09498875588178635,0.017897916957736015
0.0008182987221516669,-0.0010348217329010367,-0.09468474984169006,0.01776820980012417
0.0008123883162625134,-0.0010271873325109482,-0.09438294172286987,0.01763945259153843
0.0008065184229053557,-0.0010199719108641148,-0.09408330917358398,0.017511403188109398
0.0008006896241568029,-0.0010126123670488596,-0.09378587454557419,0.017384430393576622
0.000794901221524924,-0.0010053784353658557,-0.0934905856847763,0.01725832372903824
0.0007891542627476156,-0.000998123548924923,-0.09319743514060974,0.017133181914687157
0.0007834493881091475,-0.0009908422362059355,-0.0929064080119133,0.01700897514820099
0.0007777837454341352,-0.0009838135447353125,-0.09261749684810638,0.016885556280612946
0.000772158382460475,-0.0009766996372491121,-0.0923306792974472,0.0167631097137928
0.0007665737648494542,-0.0009696135530248284,-0.09204594045877457,0.016641566529870033
0.0007610290194861591,-0.0009626297978684306,-0.09176325798034668,0.016520872712135315
0.0007555251359008253,-0.000955609604716301,-0.09148263186216354,0.01640109345316887
0.0007500598439946771,-0.000948779284954071,-0.09120403975248337,0.016282081604003906
0.0007446319214068353,-0.0009420393034815788,-0.09092746675014496,0.016163930296897888
0.0007392434636130929,-0.0009351556655019522,-0.09065291285514832,0.016046734526753426
0.000733892316929996,-0.0009285308187827468,-0.09038035571575165,0.015930289402604103
0.0007285801111720502,-0.0009217380429618061,-0.09010976552963257,0.01581481099128723
0.0007233064970932901,-0.0009150689584203064,-0.08984112739562988,0.01570010930299759
0.0007180709508247674,-0.0009084431221708655,-0.08957444876432419,0.01558623742312193
0.0007128724828362465,-0.0009019173448905349,-0.0893097072839737,0.015473159961402416
0.0007077103946357965,-0.0008954528020694852,-0.0890468955039978,0.015360900200903416
0.0007025847444310784,-0.0008890237659215927,-0.08878597617149353,0.015249472111463547
0.0006974982097744942,-0.0008824040996842086,-0.08852694928646088,0.015138965100049973
0.000692446599714458,-0.0008762128418311477,-0.08826980739831924,0.015029041096568108
0.0006874296232126653,-0.0008699159952811897,-0.08801452815532684,0.014920013025403023
0.00068244943395257,-0.0008635866106487811,-0.08776111155748367,0.014811834320425987
0.0006775064393877983,-0.0008572523365728557,-0.08750951290130615,0.014704455621540546
0.0006725998828187585,-0.0008510169573128223,-0.08725975453853607,0.014597810804843903
0.000667727377731353,-0.0008449403685517609,-0.08701179921627045,0.014491891488432884
0.0006628897390328348,-0.000838827108964324,-0.08676564693450928,0.014386789873242378
0.0006580887129530311,-0.0008326384704560041,-0.08652126789093018,0.01428250316530466
0.0006533210980705917,-0.0008267471566796303,-0.08627866953611374,0.014178823679685593
0.0006485874764621258,-0.0008207287173718214,-0.08603782951831818,0.014075992628932
0.0006438874988816679,-0.0008148284978233278,-0.08579874783754349,0.013973881490528584
0.0006392226787284017,-0.0008088273461908102,-0.08556139469146729,0.013872573152184486
0.0006345895235426724,-0.0008031442994251847,-0.08532574772834778,0.013771853409707546
0.0006299915839917958,-0.000797153334133327,-0.08509181439876556,0.01367207057774067
0.0006254271138459444,-0.0007914106827229261,-0.08485958725214005,0.01357286050915718
0.0006208950653672218,-0.0007857329328544438,-0.08462904393672943,0.013474374078214169
0.0006163946236483753,-0.0007800979656167328,-0.08440016210079193,0.013376627117395401
0.0006119270110502839,-0.0007743972819298506,-0.08417295664548874,0.013279657810926437
0.000607492693234235,-0.0007687292527407408,-0.08394739031791687,0.01318340189754963
0.0006030941149219871,-0.0007628937601111829,-0.08372344821691513,0.013087930157780647
0.0005987259210087359,-0.0007575665367767215,-0.08350113779306412,0.012992863543331623
0.0005943872965872288,-0.0007521669613197446,-0.08328043669462204,0.012898581102490425
0.0005900813266634941,-0.0007465927628800273,-0.0830613374710083,0.012805085629224777
0.0005858055665157735,-0.000741297728382051,-0.0828438252210617,0.012712146155536175
0.0005815616459585726,-0.0007358191651292145,-0.08262789994478226,0.012620000168681145
0.0005773477605544031,-0.00073054782114923,-0.08241353929042816,0.01252842415124178
0.0005731642013415694,-0.0007252467330545187,-0.08220073580741882,0.012437543831765652
0.0005690104444511235,-0.0007200537365861237,-0.08198947459459305,0.012347296811640263
0.0005648864316754043,-0.0007148333825170994,-0.08177974075078964,0.012257741764187813
0.0005607926868833601,-0.00070962990866974,-0.08157152682542801,0.012168850749731064
0.0005567290936596692,-0.0007044551894068718,-0.08136483281850815,0.01208061445504427
0.0005526946624740958,-0.0006993530550971627,-0.08115964382886887,0.01199297234416008
-0.6132808923721313,0.0,0.0,0.0
-0.5709760785102844,3.29190731048584,0.03483511134982109,2.709188461303711
-0.48382487893104553,5.717538356781006,0.10593480616807938,4.656733512878418
-0.3688778877258301,7.067528247833252,0.19883497059345245,5.713113784790039
-0.24611109495162964,7.2010345458984375,0.2982335090637207,5.8635993003845215
-0.13209368288516998,6.4555768966674805,0.3924490213394165,5.405860900878906
-0.03466760739684105,5.4037766456604,0.47615930438041687,4.738625526428223
0.04587123915553093,4.435612201690674,0.5490143895149231,4.114084720611572
0.11206858605146408,3.639686346054077,0.6124563217163086,3.5875542163848877
0.166344553232193,2.9763405323028564,0.6678382158279419,3.1340322494506836
0.2104341983795166,2.4047553539276123,0.7160899639129639,2.7287611961364746
0.2455941140651703,1.9006879329681396,0.7578608989715576,2.35794997215271
0.2728286385536194,1.4522721767425537,0.7936695218086243,2.0159006118774414
0.29301875829696655,1.0537652969360352,0.8239873647689819,1.7008694410324097
0.30695658922195435,0.7002295851707458,0.8492597937583923,1.4114636182785034
0.3153882920742035,0.389773964881897,0.8699315190315247,1.1481192111968994
0.31903883814811707,0.12145884335041046,0.8864589333534241,0.9116660952568054
0.31862249970436096,-0.10516434162855148,0.8993127346038818,0.7029956579208374
0.3148398697376251,-0.2909511625766754,0.9089712500572205,0.5224466323852539
0.3083619177341461,-0.43789783120155334,0.9159051179885864,0.3693235218524933
0.29981735348701477,-0.5486266016960144,0.9205644726753235,0.24228455126285553
0.2897762656211853,-0.6268410086631775,0.9233649969100952,0.13907988369464874
0.27872607111930847,-0.6777675747871399,0.9246689677238464,0.05630486458539963
0.2670617997646332,-0.7068952322006226,0.9247774481773376,-0.009696608409285545
0.2550903260707855,-0.7193136215209961,0.9239321947097778,-0.062352269887924194
0.24304276704788208,-0.7192651033401489,0.9223235845565796,-0.10454151034355164
0.23108898103237152,-0.7101421356201172,0.9201000928878784,-0.13858498632907867
0.2193506509065628,-0.6945841908454895,0.917377233505249,-0.16630570590496063
0.20791275799274445,-0.6745951771736145,0.914244532585144,-0.1891058087348938
0.19683261215686798,-0.6516707539558411,0.9107723832130432,-0.2080509513616562
0.18614713847637177,-0.6269127130508423,0.9070159792900085,-0.2239457666873932
0.17587827146053314,-0.601125955581665,0.9030195474624634,-0.23739825189113617
0.16603703796863556,-0.5748968720436096,0.898818850517273,-0.24887114763259888
0.15662644803524017,-0.548649251461029,0.8944430351257324,-0.2587187886238098
0.14764387905597687,-0.5226876735687256,0.8899163603782654,-0.26721543073654175
0.13908255100250244,-0.49723052978515625,0.8852591514587402,-0.2745766341686249
0.1309327334165573,-0.47243058681488037,0.8804885149002075,-0.28097301721572876
0.1231827586889267,-0.44839268922805786,0.8756192922592163,-0.28654149174690247
0.11581947654485703,-0.42518773674964905,0.870664119720459,-0.2913941442966461
0.10882888734340668,-0.4028584063053131,0.8656339645385742,-0.29562219977378845
0.10219649970531464,-0.3814272880554199,0.86053866147995,-0.2993013560771942
0.09590756148099899,-0.3609030246734619,0.8553866147994995,-0.3024956285953522
0.08994722366333008,-0.3412884473800659,0.8501853942871094,-0.30526265501976013
0.08430071175098419,-0.3225732147693634,0.8449417352676392,-0.30764898657798767
0.07895354181528091,-0.3047376275062561,0.8396616578102112,-0.30969277024269104
0.07389155775308609,-0.2877578139305115,0.8343506455421448,-0.31142693758010864
0.06910108029842377,-0.27160322666168213,0.8290137052536011,-0.312877893447876
0.0645689070224762,-0.25624504685401917,0.8236551284790039,-0.31407079100608826
0.060282278805971146,-0.24165494740009308,0.8182791471481323,-0.31502899527549744
0.05622892454266548,-0.22780314087867737,0.812889575958252,-0.3157729208469391
0.05239705741405487,-0.21465960144996643,0.8074897527694702,-0.31632083654403687
0.04877536743879318,-0.20219509303569794,0.802082896232605,-0.3166894316673279
0.045353032648563385,-0.19037862122058868,0.7966718077659607,-0.3168926537036896
0.04211973026394844,-0.17918147146701813,0.7912591099739075,-0.3169441819190979
0.03906559199094772,-0.16857513785362244,0.7858473062515259,-0.3168559968471527
0.036181218922138214,-0.1585312783718109,0.7804387211799622,-0.31663864850997925
0.03345766291022301,-0.14902260899543762,0.7750353217124939,-0.31630194187164307
0.030886411666870117,-0.14002303779125214,0.7696390748023987,-0.31585493683815
0.028459366410970688,-0.13150720298290253,0.7642517685890198,-0.3153058886528015
0.0261688269674778,-0.12345124781131744,0.7588750123977661,-0.3146625757217407
0.024007493630051613,-0.1158314049243927,0.7535104155540466,-0.3139316439628601
0.021968437358736992,-0.10862518846988678,0.7481593489646912,-0.31311944127082825
0.020045075565576553,-0.10181179642677307,0.7428230047225952,-0.31223219633102417
0.01823117397725582,-0.09537040442228317,0.7375028133392334,-0.3112751245498657
0.016520818695425987,-0.08928156644105911,0.7321997284889221,-0.310253381729126
0.01490840408951044,-0.08352701365947723,0.7269148826599121,-0.3091718256473541
0.013388622552156448,-0.07808888703584671,0.721649169921875,-0.30803465843200684
0.011956445872783661,-0.0729503184556961,0.7164035439491272,-0.3068460524082184
0.010607109405100346,-0.06809591501951218,0.7111788392066956,-0.30561017990112305
0.009336099028587341,-0.06351044028997421,0.7059758901596069,-0.304330438375473
0.008139148354530334,-0.059178855270147324,0.7007951736450195,-0.3030098080635071
0.007012212183326483,-0.05508817732334137,0.6956375241279602,-0.30165183544158936
0.005951466970145702,-0.051225148141384125,0.6905034780502319,-0.30025923252105713
0.004953292664140463,-0.047577597200870514,0.6853936314582825,-0.2988348603248596
0.004014263395220041,-0.044134024530649185,0.6803085207939148,-0.2973814308643341
0.003131133271381259,-0.04088351130485535,0.6752485036849976,-0.295901358127594
0.002300834283232689,-0.037815503776073456,0.6702141165733337,-0.29439684748649597
0.0015204643132165074,-0.034920062869787216,0.6652056574821472,-0.29287004470825195
0.0007872786372900009,-0.03218784183263779,0.660223662853241,-0.2913230061531067
9.86799132078886e-05,-0.029610056430101395,0.6552681922912598,-0.2897575795650482
-0.0005477892118506134,-0.027178257703781128,0.6503398418426514,-0.2881755530834198
-0.0011544491862878203,-0.024884335696697235,0.6454386115074158,-0.2865784764289856
-0.0017234996194019914,-0.022721149027347565,0.6405647993087769,-0.28496813774108887
-0.002257018815726042,-0.020681366324424744,0.6357186436653137,-0.2833458185195923
-0.002756967442110181,-0.018757877871394157,0.6309003829956055,-0.28171274065971375
-0.0032252022065222263,-0.016944745555520058,0.6261101365089417,-0.280070424079895
-0.003663478884845972,-0.015235727652907372,0.6213480234146118,-0.27842003107070923
-0.004073453601449728,-0.013624902814626694,0.6166141629219055,-0.276762455701828
-0.004456684459000826,-0.012106342241168022,0.6119087338447571,-0.2750985622406006
-0.004814648535102606,-0.010675557889044285,0.6072317957878113,-0.2734296917915344
-0.005148745607584715,-0.009327739477157593,0.6025832891464233,-0.2717567980289459
-0.0054603018797934055,-0.008058536797761917,0.5979635715484619,-0.2700810432434082
-0.0057505713775753975,-0.006863555870950222,0.5933723449707031,-0.2684031128883362
-0.006020744331181049,-0.005739124026149511,0.5888098478317261,-0.26672402024269104
-0.006271941587328911,-0.00468102004379034,0.5842760801315308,-0.26504433155059814
-0.006505248136818409,-0.003687450196594,0.5797708630561829,-0.2633660137653351
-0.006721701007336378,-0.002755323424935341,0.5752943754196167,-0.2616898715496063
-0.006922273430973291,-0.001880417112261057,0.5708464980125427,-0.26001596450805664
-0.007107878103852272,-0.001059455331414938,0.5664271712303162,-0.25834476947784424
-0.007279382552951574,-0.0002896715886890888,0.5620362758636475,-0.2566768527030945
-0.007437598891556263,0.00043227896094322205,0.5576738715171814,-0.25501230359077454
-0.007583287078887224,0.00110957445576787,0.5533398985862732,-0.25335121154785156
-0.007717163302004337,0.0017446517013013363,0.5490342378616333,-0.25169411301612854
-0.007839912548661232,0.0023392890579998493,0.5447568297386169,-0.2500416338443756
-0.00795216578990221,0.002897003199905157,0.5405074954032898,-0.24839340150356293
-0.008054528385400772,0.0034188665449619293,0.5362862348556519,-0.24675028026103973
-0.008147564716637135,0.003907657228410244,0.5320931077003479,-0.24511221051216125
-0.008231813088059425,0.004364948719739914,0.5279278755187988,-0.24347959458827972
-0.008307773619890213,0.00479276804253459,0.5237903594970703,-0.24185261130332947
-0.008375928737223148,0.005192241631448269,0.5196805596351624,-0.24023184180259705
-0.008436731994152069,0.00556518416851759,0.5155983567237854,-0.23861730098724365
-0.008490604348480701,0.005913487169891596,0.5115437507629395,-0.23700910806655884
-0.008537949994206429,0.006238180212676525,0.5075164437294006,-0.23540757596492767
-0.008579147048294544,0.006540668196976185,0.5035163760185242,-0.23381292819976807
-0.00861455500125885,0.006822160445153713,0.4995434284210205,-0.23222537338733673
-0.008644519373774529,0.007083512842655182,0.4955975115299225,-0.23064520955085754
-0.008669356815516949,0.007326659746468067,0.4916785657405853,-0.22907213866710663
-0.008689364418387413,0.0075522433035075665,0.48778632283210754,-0.22750654816627502
-0.008704829961061478,0.00776118878275156,0.48392075300216675,-0.22594861686229706
-0.008716022595763206,0.007954378612339497,0.4800816774368286,-0.22439849376678467
-0.008723197504878044,0.008132974617183208,0.476269006729126,-0.22285611927509308
-0.008726592175662518,0.008297644555568695,0.4724825620651245,-0.22132176160812378
-0.00872643943876028,0.0084490105509758,0.46872222423553467,-0.2197955846786499
-0.00872295442968607,0.008587806485593319,0.4649878144264221,-0.2182776778936386
-0.008716337382793427,0.008715203031897545,0.4612792432308197,-0.21676784753799438
-0.008706784807145596,0.008831357583403587,0.4575963616371155,-0.21526649594306946
-0.008694474585354328,0.008937239646911621,0.4539390206336975,-0.2137734591960907
-0.008679579943418503,0.009033024311065674,0.45030704140663147,-0.21228906512260437
-0.008662263862788677,0.009119721129536629,0.4467002749443054,-0.21081304550170898
-0.008642674423754215,0.00919782929122448,0.4431186318397522,-0.20934556424617767
-0.00862096156924963,0.009267383255064487,0.43956196308135986,-0.20788691937923431
-0.008597263135015965,0.009329214692115784,0.4360300600528717,-0.2064368575811386
-0.008571707643568516,0.009383833967149258,0.43252286314964294,-0.20499540865421295
-0.00854441337287426,0.009431757032871246,0.4290401339530945,-0.20356258749961853
-0.008515498600900173,0.00947277620434761,0.42558178305625916,-0.2021387219429016
-0.008485072292387486,0.009507988579571247,0.42214763164520264,-0.20072340965270996
-0.008453235030174255,0.009537428617477417,0.418737530708313,-0.1993168741464615
-0.008420087397098541,0.009561397135257721,0.4153513014316559,-0.1979191154241562
-0.008385717868804932,0.009580276906490326,0.41198891401290894,-0.19653013348579407
-0.008350214920938015,0.009594470262527466,0.40865007042884827,-0.19514989852905273
-0.008313661441206932,0.00960388034582138,0.4053346812725067,-0.1937786042690277
-0.008276136592030525,0.009609140455722809,0.40204259753227234,-0.1924160122871399
-0.008237711153924465,0.009610388427972794,0.3987736999988556,-0.19106218218803406
-0.008198453113436699,0.00960802286863327,0.39552783966064453,-0.18971699476242065
-0.008158424869179726,0.009602241218090057,0.39230480790138245,-0.18838049471378326
-0.008117691613733768,0.009593091905117035,0.3891044855117798,-0.18705272674560547
-0.008076309226453304,0.009580755606293678,0.3859267234802246,-0.18573372066020966
-0.008034334518015385,0.009565526619553566,0.38277140259742737,-0.18442337214946747
-0.007991816848516464,0.009547658264636993,0.3796383738517761,-0.18312162160873413
-0.007948804646730423,0.009527325630187988,0.37652745842933655,-0.18182846903800964
-0.007905346341431141,0.009504405781626701,0.3734385073184967,-0.18054404854774475
-0.007861483842134476,0.00947931781411171,0.37037137150764465,-0.17926815152168274
-0.007817260921001434,0.00945199839770794,0.36732593178749084,-0.17800086736679077
-0.00777271157130599,0.009422997012734413,0.36430203914642334,-0.17674194276332855
-0.007727874908596277,0.009391970932483673,0.3612995147705078,-0.17549161612987518
-0.007682784926146269,0.009359299205243587,0.3583182394504547,-0.17424972355365753
-0.007637473288923502,0.009325029328465462,0.3553581237792969,-0.1730162352323532
-0.007591970730572939,0.009289296343922615,0.3524188995361328,-0.17179110646247864
-0.007546305190771818,0.009252271614968777,0.34950047731399536,-0.17057432234287262
-0.007500507403165102,0.009213576093316078,0.3466027081012726,-0.16936606168746948
-0.00745460344478488,0.009173884987831116,0.3437255024909973,-0.168165922164917
-0.007408617530018091,0.009132856503129005,0.3408687114715576,-0.16697417199611664
-0.0073625994846224785,0.009088944643735886,0.3380321264266968,-0.1657918244600296
-0.0073165991343557835,0.009042315185070038,0.33521562814712524,-0.16461876034736633
-0.007270662114024162,0.008993496187031269,0.3324190378189087,-0.16345469653606415
-0.007224828004837036,0.008942676708102226,0.3296422064304352,-0.16229939460754395
-0.0071791247464716434,0.008890658617019653,0.32688501477241516,-0.16115236282348633
-0.007133570499718189,0.008838021196424961,0.3241473138332367,-0.16001319885253906
-0.007088168058544397,0.00878577958792448,0.32142898440361023,-0.1588813066482544
-0.007042919285595417,0.008733545430004597,0.31872987747192383,-0.15775679051876068
-0.006997822783887386,0.008681751787662506,0.31604987382888794,-0.15663938224315643
-0.00695287948474288,0.008630190044641495,0.3133888840675354,-0.15552918612957
-0.006908087991178036,0.008579013869166374,0.3107467591762543,-0.15442608296871185
-0.0068634492345154285,0.008528013713657856,0.3081233501434326,-0.1533302366733551
-0.0068189711309969425,0.008476686663925648,0.30551862716674805,-0.15224191546440125
-0.006774655543267727,0.008425665087997913,0.30293235182762146,-0.15116065740585327
-0.00673050619661808,0.008374668657779694,0.3003644645214081,-0.15008656680583954
-0.00668652169406414,0.008324106223881245,0.29781487584114075,-0.14901944994926453
-0.006642705760896206,0.008273392915725708,0.29528337717056274,-0.1479596197605133
-0.006599064916372299,0.008222665637731552,0.2927698791027069,-0.14690697193145752
-0.006555601954460144,0.0081720519810915,0.2902742922306061,-0.14586138725280762
-0.006512319203466177,0.008121509104967117,0.2877964973449707,-0.1448228508234024
-0.006469221785664558,0.008070960640907288,0.28533628582954407,-0.14379139244556427
-0.00642631109803915,0.008020658046007156,0.2828936278820038,-0.1427668184041977
-0.006383591331541538,0.007970282807946205,0.2804683744907379,-0.1417492926120758
-0.006341065280139446,0.00792010873556137,0.2780603766441345,-0.14073863625526428
-0.006298734340816736,0.007870025001466274,0.2756696045398712,-0.1397349089384079
-0.0062566036358475685,0.007819860242307186,0.27329590916633606,-0.13873814046382904
-0.006214676424860954,0.007769912481307983,0.2709391117095947,-0.1377481073141098
-0.0061729541048407555,0.00772007554769516,0.26859909296035767,-0.13676486909389496
-0.006131437607109547,0.007670353166759014,0.26627588272094727,-0.13578836619853973
-0.006090129725635052,0.007620865013450384,0.26396921277046204,-0.13481847941875458
-0.006049029994755983,0.007571585476398468,0.2616789937019348,-0.13385522365570068
-0.006008142605423927,0.007522301748394966,0.2594051957130432,-0.1328987032175064
-0.005967467557638884,0.007473284378647804,0.2571476101875305,-0.13194870948791504
-0.005927008576691151,0.007424261420965195,0.25490614771842957,-0.13100534677505493
-0.0058867670595645905,0.007375459186732769,0.2526807487010956,-0.13006842136383057
-0.005846740212291479,0.007327110506594181,0.250471293926239,-0.1291378140449524
-0.005806928966194391,0.0072787730023264885,0.24827761948108673,-0.12821374833583832
-0.005767337512224913,0.007230568677186966,0.24609965085983276,-0.1272960752248764
-0.005727964919060469,0.00718276621773839,0.24393726885318756,-0.12638463079929352
-0.005688812583684921,0.00713483989238739,0.24179036915302277,-0.12547969818115234
-0.005649881903082132,0.007087379693984985,0.23965881764888763,-0.12458086758852005
-0.005611171945929527,0.007040002383291721,0.2375425547361374,-0.12368831783533096
-0.005572681315243244,0.006992986425757408,0.2354414314031601,-0.12280188500881195
-0.005534415133297443,0.0069459229707717896,0.23335540294647217,-0.12192175537347794
-0.005496368743479252,0.006899437867105007,0.23128433525562286,-0.12104755640029907
-0.005458545405417681,0.006852839607745409,0.22922810912132263,-0.12017960846424103
-0.005420945584774017,0.006806588266044855,0.2271866351366043,-0.11931764334440231
-0.005383567418903112,0.006760608404874802,0.22515979409217834,-0.11846166849136353
-0.005346414167433977,0.0067146215587854385,0.22314749658107758,-0.11761175841093063
-0.005309480708092451,0.006669291295111179,0.22114966809749603,-0.1167675107717514
-0.005272769834846258,0.006623916327953339,0.21916615962982178,-0.11592932790517807
-0.005236280616372824,0.006578837987035513,0.21719688177108765,-0.11509693413972855
-0.005200011655688286,0.006534080021083355,0.21524177491664886,-0.11427030712366104
-0.005163963418453932,0.0064895786345005035,0.2133006900548935,-0.11344946175813675
-0.005128135904669762,0.006445174105465412,0.21137356758117676,-0.11263445019721985
-0.005092530511319637,0.006400951649993658,0.2094602733850479,-0.111825130879879
-0.005057142581790686,0.006357325240969658,0.207560732960701,-0.11102129518985748
-0.005021975375711918,0.00631357217207551,0.20567487180233002,-0.11022330820560455
-0.0049870251677930355,0.006270280107855797,0.20380254089832306,-0.10943078249692917
-0.00495229521766305,0.006227054633200169,0.20194366574287415,-0.10864391177892685
-0.004917783662676811,0.006184129044413567,0.2000981718301773,-0.10786250978708267
-0.004883488640189171,0.006141566671431065,0.19826596975326538,-0.10708651691675186
-0.004849408753216267,0.006099229212850332,0.19644692540168762,-0.1063159853219986
-0.004815543536096811,0.006057186517864466,0.19464097917079926,-0.1055508404970169
-0.004781893454492092,0.006015249993652105,0.19284802675247192,-0.10479114204645157
-0.004748457111418247,0.005973685998469591,0.19106799364089966,-0.10403671115636826
-0.004715234041213989,0.005932324565947056,0.1893007606267929,-0.10328761488199234
-0.004682222381234169,0.005891174077987671,0.1875462681055069,-0.10254381597042084
-0.004649423062801361,0.005850308574736118,0.18580442667007446,-0.10180521011352539
-0.004616833757609129,0.005809769965708256,0.18407510221004486,-0.1010717824101448
-0.004584453534334898,0.005769363138824701,0.1823582798242569,-0.10034358501434326
-0.004552284721285105,0.005729096010327339,0.18065378069877625,-0.09962056577205658
-0.0045203217305243015,0.005689454264938831,0.17896157503128052,-0.09890241175889969
-0.004488563165068626,0.005649961531162262,0.17728158831596375,-0.09818936884403229
-0.004457005299627781,0.005610991735011339,0.17561370134353638,-0.09748120605945587
-0.004425646271556616,0.005572200752794743,0.17395783960819244,-0.09677810221910477
-0.004394488874822855,0.005533437244594097,0.17231392860412598,-0.09608007967472076
-0.004363530781120062,0.005495103076100349,0.17068186402320862,-0.09538685530424118
-0.004332767799496651,0.00545717217028141,0.1690615862607956,-0.09469843655824661
-0.004302198998630047,0.005419446155428886,0.16745302081108093,-0.09401490539312363
-0.004271822515875101,0.005382027942687273,0.16585606336593628,-0.09333620220422745
-0.004241639282554388,0.005344710312783718,0.16427062451839447,-0.09266240149736404
-0.00421164883300662,0.0053076185286045074,0.16269662976264954,-0.09199339896440506
-0.004181850701570511,0.0052706655114889145,0.1611340045928955,-0.09132920205593109
-0.004152245819568634,0.005233938340097666,0.15958267450332642,-0.09066969901323318
-0.004122830927371979,0.005197636783123016,0.1580425202846527,-0.0900147557258606
-0.0040936036966741085,0.005161543842405081,0.156513512134552,-0.08936449885368347
-0.004064563196152449,0.00512566976249218,0.15499551594257355,-0.08871889859437943
-0.004035713151097298,0.005089748650789261,0.15348851680755615,-0.08807805925607681
-0.004007051233202219,0.0050542596727609634,0.15199239552021027,-0.08744162321090698
-0.003978574648499489,0.0050189802423119545,0.15050707757472992,-0.08680976182222366
-0.003950284793972969,0.004983874037861824,0.14903251826763153,-0.08618243783712387
-0.0039221798069775105,0.004949058406054974,0.14756861329078674,-0.08555956184864044
-0.003894258290529251,0.004914415068924427,0.1461152732372284,-0.08494116365909576
-0.003866522340103984,0.0048798443749547005,0.1446724534034729,-0.08432725071907043
-0.0038389689289033413,0.00484568253159523,0.1432400494813919,-0.08371761441230774
-0.0038115973584353924,0.004811696708202362,0.14181800186634064,-0.08311241865158081
-0.0037844094913452864,0.004777672700583935,0.14040622115135193,-0.08251166343688965
-0.0037574025336652994,0.004744159057736397,0.139004647731781,-0.08191502839326859
-0.0037305753212422132,0.0047107599675655365,0.1376132220029831,-0.08132275938987732
-0.00370392925105989,0.004677404649555683,0.13623185455799103,-0.08073481917381287
-0.0036774626933038235,0.004644407890737057,0.13486050069332123,-0.08015099912881851
-0.0036511740181595087,0.004611608572304249,0.13349902629852295,-0.07957138121128082
-0.003625062992796302,0.004579015541821718,0.132147416472435,-0.07899591326713562
-0.003599126823246479,0.004546746611595154,0.13080556690692902,-0.07842452824115753
-0.003573366906493902,0.004514484666287899,0.12947343289852142,-0.0778573751449585
-0.0035477837081998587,0.0044823894277215,0.12815092504024506,-0.07729430496692657
-0.003522376297041774,0.004450563807040453,0.12683799862861633,-0.07673522084951401
-0.003497139783576131,0.00441916985437274,0.1255345493555069,-0.07618004083633423
-0.0034720750991255045,0.004387771710753441,0.12424055486917496,-0.07562898099422455
-0.0034471831750124693,0.0043565272353589535,0.12295590341091156,-0.07508191466331482
-0.0034224623814225197,0.004325574263930321,0.12168055772781372,-0.07453874498605728
-0.003397912485525012,0.004294734913855791,0.12041442841291428,-0.07399953156709671
-0.003373533021658659,0.004264099523425102,0.11915745586156845,-0.07346419990062714
-0.0033493211958557367,0.004233763553202152,0.11790958791971207,-0.07293267548084259
-0.00332527793943882,0.004203539341688156,0.11667075008153915,-0.07240501791238785
-0.003301402321085334,0.004173462279140949,0.11544087529182434,-0.07188116759061813
-0.00327769061550498,0.004143867641687393,0.11421990394592285,-0.07136093825101852
-0.003254143986850977,0.004114233423024416,0.11300776153802872,-0.07084459066390991
-0.003230760572478175,0.004084904212504625,0.11180439591407776,-0.07033190131187439
-0.003207538975402713,0.004055770579725504,0.11060973256826401,-0.06982292979955673
-0.0031844801269471645,0.004026738926768303,0.10942371934652328,-0.06931768357753754
-0.0031615847256034613,0.003997753839939833,0.10824628174304962,-0.06881614029407501
-0.003138847416266799,0.003969348035752773,0.10707736760377884,-0.06831799447536469
-0.0031162698287516832,0.003940873313695192,0.10591690987348557,-0.06782360374927521
-0.0030938503332436085,0.003912688232958317,0.10476484894752502,-0.06733273714780807
-0.0030715912580490112,0.003884413279592991,0.10362113267183304,-0.06684553623199463
-0.003049487480893731,0.0038567176088690758,0.10248568654060364,-0.06636160612106323
-0.0030275373719632626,0.0038291607052087784,0.10135845839977264,-0.06588121503591537
-0.003005741396918893,0.0038017360493540764,0.10023939609527588,-0.06540432572364807
-0.002984097460284829,0.0037745563313364983,0.09912843257188797,-0.06493083387613297
-0.0029626083560287952,0.0037472902331501245,0.09802550822496414,-0.06446091830730438
-0.0029412684962153435,0.00372058036737144,0.09693057090044022,-0.06399416923522949
-0.0029200788121670485,0.0036938823759555817,0.09584355354309082,-0.06353089958429337
-0.0028990383725613356,0.003667426761239767,0.09476442635059357,-0.06307095289230347
-0.002878146944567561,0.0036410365719348192,0.09369310736656189,-0.06261441856622696
-0.002857405226677656,0.0036147385835647583,0.09262952953577042,-0.06216117739677429
0.4596678614616394,0.0,0.0,0.0
0.4180333912372589,-3.231698989868164,-0.031034216284751892,-2.4083402156829834
0.336405873298645,-5.293087482452393,-0.09164096415042877,-3.9285058975219727
0.23545335233211517,-6.107851028442383,-0.16649553179740906,-4.537076473236084
0.1353689432144165,-5.759131908416748,-0.24143829941749573,-4.341744899749756
0.0494566485285759,-4.76735258102417,-0.3074808120727539,-3.7141664028167725
-0.017846113070845604,-3.646352529525757,-0.36158713698387146,-2.9931437969207764
-0.06772022694349289,-2.6594078540802,-0.4043600261211395,-2.3486757278442383
-0.10346625000238419,-1.8843401670455933,-0.4377843737602234,-1.8326324224472046
-0.12841451168060303,-1.2986620664596558,-0.4639015197753906,-1.4329776763916016
-0.14524343609809875,-0.8593902587890625,-0.4843692481517792,-1.1241099834442139
-0.1560194343328476,-0.5330480933189392,-0.5004792809486389,-0.8860098719596863
-0.16235244274139404,-0.2950892150402069,-0.5132494568824768,-0.7039327025413513
-0.1654384732246399,-0.12136785686016083,-0.5234430432319641,-0.5629516839981079
-0.16613270342350006,0.006756190210580826,-0.5316112637519836,-0.4514444172382355
-0.1650490015745163,0.10198986530303955,-0.5381548404693604,-0.36148759722709656
-0.16263225674629211,0.1733478605747223,-0.5433688163757324,-0.2874562740325928
-0.15921440720558167,0.22669024765491486,-0.5474780201911926,-0.22571437060832977
-0.15505360066890717,0.2658546268939972,-0.5506616234779358,-0.17389509081840515
-0.1503542959690094,0.29376983642578125,-0.5530655384063721,-0.13018545508384705
-0.14527878165245056,0.31276625394821167,-0.5548092722892761,-0.09313274174928665
-0.13995571434497833,0.3247019946575165,-0.5559914708137512,-0.06156919151544571
-0.1344868689775467,0.3310641348361969,-0.5566936135292053,-0.034551430493593216
-0.1289524883031845,0.33304399251937866,-0.5569832921028137,-0.011315254494547844
-0.1234155222773552,0.33159899711608887,-0.5569171905517578,0.008761687204241753
-0.1179250180721283,0.32749873399734497,-0.5565425753593445,0.026187477633357048
-0.11251883953809738,0.32136088609695435,-0.5558992624282837,0.041377611458301544
-0.10722589492797852,0.31368011236190796,-0.5550211071968079,0.05467219650745392
-0.10206785798072815,0.3048582375049591,-0.5539367198944092,0.06635459512472153
-0.09706051647663116,0.29522013664245605,-0.5526707172393799,0.07666077464818954
-0.09221496433019638,0.2850257158279419,-0.5512439608573914,0.08578628301620483
-0.0875384658575058,0.2744837701320648,-0.5496743321418762,0.0938948318362236
-0.08303526043891907,0.26376304030418396,-0.5479775667190552,0.10112474858760834
-0.07870715111494064,0.25299420952796936,-0.5461671948432922,0.10759010165929794
-0.07455409318208694,0.24227944016456604,-0.5442551970481873,0.11338643729686737
-0.07057453691959381,0.23170055449008942,-0.5422516465187073,0.11859586089849472
-0.06676574051380157,0.22132007777690887,-0.540165901184082,0.12328758090734482
-0.06312413513660431,0.21118320524692535,-0.5380058288574219,0.12751896679401398
-0.059645507484674454,0.20132383704185486,-0.5357787609100342,0.131339430809021
-0.05632515624165535,0.19176630675792694,-0.5334912538528442,0.13479138910770416
-0.05315805599093437,0.18252679705619812,-0.53114914894104,0.1379111111164093
-0.05013898387551308,0.1736152470111847,-0.5287575721740723,0.14073005318641663
-0.047262564301490784,0.16503800451755524,-0.5263212323188782,0.14327646791934967
-0.04452337324619293,0.15679652988910675,-0.5238447189331055,0.1455744504928589
-0.041915975511074066,0.14888927340507507,-0.521331787109375,0.14764530956745148
-0.03943498432636261,0.1413123607635498,-0.5187861919403076,0.14950791001319885
-0.03707509860396385,0.13405975699424744,-0.5162112712860107,0.15117888152599335
-0.03483112156391144,0.12712423503398895,-0.5136101245880127,0.15267319977283478
-0.032697971910238266,0.12049771845340729,-0.5109855532646179,0.15400443971157074
-0.030670715495944023,0.11417102068662643,-0.5083401799201965,0.15518459677696228
-0.028744570910930634,0.10813429206609726,-0.5056765079498291,0.15622445940971375
-0.026914913207292557,0.10237739980220795,-0.5029966235160828,0.15713386237621307
-0.025177286937832832,0.09689031541347504,-0.5003027319908142,0.1579219251871109
-0.023527398705482483,0.0916627049446106,-0.4975968897342682,0.15859682857990265
-0.021961132064461708,0.08668366819620132,-0.49488094449043274,0.15916576981544495
-0.020474528893828392,0.08194343745708466,-0.4921565651893616,0.15963594615459442
-0.019063791260123253,0.07743242383003235,-0.48942527174949646,0.1600140631198883
-0.01772526279091835,0.073141910135746,-0.48668867349624634,0.16030672192573547
-0.016455451026558876,0.0690615326166153,-0.48394808173179626,0.16051895916461945
-0.015251019038259983,0.06518206745386124,-0.4812048077583313,0.16065585613250732
-0.014108783565461636,0.06149394065141678,-0.4784601032733917,0.16072185337543488
-0.013025712221860886,0.05798831582069397,-0.47571516036987305,0.16072124242782593
-0.01199891697615385,0.05465629696846008,-0.47297102212905884,0.1606578528881073
-0.011025640182197094,0.05148990452289581,-0.4702286720275879,0.16053566336631775
-0.0101032555103302,0.04848139360547066,-0.4674891531467438,0.160358265042305
-0.00922926515340805,0.045622799545526505,-0.46475329995155334,0.16012878715991974
-0.008401286788284779,0.04290745034813881,-0.4620220363140106,0.15985070168972015
-0.007617052644491196,0.04032806679606438,-0.4592961072921753,0.1595267802476883
-0.006874408107250929,0.03787818178534508,-0.45657622814178467,0.15915988385677338
-0.006171294953674078,0.035551756620407104,-0.45386314392089844,0.15875282883644104
-0.005505760665982962,0.03334251046180725,-0.4511575400829315,0.1583079993724823
-0.004875942133367062,0.03124498948454857,-0.4484599530696869,0.15782788395881653
-0.0042800698429346085,0.029253672808408737,-0.4457709789276123,0.1573147028684616
-0.0037164571695029736,0.02736344002187252,-0.4430912137031555,0.15677063167095184
-0.0031835008412599564,0.025569241493940353,-0.44042110443115234,0.15619760751724243
-0.0026796788442879915,0.02386629208922386,-0.4377610981464386,0.15559755265712738
-0.0022035364527255297,0.022250620648264885,-0.4351117014884949,0.15497256815433502
-0.0017536927480250597,0.02071753889322281,-0.43247324228286743,0.15432406961917877
-0.0013288349146023393,0.019263140857219696,-0.4298461377620697,0.1536538153886795
-0.0009277137578465044,0.01788352057337761,-0.42723074555397034,0.15296335518360138
-0.0005491371848620474,0.016575319692492485,-0.4246273934841156,0.15225428342819214
-0.00019197582150809467,0.015334582887589931,-0.422036349773407,0.15152771770954132
0.00014484603889286518,0.014158252626657486,-0.41945794224739075,0.15078513324260712
0.00046234982437454164,0.01304296962916851,-0.416892409324646,0.15002775192260742
0.000761512026656419,0.011986156925559044,-0.41433995962142944,0.14925694465637207
0.0010432612616568804,0.010984801687300205,-0.41180089116096497,0.14847369492053986
0.0013084735255688429,0.010035687126219273,-0.4092753529548645,0.14767877757549286
0.0015579847386106849,0.00913657620549202,-0.4067635238170624,0.14687342941761017
0.0017925931606441736,0.008285134099423885,-0.40426552295684814,0.14605861902236938
0.0020130532793700695,0.007478690706193447,-0.40178152918815613,0.145235076546669
0.0022200848907232285,0.006715203169733286,-0.39931169152259827,0.14440374076366425
0.002414372283965349,0.005992532707750797,-0.3968561589717865,0.14356538653373718
0.0025965615641325712,0.00530827883630991,-0.3944150507450104,0.14272062480449677
0.0027672741562128067,0.00466123316437006,-0.3919884264469147,0.14187052845954895
0.0029270979575812817,0.004049097653478384,-0.38957640528678894,0.14101548492908478
0.0030765896663069725,0.003470113966614008,-0.38717901706695557,0.14015614986419678
0.003216283628717065,0.0029229712672531605,-0.3847964107990265,0.13929331302642822
0.003346682759001851,0.0024055985268205404,-0.38242849707603455,0.13842721283435822
0.0034682617988437414,0.0019165424164384604,-0.38007548451423645,0.13755841553211212
0.003581470577046275,0.001454128883779049,-0.3777373433113098,0.13668732345104218
0.003686740528792143,0.0010173844639211893,-0.375414103269577,0.13581456243991852
0.0037844772450625896,0.0006046216003596783,-0.3731057643890381,0.13494040071964264
0.0038750716485083103,0.00021521002054214478,-0.3708123564720154,0.1340656280517578
0.00395889300853014,-0.00015242095105350018,-0.3685338497161865,0.13319039344787598
0.00403629569336772,-0.0004989518783986568,-0.3662703037261963,0.13231532275676727
0.004107614979147911,-0.0008257003501057625,-0.3640217185020447,0.13144062459468842
0.00417316984385252,-0.0011335534509271383,-0.3617880940437317,0.13056668639183044
0.004233262035995722,-0.0014236164279282093,-0.35956940054893494,0.12969371676445007
0.004288177937269211,-0.0016966636758297682,-0.35736554861068726,0.12882214784622192
0.004338196478784084,-0.001953346421942115,-0.35517653822898865,0.12795236706733704
0.004383578430861235,-0.0021946027409285307,-0.3530023694038391,0.12708455324172974
0.004424572456628084,-0.0024212070275098085,-0.35084301233291626,0.1262189894914627
0.004461414646357298,-0.0026338801253587008,-0.3486984074115753,0.12535585463047028
0.004494329448789358,-0.002833450911566615,-0.3465684652328491,0.12449534982442856
0.004523530602455139,-0.0030204516369849443,-0.34445318579673767,0.12363772094249725
0.0045492216013371944,-0.003195487428456545,-0.34235256910324097,0.12278319150209427
0.004571592900902033,-0.0033593717962503433,-0.34026649594306946,0.12193180620670319
0.00459083030000329,-0.0035123906563967466,-0.33819493651390076,0.12108388543128967
0.004607104696333408,-0.0036554578691720963,-0.3361378014087677,0.12023935467004776
0.004620579537004232,-0.0037889082450419664,-0.3340950012207031,0.11939851194620132
0.004631414078176022,-0.003913125954568386,-0.3320665657520294,0.11856154352426529
0.004639758728444576,-0.004028462804853916,-0.33005234599113464,0.11772864311933517
0.0046457587741315365,-0.004135411232709885,-0.3280523121356964,0.11689990013837814
0.004649551119655371,-0.004234446212649345,-0.32606637477874756,0.11607538163661957
0.0046512652188539505,-0.0043259598314762115,-0.3240944445133209,0.11525515466928482
0.004651022609323263,-0.004410458728671074,-0.32213643193244934,0.11443929374217987
0.004648942034691572,-0.004488111007958651,-0.3201923370361328,0.11362795531749725
0.004645129665732384,-0.0045595914125442505,-0.3182620406150818,0.11282102763652802
0.004639691673219204,-0.004624965600669384,-0.3163454532623291,0.11201872676610947
0.004632724914699793,-0.004684876650571823,-0.31444254517555237,0.11122091859579086
0.004624323919415474,-0.004739341326057911,-0.31255319714546204,0.11042780429124832
0.00461457297205925,-0.004788963124155998,-0.31067734956741333,0.10963928699493408
0.00460355868563056,-0.004833596292883158,-0.3088148534297943,0.10885562002658844
0.004591359756886959,-0.00487376656383276,-0.30696573853492737,0.10807667672634125
0.004578050225973129,-0.004909816198050976,-0.30512985587120056,0.10730244964361191
0.004563701804727316,-0.004941742867231369,-0.30330711603164673,0.10653308033943176
0.0045483787544071674,-0.0049700867384672165,-0.3014974594116211,0.10576845705509186
0.004532147664576769,-0.004994634538888931,-0.2997007668018341,0.10500884056091309
0.004515071399509907,-0.005015685688704252,-0.29791703820228577,0.10425415635108948
0.004497204441577196,-0.005033677443861961,-0.29614609479904175,0.1035042479634285
0.004478599410504103,-0.00504880677908659,-0.29438793659210205,0.10275916010141373
0.0044593061320483685,-0.005061115138232708,-0.29264238476753235,0.10201898962259293
0.004439377225935459,-0.005070438142865896,-0.29090946912765503,0.10128390043973923
0.004418855533003807,-0.0050775292329490185,-0.28918904066085815,0.10055357962846756
0.004397785756736994,-0.005082017742097378,-0.2874809801578522,0.0998283103108406
0.004376209806650877,-0.0050842780619859695,-0.2857852876186371,0.09910792857408524
0.0043541667982935905,-0.005084522068500519,-0.28410181403160095,0.09839241206645966
0.00433169212192297,-0.005082735326141119,-0.282430499792099,0.09768182039260864
0.004308819770812988,-0.005079140421003103,-0.28077125549316406,0.09697610884904861
0.004285585600882769,-0.005073594860732555,-0.27912402153015137,0.09627539664506912
0.004262019880115986,-0.005066532641649246,-0.27748867869377136,0.09557950496673584
0.00423815194517374,-0.005057844799011946,-0.2758651375770569,0.09488851577043533
0.004214009270071983,-0.005047793034464121,-0.27425339818000793,0.09420230984687805
0.004189617466181517,-0.005036340095102787,-0.2726532518863678,0.09352097660303116
0.004165002144873142,-0.005023533012717962,-0.2710646986961365,0.09284450113773346
0.004140185192227364,-0.005009646527469158,-0.2694876492023468,0.092172771692276
0.004115191288292408,-0.004994542337954044,-0.26792198419570923,0.09150592237710953
0.004090041387826204,-0.00497830007225275,-0.26636767387390137,0.09084390848875046
0.004064756911247969,-0.004960996098816395,-0.2648245692253113,0.0901866927742958
0.004039355553686619,-0.004942853003740311,-0.2632926404476166,0.08953417092561722
0.004013855941593647,-0.004923804197460413,-0.2617718279361725,0.08888640254735947
0.003988272976130247,-0.00490392092615366,-0.26026201248168945,0.08824336528778076
0.0039626252837479115,-0.004883266054093838,-0.2587631046772003,0.08760496973991394
0.003936924040317535,-0.004862104542553425,-0.2572750449180603,0.08697114139795303
0.003911186009645462,-0.004840071778744459,-0.25579771399497986,0.08634207397699356
0.003885423531755805,-0.00481753796339035,-0.2543310821056366,0.08571752905845642
0.0038596487138420343,-0.004794423934072256,-0.25287508964538574,0.08509758114814758
0.0038338731974363327,-0.004770847037434578,-0.25142961740493774,0.08448217809200287
0.0038081121165305376,-0.004746444057673216,-0.24999457597732544,0.0838715061545372
0.0037823787424713373,-0.004721453413367271,-0.24856992065906525,0.08326543867588043
0.0037566914688795805,-0.004695468582212925,-0.24715556204319,0.08266421407461166
0.0037310675252228975,-0.004668648354709148,-0.24575141072273254,0.08206772059202194
0.0037055204156786203,-0.004641265608370304,-0.2443573772907257,0.08147579431533813
0.003680063644424081,-0.004613236989825964,-0.24297338724136353,0.08088845759630203
0.0036547074560076,-0.004584817215800285,-0.24159936606884003,0.0803055390715599
0.0036294616293162107,-0.004555965773761272,-0.24023525416851044,0.07972707599401474
0.003604335244745016,-0.00452677346765995,-0.2388809770345688,0.07915292680263519
0.003579331561923027,-0.004497614689171314,-0.2375364452600479,0.07858286798000336
0.0035544566344469786,-0.004468184895813465,-0.23620158433914185,0.07801706343889236
0.0035297139547765255,-0.004438802599906921,-0.2348763346672058,0.0774553045630455
0.0035051056183874607,-0.004409400280565023,-0.23356063663959503,0.07689762860536575
0.00348063837736845,-0.00437970319762826,-0.23225441575050354,0.07634413987398148
0.003456312231719494,-0.004350265022367239,-0.23095758259296417,0.07579450309276581
0.003432129742577672,-0.004320805426687002,-0.22967009246349335,0.07524885982275009
0.00340809253975749,-0.004291355609893799,-0.2283918708562851,0.07470714300870895
0.0033842024859040976,-0.004262018483132124,-0.22712285816669464,0.07416927814483643
0.0033604572527110577,-0.004232959356158972,-0.22586297988891602,0.07363514602184296
0.0033368587028235197,-0.004203895106911659,-0.22461216151714325,0.07310488820075989
0.00331340660341084,-0.004175019450485706,-0.22337037324905396,0.07257836312055588
0.0032901016529649496,-0.004146206192672253,-0.22213751077651978,0.0720556378364563
0.003266944782808423,-0.004117530304938555,-0.22091352939605713,0.07153661549091339
0.0032439343631267548,-0.004089100286364555,-0.21969838440418243,0.07102122902870178
0.003221070161089301,-0.004060778766870499,-0.21849197149276733,0.07050954550504684
0.003198353573679924,-0.004032524768263102,-0.21729426085948944,0.07000154256820679
0.003175784833729267,-0.004004423972219229,-0.2161051630973816,0.06949715316295624
0.003153361612930894,-0.003976581152528524,-0.2149246633052826,0.06899631768465042
0.003131087636575103,-0.003948571160435677,-0.2137526422739029,0.06849920749664307
0.0031089582480490208,-0.003921180963516235,-0.2125890851020813,0.06800536066293716
0.0030869743786752224,-0.003893707413226366,-0.21143391728401184,0.06751518696546555
0.0030651355627924204,-0.0038664345629513264,-0.21028709411621094,0.0670284703373909
0.0030434418004006147,-0.003839271143078804,-0.20914852619171143,0.06654524803161621
0.0030218909960240126,-0.003812412265688181,-0.20801813900470734,0.06606539338827133
0.003000483848154545,-0.0037855799309909344,-0.20689591765403748,0.06558903306722641
0.0029792198911309242,-0.003758968785405159,-0.20578178763389587,0.06511601060628891
0.0029580986592918634,-0.0037324978038668633,-0.20467570424079895,0.06464636325836182
0.002937117125838995,-0.0037063483614474535,-0.20357759296894073,0.06417997926473618
0.0029162755236029625,-0.0036802904214709997,-0.20248740911483765,0.06371697783470154
0.0028955743182450533,-0.0036542871966958046,-0.2014050930738449,0.06325733661651611
0.0028750135097652674,-0.0036284595262259245,-0.20033058524131775,0.06280094385147095
0.0028545893728733063,-0.003603000193834305,-0.1992638111114502,0.06234770268201828
0.0028343049343675375,-0.003577417228370905,-0.19820477068424225,0.06189785152673721
0.002814158098772168,-0.0035521755926311016,-0.19715334475040436,0.06145107373595238
0.0027941453736275434,-0.003527248278260231,-0.19610951840877533,0.06100741773843765
0.002774266293272376,-0.0035023640375584364,-0.1950732171535492,0.06056699901819229
0.002754522254690528,-0.0034775841049849987,-0.19404441118240356,0.06012977287173271
0.0027349134907126427,-0.003452878911048174,-0.19302305579185486,0.059695713222026825
0.002715438138693571,-0.003428467083722353,-0.19200904667377472,0.05926468223333359
0.002696095732972026,-0.003404198680073023,-0.19100236892700195,0.05883675068616867
0.0026768879033625126,-0.0033798576332628727,-0.1900029480457306,0.058411985635757446
0.002657810226082802,-0.0033560064621269703,-0.18901073932647705,0.05799006298184395
0.0026388627011328936,-0.0033322079107165337,-0.18802571296691895,0.057571232318878174
0.002620045328512788,-0.003308552782982588,-0.1870477944612503,0.05715540423989296
0.0026013562455773354,-0.0032851111609488726,-0.18607692420482635,0.056742530316114426
0.0025827980134636164,-0.003261551959440112,-0.1851130723953247,0.05633274093270302
0.0025643659755587578,-0.0032385524827986956,-0.1841561645269394,0.055925652384757996
0.002546061761677265,-0.003215411677956581,-0.1832062155008316,0.05552166700363159
0.0025278846733272076,-0.0031924964860081673,-0.18226313591003418,0.055120501667261124
0.00250983121804893,-0.0031699577812105417,-0.18132683634757996,0.054722100496292114
0.0024919023271650076,-0.003147297305986285,-0.18039731681346893,0.05432671681046486
0.00247409800067544,-0.0031248959712684155,-0.17947450280189514,0.05393410846590996
0.002456418704241514,-0.00310251722112298,-0.1785583794116974,0.053544364869594574
0.002438861643895507,-0.003080470021814108,-0.1776488721370697,0.05315728485584259
0.002421425189822912,-0.0030585764907300472,-0.1767459511756897,0.052772991359233856
0.0024041070137172937,-0.003036913461983204,-0.1758495271205902,0.052391406148672104
0.0023869099095463753,-0.0030151652172207832,-0.17495958507061005,0.05201268196105957
0.0023698320146650076,-0.002993697766214609,-0.17407609522342682,0.05163659527897835
0.002352871699258685,-0.002972398418933153,-0.17319901287555695,0.051263198256492615
0.0023360291961580515,-0.0029511856846511364,-0.17232824862003326,0.050892531871795654
0.0023193054366856813,-0.0029300295282155275,-0.1714637726545334,0.05052455887198448
0.002302697394043207,-0.002909170463681221,-0.17060557007789612,0.05015915259718895
0.0022862055338919163,-0.0028883249033242464,-0.1697535514831543,0.049796439707279205
0.0022698298562318087,-0.0028676099609583616,-0.16890770196914673,0.04943634197115898
0.0022535696625709534,-0.0028470661491155624,-0.16806796193122864,0.049078792333602905
0.0022374216932803392,-0.0028268410824239254,-0.16723430156707764,0.048723701387643814
0.0022213864140212536,-0.0028065990190953016,-0.16640666127204895,0.04837125539779663
0.00220546405762434,-0.0027864808216691017,-0.1655850112438202,0.0480213388800621
0.0021896513644605875,-0.0027666885871440172,-0.16476933658123016,0.047673847526311874
0.002173950197175145,-0.0027467943727970123,-0.1639595627784729,0.047328997403383255
0.0021583586931228638,-0.002727201674133539,-0.16315561532974243,0.046986524015665054
0.0021428782492876053,-0.0027075069956481457,-0.16235747933387756,0.04664662852883339
0.002127505373209715,-0.0026882048696279526,-0.1615651547908783,0.04630902782082558
0.0021122402977198362,-0.002668964210897684,-0.16077853739261627,0.045973896980285645
0.002097081858664751,-0.0026498879306018353,-0.1599976271390915,0.04564114287495613
0.002082028891891241,-0.002630962058901787,-0.15922236442565918,0.045310769230127335
0.0020670811645686626,-0.002612127223983407,-0.15845273435115814,0.04498279094696045
0.00205223704688251,-0.0025935163721442223,-0.15768863260746002,0.04465711861848831
0.0020374972373247147,-0.00257487827911973,-0.1569300889968872,0.04433388635516167
0.002022861037403345,-0.0025564702227711678,-0.15617704391479492,0.04401293024420738
0.002008328214287758,-0.002538119675591588,-0.1554294377565384,0.043694332242012024
0.001993898767977953,-0.00251978961750865,-0.15468722581863403,0.0433780737221241
0.001979571534320712,-0.002501772716641426,-0.15395040810108185,0.04306397959589958
0.001965343952178955,-0.0024838759563863277,-0.15321893990039825,0.042752161622047424
0.0019512176513671875,-0.0024659764021635056,-0.15249274671077728,0.042442671954631805
0.001937192166224122,-0.0024482065346091986,-0.15177181363105774,0.042135369032621384
0.0019232635386288166,-0.0024308122228831053,-0.15105611085891724,0.0418301597237587
0.0019094333983957767,-0.0024132898543030024,-0.1503455936908722,0.04152730107307434
0.0018957029096782207,-0.00239581149071455,-0.14964020252227783,0.04122664034366608
0.0018820683471858501,-0.0023787450045347214,-0.14893992245197296,0.04092799127101898
0.0018685307586565614,-0.0023615709505975246,-0.1482446938753128,0.04063161090016365
0.0018550888635218143,-0.0023446292616426945,-0.14755451679229736,0.04033729061484337
0.0018417407991364598,-0.002327866852283478,-0.14686934649944305,0.040045060217380524
0.0018284858670085669,-0.002311240416020155,-0.1461891382932663,0.039754949510097504
0.0018153255805373192,-0.0022945294622331858,-0.1455138623714447,0.03946704417467117
0.001802259823307395,-0.0022779684513807297,-0.14484350383281708,0.039181187748909
0.0017892863834276795,-0.0022616363130509853,-0.14417800307273865,0.038897328078746796
0.0017764042131602764,-0.0022453744895756245,-0.14351730048656464,0.03861553221940994
0.0017636148259043694,-0.0022291308268904686,-0.14286136627197266,0.03833582252264023
0.0017509158933535218,-0.0022131388541311026,-0.1422101855278015,0.038058020174503326
0.0017383062513545156,-0.0021972779650241137,-0.14156372845172882,0.037782222032547
0.0017257841536775231,-0.0021816114895045757,-0.140921950340271,0.03750837221741676
0.0017133518122136593,-0.0021657960023730993,-0.14028482139110565,0.03723664954304695
0.0017010068986564875,-0.0021503022871911526,-0.1396523118019104,0.036966774612665176
0.0016887487145140767,-0.002134851645678282,-0.13902437686920166,0.03669888898730278
0.001676579238846898,-0.0021193784195929766,-0.13840100169181824,0.036433011293411255
0.0016644957941025496,-0.0021041766740381718,-0.13778214156627655,0.036168958991765976
0.001652498496696353,-0.002088981680572033,-0.1371677815914154,0.03590685874223709
0.0016405859496444464,-0.002074014162644744,-0.13655787706375122,0.03564656525850296
0.0016287562903016806,-0.0020591949578374624,-0.13595238327980042,0.035388145595788956
0.0016170120798051357,-0.002044226508587599,-0.1353512555360794,0.03513171523809433
0.0016053497092798352,-0.0020296608563512564,-0.13475452363491058,0.034876953810453415
0.00159376859664917,-0.0020151352509856224,-0.13416211307048798,0.03462407365441322
0.001582267927005887,-0.0020007395651191473,-0.133573979139328,0.034373003989458084
0.001570847351104021,-0.0019864283967763186,-0.13299010694026947,0.03412379324436188
0.0015595094300806522,-0.0019719740375876427,-0.13241048157215118,0.03387650102376938
0.0015482520684599876,-0.001957833766937256,-0.13183504343032837,0.0336308591067791
0.0015370742185041308,-0.0019437498413026333,-0.13126379251480103,0.03338701277971268
0.0015259734354913235,-0.0019299342529848218,-0.13069668412208557,0.03314482793211937
0.0015149504179134965,-0.0019160727970302105,-0.13013367354869843,0.03290451690554619
0.0015040073776617646,-0.0019021460320800543,-0.1295747458934784,0.032666027545928955
-0.016771972179412842,0.0,0.0,0.0
-0.01322242058813572,0.274064838886261,0.002333762589842081,0.18025599420070648
-0.00889465119689703,0.24669049680233002,0.005208536982536316,0.16453775763511658
-0.005258315242826939,0.20194260776042938,0.00766025809571147,0.13687577843666077
-0.0023126890882849693,0.16281887888908386,0.009679378010332584,0.1122867688536644
4.643180363927968e-05,0.12997396290302277,0.011325277388095856,0.09130413830280304
0.0019153777975589037,0.10258623212575912,0.012653850950300694,0.07348811626434326
0.0033765549305826426,0.07983825355768204,0.01371331699192524,0.05838632211089134
0.0044997744262218475,0.06101469695568085,0.014544859528541565,0.04559963569045067
0.005343963857740164,0.045500244945287704,0.015183540061116219,0.03478265181183815
0.0059587168507277966,0.03276792913675308,0.015659146010875702,0.02563796006143093
0.0063856616616249084,0.022368762642145157,0.015996936708688736,0.0179107878357172
0.006659650709480047,0.013921044766902924,0.01621830090880394,0.0113833611831069
0.006809792015701532,0.00710152555257082,0.016341323032975197,0.005870244465768337
0.006860331166535616,0.0016367924399673939,0.016381284222006798,0.0012137711746618152
0.006831420119851828,-0.002702940721064806,0.016351088881492615,-0.002719353651627898
0.006739766802638769,-0.006111122667789459,0.0162616278976202,-0.006042038556188345
0.006599188316613436,-0.008749972097575665,0.01612209342420101,-0.008849588222801685
0.006421075202524662,-0.01075531542301178,0.015940237790346146,-0.011222370900213718
0.0062147947028279305,-0.012240546755492687,0.0157226100564003,-0.013228078372776508
0.005988018587231636,-0.013300716876983643,0.015474743209779263,-0.01492390688508749
0.00574701139703393,-0.014014334417879581,0.015201306901872158,-0.016357634216547012
0.005496860481798649,-0.014447392895817757,0.01490625087171793,-0.01756983809173107
0.005241678562015295,-0.014654307626187801,0.014592920430004597,-0.018594413995742798
0.004984769504517317,-0.014680217020213604,0.014264150522649288,-0.019459908828139305
0.004728764295578003,-0.014562510885298252,0.013922348618507385,-0.020190337672829628
0.004475741647183895,-0.01433215569704771,0.01356955524533987,-0.020805994048714638
0.0042273239232599735,-0.01401450764387846,0.01320751290768385,-0.02132387086749077
0.003984750714153051,-0.0136307617649436,0.012837703339755535,-0.021758457645773888
0.0037489598616957664,-0.0131977004930377,0.01246139407157898,-0.022121626883745193
0.0035206349566578865,-0.012729370035231113,0.012079672887921333,-0.022423667833209038
0.0033002481795847416,-0.012237672694027424,0.011693469248712063,-0.022673452273011208
0.003088109428063035,-0.01173119805753231,0.011303585022687912,-0.02287791669368744
0.0028843898326158524,-0.011217931285500526,0.01091071031987667,-0.02304355427622795
0.0026891534216701984,-0.010703531093895435,0.010515443049371243,-0.023175407201051712
0.0025023792404681444,-0.010192641988396645,0.010118303820490837,-0.02327789179980755
0.002323976019397378,-0.009689186699688435,0.009719742462038994,-0.023354897275567055
0.0021538001019507647,-0.009195834398269653,0.009320154786109924,-0.023409567773342133
0.001991666154935956,-0.00871499627828598,0.008919885382056236,-0.023444777354598045
0.0018373563652858138,-0.00824818853288889,0.00851923692971468,-0.023462830111384392
0.0016906310338526964,-0.007796706631779671,0.008118473924696445,-0.023465819656848907
0.0015512359095737338,-0.007361137308180332,0.0077178324572741985,-0.023455359041690826
0.0014189070789143443,-0.006941969506442547,0.007317523937672377,-0.023432990536093712
0.0012933698017150164,-0.006539853289723396,0.006917730905115604,-0.023400207981467247
0.0011743541108444333,-0.006154169328510761,0.0065186223946511745,-0.023357775062322617
0.0010615867795422673,-0.005785259418189526,0.006120345555245876,-0.02330695651471615
0.0009547962108626962,-0.005432887934148312,0.005723034963011742,-0.023248614743351936
0.0008537155226804316,-0.00509673822671175,0.005326807964593172,-0.023183492943644524
0.0007580865640193224,-0.004776117857545614,0.004931773524731398,-0.023112095892429352
0.0006676556076854467,-0.004470950923860073,0.004538028966635466,-0.023035237565636635
0.0005821762606501579,-0.004180545452982187,0.00414566183462739,-0.022953320294618607
0.0005014117923565209,-0.00390443904325366,0.0037547519896179438,-0.022866850718855858
0.0004251322243362665,-0.0036421718541532755,0.003365372074767947,-0.02277626283466816
0.000353118492057547,-0.0033930332865566015,0.0029775884468108416,-0.022681865841150284
0.00028515871963463724,-0.003156621241942048,0.002591460943222046,-0.022584043443202972
0.00022105156676843762,-0.002932255854830146,0.0022070445120334625,-0.022483060136437416
0.0001606026489753276,-0.002719566226005554,0.001824388513341546,-0.02237929403781891
0.0001036232351907529,-0.002518206601962447,0.0014435367193073034,-0.022273072972893715
4.993886250304058e-05,-0.0023271809332072735,0.0010645313886925578,-0.022164329886436462
-6.180042646519723e-07,-0.002146222162991762,0.0006874107057228684,-0.022053444758057594
-4.820847243536264e-05,-0.0019748895429074764,0.00031220787786878645,-0.021940691396594048
-9.299085650127381e-05,-0.0018130880780518055,-6.104989734012634e-05,-0.021826433017849922
-0.00013511315046343952,-0.0016600321978330612,-0.00043233600445091724,-0.02171059511601925
-0.00017471190949436277,-0.0015150865074247122,-0.0008016240317374468,-0.02159322053194046
-0.00021191906125750393,-0.0013780309818685055,-0.0011688910890370607,-0.021474571898579597
-0.0002468599413987249,-0.001248480286449194,-0.0015341165708377957,-0.021354764699935913
-0.0002796550979837775,-0.0011260751634836197,-0.001897282898426056,-0.02123393304646015
-0.0003104154020547867,-0.0010102585656568408,-0.0022583724930882454,-0.02111208438873291
-0.000339246034855023,-0.0009006811887957156,-0.0026173696387559175,-0.02098933421075344
-0.00036625302163884044,-0.0007975556072779,-0.002974263858050108,-0.020866094157099724
-0.0003915327542927116,-0.0007000226760283113,-0.0033290437422692776,-0.020742114633321762
-0.0004151756293140352,-0.0006078723818063736,-0.003681698814034462,-0.020617539063096046
-0.00043726773583330214,-0.0005208532675169408,-0.004032219760119915,-0.020492473617196083
-0.0004578922817017883,-0.00043881003512069583,-0.004380600526928902,-0.020367072895169258
-0.00047712799278087914,-0.0003614108427427709,-0.004726835060864687,-0.020241357386112213
-0.0004950508009642363,-0.0002885476569645107,-0.00507092010229826,-0.020115450024604797
-0.0005117279361002147,-0.00021959253353998065,-0.005412850994616747,-0.019989218562841415
-0.0005272283451631665,-0.00015483156312257051,-0.005752626806497574,-0.01986299641430378
-0.0005416145431809127,-9.370455518364906e-05,-0.006090243812650442,-0.01973664201796055
-0.0005549480556510389,-3.6262557841837406e-05,-0.006425703875720501,-0.019610339775681496
-0.0005672842962667346,1.7952988855540752e-05,-0.006759007461369038,-0.019484007731080055
-0.0005786792025901377,6.878725253045559e-05,-0.0070901550352573395,-0.019357865676283836
-0.000589183357078582,0.0001167156733572483,-0.007419148925691843,-0.01923176273703575
-0.0005988448392599821,0.00016176505596376956,-0.0077459909953176975,-0.019105836749076843
-0.0006077100988477468,0.00020405225222930312,-0.008070685900747776,-0.018980126827955246
-0.0006158199394121766,0.00024401085101999342,-0.008393234573304653,-0.018854545429348946
-0.0006232186569832265,0.00028122731600888073,-0.008713643997907639,-0.01872941665351391
-0.0006299465894699097,0.00031614932231605053,-0.009031921625137329,-0.018604572862386703
-0.0006360384868457913,0.00034905984648503363,-0.009348069317638874,-0.018479956313967705
-0.0006415287498384714,0.0003799042315222323,-0.009662093594670296,-0.018355725333094597
-0.0006464511388912797,0.0004087372508365661,-0.009974001906812191,-0.018231941387057304
-0.0006508424412459135,0.0004353604163043201,-0.01028380449861288,-0.018108755350112915
-0.0006547283264808357,0.0004606490256264806,-0.010591503232717514,-0.01798575557768345
-0.0006581379566341639,0.00048412795877084136,-0.010897109284996986,-0.017863310873508453
-0.0006610983982682228,0.000506016833242029,-0.01120063103735447,-0.01774134486913681
-0.0006636340403929353,0.000526529096532613,-0.011502075009047985,-0.01761980727314949
-0.0006657690973952413,0.0005455948994494975,-0.011801449581980705,-0.01749880611896515
-0.0006675266777165234,0.0005632722750306129,-0.01209876500070095,-0.017378363758325577
-0.0006689287256449461,0.0005797295598313212,-0.012394029647111893,-0.017258431762456894
-0.0006699953228235245,0.0005950295017100871,-0.012687252834439278,-0.01713903807103634
-0.0006707467255182564,0.0006090895039960742,-0.012978444807231426,-0.01702025905251503
-0.0006711977766826749,0.0006224066019058228,-0.01326761394739151,-0.01690186932682991
-0.000671368557959795,0.0006344037828966975,-0.013554771430790424,-0.016784271225333214
-0.000671275076456368,0.0006455640541389585,-0.01383992750197649,-0.016667213290929794
-0.0006709349108859897,0.0006556537700816989,-0.014123094268143177,-0.01655084639787674
-0.0006703610997647047,0.0006651101284660399,-0.014404278248548508,-0.016434980556368828
-0.0006695677875541151,0.0006736353971064091,-0.014683492481708527,-0.016319843009114265
-0.0006685699336230755,0.0006813326035626233,-0.01496074814349413,-0.016205357387661934
-0.000667380343656987,0.0006883313180878758,-0.01523605640977621,-0.01609147898852825
-0.0006660097860731184,0.0006946902722120285,-0.015509428456425667,-0.015978194773197174
-0.0006644678069278598,0.0007005406077951193,-0.015780871734023094,-0.015865487977862358
-0.0006627633119933307,0.0007058964110910892,-0.01605040207505226,-0.015753373503684998
-0.0006609095726162195,0.0007103501120582223,-0.016318025067448616,-0.01564212143421173
-0.0006589161930605769,0.0007144032279029489,-0.016583755612373352,-0.015531432814896107
-0.0006567922537215054,0.0007179113454185426,-0.016847606748342514,-0.015421434305608273
-0.0006545449141412973,0.0007210364565253258,-0.01710958406329155,-0.01531204953789711
-0.0006521831965073943,0.0007236141245812178,-0.017369704321026802,-0.015203389339148998
-0.0006497155409306288,0.0007257177494466305,-0.017627974972128868,-0.015095401555299759
-0.0006471477099694312,0.0007275602547451854,-0.017884409055113792,-0.014988012611865997
-0.0006444876780733466,0.0007288861670531332,-0.01813902147114277,-0.014881385490298271
-0.0006417416734620929,0.000729916850104928,-0.018391819670796394,-0.014775378629565239
-0.0006389154586941004,0.0007306389743462205,-0.018642814829945564,-0.014670029282569885
-0.0006360163097269833,0.0007308998610824347,-0.018892021849751472,-0.014565407298505306
-0.0006330469623208046,0.0007311315275728703,-0.019139448180794716,-0.014461294747889042
-0.0006300122477114201,0.0007310167420655489,-0.01938510313630104,-0.014357896521687508
-0.0006269184523262084,0.0007305364706553519,-0.01962900348007679,-0.014255223795771599
-0.0006237686611711979,0.0007299735443666577,-0.01987115852534771,-0.01415315642952919
-0.000620569393504411,0.0007289571221917868,-0.020111581310629845,-0.014051875099539757
-0.0006173258298076689,0.0007277310360223055,-0.02035028114914894,-0.013951248489320278
-0.0006140394834801555,0.0007264637388288975,-0.020587269216775894,-0.013851200230419636
-0.0006107160006649792,0.0007247807225212455,-0.02082255855202675,-0.013751942664384842
-0.000607357535045594,0.0007231048657558858,-0.02105615846812725,-0.013653229922056198
-0.0006039677537046373,0.0007211725460365415,-0.021288083866238594,-0.013555236160755157
-0.0006005503819324076,0.000719058676622808,-0.021518342196941376,-0.01345791108906269
-0.0005971071659587324,0.0007169276941567659,-0.02174694836139679,-0.013361181132495403
-0.0005936428206041455,0.0007144451374188066,-0.02197391167283058,-0.013265230692923069
-0.0005901593249291182,0.0007119328365661204,-0.022199243307113647,-0.0131698502227664
-0.0005866576102562249,0.0007093705935403705,-0.022422952577471733,-0.013075082562863827
-0.0005831412854604423,0.000706626451574266,-0.022645054385066032,-0.012981015257537365
-0.0005796136101707816,0.0007036910392343998,-0.02286555990576744,-0.012887625023722649
-0.0005760726053267717,0.0007010039407759905,-0.023084476590156555,-0.012794685550034046
-0.0005725238006561995,0.0006978304008953273,-0.02330181747674942,-0.01270261313766241
-0.0005689670797437429,0.0006948469672352076,-0.023517588153481483,-0.012611030600965023
-0.0005654077976942062,0.0006914291298016906,-0.023731809109449387,-0.012520278804004192
-0.0005618445575237274,0.0006882842862978578,-0.023944485932588577,-0.012429964728653431
-0.0005582798621617258,0.000684875063598156,-0.024155622348189354,-0.012340374290943146
-0.0005547139444388449,0.0006815692177042365,-0.024365238845348358,-0.01225132867693901
-0.0005511504132300615,0.0006779792020097375,-0.024573342874646187,-0.012163016013801098
-0.0005475873476825655,0.0006746577564626932,-0.024779947474598885,-0.012075144797563553
-0.0005440294626168907,0.0006709193694405258,-0.024985061958432198,-0.011988094076514244
-0.0005404747789725661,0.0006674902397207916,-0.025188693776726723,-0.011901456862688065
-0.0005369262071326375,0.0006637684418819845,-0.025390854105353355,-0.011815560981631279
-0.000533382932189852,0.0006602283101528883,-0.025591552257537842,-0.011730161495506763
-0.0005298479227349162,0.0006564302602782845,-0.025790804997086525,-0.011645479127764702
-0.0005263207131065428,0.0006527554942294955,-0.025988616049289703,-0.011561300605535507
-0.0005228031659498811,0.0006489725201390684,-0.026184996590018272,-0.011477773077785969
-0.0005192949320189655,0.0006452380330301821,-0.026379959657788277,-0.011394796893000603
-0.0005157979903742671,0.0006414097733795643,-0.026573514565825462,-0.011312463320791721
-0.0005123131559230387,0.0006375458324328065,-0.026765670627355576,-0.011230704374611378
-0.0005088407779112458,0.0006336840451695025,-0.026956437155604362,-0.011149528436362743
-0.0005053812637925148,0.0006298281950876117,-0.02714582160115242,-0.011068898253142834
-0.0005019344971515238,0.0006260325899347663,-0.02733384072780609,-0.010988812893629074
-0.0004985012346878648,0.000622166320681572,-0.027520496398210526,-0.010909323580563068
-0.0004950828151777387,0.0006182510405778885,-0.027705803513526917,-0.010830416344106197
-0.0004916773177683353,0.0006145024672150612,-0.027889767661690712,-0.010751985013484955
-0.0004882874200120568,0.0006105267675593495,-0.028072401881217957,-0.010674254968762398
-0.0004849136166740209,0.0006066339556127787,-0.028253713622689247,-0.010597020387649536
-0.00048155587865039706,0.0006027417839504778,-0.02843371406197548,-0.010520336218178272
-0.0004782139731105417,0.0005988923367112875,-0.028612414374947548,-0.010444177314639091
-0.0004748893261421472,0.000594941433519125,-0.0287898201495409,-0.010368634946644306
-0.0004715832765214145,0.0005909722531214356,-0.028965944424271584,-0.01029362715780735
-0.00046829297207295895,0.0005872324109077454,-0.029140790924429893,-0.010219022631645203
-0.00046501928591169417,0.0005833560135215521,-0.029314370825886726,-0.010145026259124279
-0.0004617617232725024,0.0005796054610982537,-0.02948669344186783,-0.01007150113582611
-0.00045852139010094106,0.0005757621838711202,-0.029657769948244095,-0.00999858882278204
-0.0004553010512609035,0.0005717615131288767,-0.029827609658241272,-0.009926268830895424
-0.0004520980583038181,0.0005680375033989549,-0.029996216297149658,-0.009854319505393505
-0.00044891281868331134,0.0005642421310767531,-0.030163602903485298,-0.009782937355339527
-0.0004457462055142969,0.0005603835452347994,-0.03032977320253849,-0.009712117724120617
-0.00044259827700443566,0.0005566183244809508,-0.030494743958115578,-0.009641759097576141
-0.0004394689167384058,0.000552800833247602,-0.03065851889550686,-0.009571953676640987
-0.00043635908514261246,0.0005489796167239547,-0.03082110919058323,-0.009502640925347805
-0.00043326785089448094,0.0005452518817037344,-0.030982520431280136,-0.009433758445084095
-0.00043019282747991383,0.0005417093634605408,-0.031142760068178177,-0.009365308098495007
-0.00042713788570836186,0.0005378302303142846,-0.031301841139793396,-0.009297567419707775
-0.0004241027345415205,0.0005341116338968277,-0.03145976737141609,-0.009230212308466434
-0.00042108664638362825,0.0005304156802594662,-0.03161655366420746,-0.009163333103060722
-0.00041808898095041513,0.0005267860251478851,-0.031772203743457794,-0.009096902795135975
-0.0004151100874878466,0.000523134192917496,-0.0319267176091671,-0.009030976332724094
-0.0004121495585422963,0.0005195445846766233,-0.032080117613077164,-0.008965498767793179
-0.000409207510529086,0.0005159481079317629,-0.032232411205768585,-0.008900517597794533
-0.0004062841471750289,0.0005123676965013146,-0.03238359093666077,-0.00883601326495409
-0.00040337946848012507,0.0005088014295324683,-0.0325336754322052,-0.008771993219852448
-0.00040049696690402925,0.0005049830651842058,-0.03268267586827278,-0.008708564564585686
-0.0003976325679104775,0.0005015853093937039,-0.03283059969544411,-0.008645354770123959
-0.00039478502003476024,0.0004981727106496692,-0.03297744691371918,-0.00858264323323965
-0.0003919574955943972,0.0004945443943142891,-0.03312322869896889,-0.008520503528416157
-0.00038914833567105234,0.0004911328433081508,-0.03326795622706413,-0.008458711206912994
-0.0003863592864945531,0.00048754451563581824,-0.03341163694858551,-0.008397464640438557
-0.0003835872339550406,0.0004842673079110682,-0.03355427458882332,-0.0083365049213171
-0.0003808349138125777,0.0004807070945389569,-0.03369588032364845,-0.008276158012449741
-0.0003781006089411676,0.0004773701657541096,-0.03383645787835121,-0.008216127753257751
-0.00037538501783274114,0.0004739732248708606,-0.03397601470351219,-0.008156593888998032
-0.0003726885770447552,0.00047056059702299535,-0.03411455824971199,-0.00809749960899353
-0.00037001099553890526,0.0004671982896979898,-0.0342521034181118,-0.008038803935050964
-0.00036735011963173747,0.0004639819962903857,-0.034388646483421326,-0.007980472408235073
-0.0003647081321105361,0.00046060216845944524,-0.034524206072092056,-0.007922676391899586
-0.0003620849165599793,0.0004572976322378963,-0.03465878218412399,-0.007865258492529392
-0.00035947945434600115,0.00045407292782329023,-0.03479238599538803,-0.00780821917578578
-0.00035689177457243204,0.00045083879376761615,-0.03492501378059387,-0.007751616649329662
-0.00035432196455076337,0.00044762413017451763,-0.03505668044090271,-0.0076954299584031105
-0.0003517720033414662,0.00044429453555494547,-0.03518739342689514,-0.007639714982360601
-0.00034923877683468163,0.000441232870798558,-0.035317160189151764,-0.00758425472304225
-0.0003467226924840361,0.00043805630411952734,-0.035445988178253174,-0.00752926804125309
-0.0003442229353822768,0.0004350232775323093,-0.03557387366890907,-0.007474618032574654
-0.0003417415136937052,0.00043183297384530306,-0.03570084273815155,-0.0074204690754413605
-0.0003392774669919163,0.00042873952770605683,-0.03582688793540001,-0.007366654463112354
-0.00033682858338579535,0.0004258326953276992,-0.035952020436525345,-0.007313148584216833
-0.0003343982098158449,0.0004226206219755113,-0.036076247692108154,-0.007260208483785391
-0.0003319838142488152,0.0004197265370748937,-0.036199573427438736,-0.007207490969449282
-0.0003295878996141255,0.00041655742097646,-0.03632200136780739,-0.007155320607125759
-0.0003272089234087616,0.0004136332427151501,-0.03644353896379471,-0.007103389594703913
-0.0003248451102990657,0.00041074142791330814,-0.03656419739127159,-0.007051836233586073
-0.00032249867217615247,0.0004077130579389632,-0.03668397665023804,-0.007000738754868507
-0.0003201689396519214,0.0004048189439345151,-0.03680288791656494,-0.006949952803552151
-0.00031785486498847604,0.00040193996392190456,-0.0369209423661232,-0.006899557076394558
-0.0003155581362079829,0.00039896421367302537,-0.03703813999891281,-0.006849590688943863
-0.00031327863689512014,0.00039604579797014594,-0.037154484540224075,-0.006799954455345869
-0.00031101563945412636,0.00039318547351285815,-0.03726998716592789,-0.006750648841261864
-0.000308768154354766,0.0003904004697687924,-0.03738465532660484,-0.006701662205159664
-0.00030653676367364824,0.00038756325375288725,-0.037498489022254944,-0.0066530765034258366
-0.0003043206233996898,0.0003848292399197817,-0.037611495703458786,-0.006604793015867472
-0.00030212008277885616,0.00038205384043976665,-0.037723686546087265,-0.0065569039434194565
-0.00029993560747243464,0.0003792735515162349,-0.03783506155014038,-0.006509385071694851
-0.0002977672847919166,0.0003765049041248858,-0.03794562816619873,-0.006462227553129196
-0.00029561627889052033,0.0003736535436473787,-0.03805539384484291,-0.006415429525077343
-0.0002934795629698783,0.0003710822493303567,-0.03816436231136322,-0.006368817761540413
-0.0002913566422648728,0.00036848150193691254,-0.03827253729104996,-0.0063225929625332355
-0.0002892489137593657,0.00036577123682945967,-0.038379933685064316,-0.006276776548475027
-0.0002871567849069834,0.0003631353029049933,-0.038486547768116,-0.006231248844414949
-0.00028507859678938985,0.00036059145350009203,-0.0385923869907856,-0.006186030339449644
-0.0002830171724781394,0.00035782044869847596,-0.038697466254234314,-0.006141264922916889
-0.000280969514278695,0.0003553666756488383,-0.038801781833171844,-0.006096662487834692
-0.00027893722290173173,0.00035270399530418217,-0.03890534117817879,-0.006052500568330288
-0.0002769191632978618,0.0003501857863739133,-0.03900814428925514,-0.006008582655340433
-0.000274914811598137,0.0003477299469523132,-0.0391102060675621,-0.005964961834251881
-0.0002729250118136406,0.00034518493339419365,-0.03921153023838997,-0.0059217060916125774
-0.00027094819233752787,0.0003427736519370228,-0.03931211307644844,-0.005878699477761984
-0.0002689858083613217,0.00034027843503281474,-0.039411965757608414,-0.005836084485054016
-0.000267038558376953,0.0003377429093234241,-0.03951110318303108,-0.005793802905827761
-0.0002651054528541863,0.0003353168722242117,-0.03960951790213585,-0.005751756951212883
-0.00026318489108234644,0.0003329648170620203,-0.03970721364021301,-0.005709999706596136
-0.00026127827004529536,0.0003305220161564648,-0.03980420157313347,-0.0056686075404286385
-0.00025938558974303305,0.0003281302342657,-0.039900489151477814,-0.0056274887174367905
-0.00025750641361810267,0.00032576420926488936,-0.03999607637524605,-0.005586660001426935
-0.00025564018869772553,0.00032344908686354756,-0.04009097069501877,-0.00554610462859273
-0.000253787002293393,0.0003211253497283906,-0.04018517956137657,-0.005505860783159733
-0.00025194708723574877,0.0003188039408996701,-0.040278706699609756,-0.00546592241153121
-0.0002501205599401146,0.00031648576259613037,-0.04037155210971832,-0.005426288582384586
-0.00024830689653754234,0.000314224511384964,-0.040463726967573166,-0.005386924371123314
-0.0002465080178808421,0.00031183287501335144,-0.04055522754788399,-0.005347921513020992
-0.0002447218867018819,0.0003096303844358772,-0.04064606875181198,-0.00530910212546587
-0.00024294904142152518,0.0003073178231716156,-0.04073624685406685,-0.005270630121231079
-0.00024118796864058822,0.0003051931853406131,-0.040825776755809784,-0.005232342518866062
-0.00023944048734847456,0.00030290643917396665,-0.04091465473175049,-0.005194435827434063
-0.0002377056225668639,0.00030071535729803145,-0.04100288450717926,-0.005156743340194225
-0.0002359812060603872,0.0002986965118907392,-0.041090477257966995,-0.005119245033711195
-0.00023427014821209013,0.00029643846210092306,-0.04117743298411369,-0.005082177929580212
-0.00023257214343175292,0.00029424234526231885,-0.04126376658678055,-0.005045346915721893
-0.00023088646412361413,0.0002921472769230604,-0.041349466890096664,-0.005008725915104151
-0.00022921299387235194,0.00028999336063861847,-0.04143454506993294,-0.004972419235855341
-0.0002275517617817968,0.0002879177045542747,-0.041519008576869965,-0.004936337471008301
